%
(IKONA_OSTATOK)
(T8 D=6. CR=3. - ZMIN=-3. - BALL END MILL)
N10 G90 G94 G17 G91.1
N15 G21
N20 G53 G0 Z0.
(PARALLEL7)
N25 T8 M6
N30 S24000 M3
N35 G17 G90 G94
N40 G54
N45 G64 P0.01 Q0.01
N50 G0 X-0.991 Y-54.092
N55 G43 Z15. H8
N60 G0 Z1.996
N65 G1 Z0.6 F800.
N70 X-0.997 Y-54.097 Z0.506 F2400.
N75 X-1.012 Y-54.113 Z0.415
N80 X-1.038 Y-54.138 Z0.328
N85 X-1.072 Y-54.173 Z0.247
N90 X-1.116 Y-54.216 Z0.176
N95 X-1.166 Y-54.267 Z0.115
N100 X-1.223 Y-54.323 Z0.065
N105 X-1.285 Y-54.385 Z0.029
N110 X-1.349 Y-54.45 Z0.007
N115 X-1.416 Y-54.516 Z0.
N120 X-2.484 Y-55.584
N125 X-2.532 Y-55.632 Z0.008
N130 X-2.577 Y-55.678 Z0.031
N135 X-2.623 Y-55.723 Z0.053
N140 X-2.671 Y-55.771 Z0.061
N145 X-2.892 Y-55.992
N150 X-2.914 Y-56.005
N155 X-2.94
N160 X-2.963 Y-55.992
N165 X-2.976 Y-55.97
N170 Y-55.944
N175 X-2.963 Y-55.922
N180 X-2.915 Y-55.874 Z0.053
N185 X-2.869 Y-55.828 Z0.031
N190 X-2.824 Y-55.783 Z0.008
N195 X-2.776 Y-55.735 Z0.
N200 X-1.265 Y-54.224
N205 X-1.217 Y-54.176 Z0.008
N210 X-1.172 Y-54.131 Z0.031
N215 X-1.126 Y-54.085 Z0.053
N220 X-1.078 Y-54.037 Z0.061
N225 X-0.909 Y-53.868
N230 X-0.896 Y-53.846
N235 Y-53.82
N240 X-0.909 Y-53.797
N245 X-0.931 Y-53.784
N250 X-0.957
N255 X-0.98 Y-53.797
N260 X-1.028 Y-53.845 Z0.053
N265 X-1.073 Y-53.891 Z0.031
N270 X-1.118 Y-53.936 Z0.008
N275 X-1.166 Y-53.984 Z0.
N280 X-3.016 Y-55.834
N285 X-3.064 Y-55.881 Z0.008
N290 X-3.109 Y-55.927 Z0.031
N295 X-3.155 Y-55.972 Z0.053
N300 X-3.203 Y-56.02 Z0.061
N305 X-3.331 Y-56.148
N310 X-3.353 Y-56.161
N315 X-3.379
N320 X-3.401 Y-56.148
N325 X-3.414 Y-56.126
N330 Y-56.1
N335 X-3.401 Y-56.078
N340 X-3.353 Y-56.03 Z0.053
N345 X-3.308 Y-55.984 Z0.031
N350 X-3.263 Y-55.939 Z0.008
N355 X-3.215 Y-55.891 Z0.
N360 X-1.109 Y-53.785
N365 X-1.061 Y-53.737 Z0.008
N370 X-1.016 Y-53.692 Z0.031
N375 X-0.97 Y-53.647 Z0.053
N380 X-0.922 Y-53.599 Z0.061
N385 X-0.806 Y-53.482
N390 X-0.793 Y-53.46
N395 Y-53.434
N400 X-0.806 Y-53.412
N405 X-0.828 Y-53.399
N410 X-0.854
N415 X-0.877 Y-53.412
N420 X-0.925 Y-53.459 Z0.053
N425 X-0.97 Y-53.505 Z0.031
N430 X-1.016 Y-53.55 Z0.008
N435 X-1.063 Y-53.598 Z0.
N440 X-3.402 Y-55.937
N445 X-3.45 Y-55.984 Z0.008
N450 X-3.495 Y-56.03 Z0.031
N455 X-3.541 Y-56.075 Z0.053
N460 X-3.588 Y-56.123 Z0.061
N465 X-3.688 Y-56.223
N470 X-3.71 Y-56.236
N475 X-3.736
N480 X-3.759 Y-56.223
N485 X-3.772 Y-56.2
N490 Y-56.175
N495 X-3.759 Y-56.152
N500 X-3.711 Y-56.104 Z0.053
N505 X-3.665 Y-56.059 Z0.031
N510 X-3.62 Y-56.013 Z0.008
N515 X-3.572 Y-55.965 Z0.
N520 X-1.034 Y-53.428
N525 X-0.987 Y-53.38 Z0.008
N530 X-0.941 Y-53.335 Z0.031
N535 X-0.896 Y-53.289 Z0.053
N540 X-0.848 Y-53.241 Z0.061
N545 X-0.758 Y-53.151
N550 X-0.745 Y-53.129
N555 Y-53.103
N560 X-0.758 Y-53.08
N565 X-0.78 Y-53.067
N570 X-0.806
N575 X-0.828 Y-53.08
N580 X-0.876 Y-53.128 Z0.053
N585 X-0.922 Y-53.174 Z0.031
N590 X-0.967 Y-53.219 Z0.008
N595 X-1.015 Y-53.267 Z0.
N600 X-3.733 Y-55.985
N605 X-3.781 Y-56.033 Z0.008
N610 X-3.826 Y-56.078 Z0.031
N615 X-3.872 Y-56.124 Z0.053
N620 X-3.92 Y-56.172 Z0.061
N625 X-3.999 Y-56.251
N630 X-4.021 Y-56.264
N635 X-4.047
N640 X-4.07 Y-56.251
N645 X-4.083 Y-56.228
N650 Y-56.203
N655 X-4.07 Y-56.18
N660 X-4.022 Y-56.132 Z0.053
N665 X-3.976 Y-56.087 Z0.031
N670 X-3.931 Y-56.041 Z0.008
N675 X-3.883 Y-55.993 Z0.
N680 X-1.007 Y-53.117
N685 X-0.959 Y-53.069 Z0.008
N690 X-0.913 Y-53.024 Z0.031
N695 X-0.868 Y-52.978 Z0.053
N700 X-0.82 Y-52.93 Z0.061
N705 X-0.743 Y-52.853
N710 X-0.73 Y-52.831
N715 Y-52.805
N720 X-0.743 Y-52.782
N725 X-0.765 Y-52.769
N730 X-0.791
N735 X-0.813 Y-52.782
N740 X-0.861 Y-52.83 Z0.053
N745 X-0.907 Y-52.876 Z0.031
N750 X-0.952 Y-52.921 Z0.008
N755 X-1. Y-52.969 Z0.
N760 X-4.031 Y-56.
N765 X-4.079 Y-56.048 Z0.008
N770 X-4.124 Y-56.093 Z0.031
N775 X-4.17 Y-56.139 Z0.053
N780 X-4.218 Y-56.187 Z0.061
N785 X-4.288 Y-56.257
N790 X-4.311 Y-56.27
N795 X-4.337
N800 X-4.359 Y-56.257
N805 X-4.372 Y-56.235
N810 Y-56.209
N815 X-4.359 Y-56.187
N820 X-4.311 Y-56.139 Z0.053
N825 X-4.266 Y-56.093 Z0.031
N830 X-4.22 Y-56.048 Z0.008
N835 X-4.172 Y-56. Z0.
N840 X-1. Y-52.828
N845 X-0.952 Y-52.78 Z0.008
N850 X-0.907 Y-52.734 Z0.031
N855 X-0.861 Y-52.689 Z0.053
N860 X-0.813 Y-52.641 Z0.061
N865 X-0.743 Y-52.57
N870 X-0.73 Y-52.548
N875 Y-52.522
N880 X-0.743 Y-52.5
N885 X-0.765 Y-52.487
N890 X-0.791
N895 X-0.813 Y-52.5
N900 X-0.861 Y-52.548 Z0.053
N905 X-0.907 Y-52.593 Z0.031
N910 X-0.952 Y-52.638 Z0.008
N915 X-1. Y-52.686 Z0.
N920 X-4.314 Y-56.
N925 X-4.362 Y-56.048 Z0.008
N930 X-4.407 Y-56.093 Z0.031
N935 X-4.452 Y-56.139 Z0.053
N940 X-4.5 Y-56.187 Z0.061
N945 X-4.571 Y-56.257
N950 X-4.594 Y-56.27
N955 X-4.619
N960 X-4.642 Y-56.257
N965 X-4.655 Y-56.235
N970 Y-56.209
N975 X-4.642 Y-56.187
N980 X-4.594 Y-56.139 Z0.053
N985 X-4.548 Y-56.093 Z0.031
N990 X-4.503 Y-56.048 Z0.008
N995 X-4.455 Y-56. Z0.
N1000 X-1. Y-52.545
N1005 X-0.952 Y-52.497 Z0.008
N1010 X-0.907 Y-52.452 Z0.031
N1015 X-0.861 Y-52.406 Z0.053
N1020 X-0.813 Y-52.358 Z0.061
N1025 X-0.743 Y-52.287
N1030 X-0.73 Y-52.265
N1035 Y-52.239
N1040 X-0.743 Y-52.217
N1045 X-0.765 Y-52.204
N1050 X-0.791
N1055 X-0.813 Y-52.217
N1060 X-0.861 Y-52.265 Z0.053
N1065 X-0.907 Y-52.31 Z0.031
N1070 X-0.952 Y-52.356 Z0.008
N1075 X-1. Y-52.403 Z0.
N1080 X-4.597 Y-56.
N1085 X-4.644 Y-56.048 Z0.008
N1090 X-4.69 Y-56.093 Z0.031
N1095 X-4.735 Y-56.139 Z0.053
N1100 X-4.783 Y-56.187 Z0.061
N1105 X-4.854 Y-56.257
N1110 X-4.876 Y-56.27
N1115 X-4.902
N1120 X-4.925 Y-56.257
N1125 X-4.938 Y-56.235
N1130 Y-56.209
N1135 X-4.925 Y-56.187
N1140 X-4.877 Y-56.139 Z0.053
N1145 X-4.831 Y-56.093 Z0.031
N1150 X-4.786 Y-56.048 Z0.008
N1155 X-4.738 Y-56. Z0.
N1160 X-1. Y-52.262
N1165 X-0.952 Y-52.214 Z0.008
N1170 X-0.907 Y-52.169 Z0.031
N1175 X-0.861 Y-52.123 Z0.053
N1180 X-0.813 Y-52.075 Z0.061
N1185 X-0.743 Y-52.005
N1190 X-0.73 Y-51.982
N1195 Y-51.956
N1200 X-0.743 Y-51.934
N1205 X-0.765 Y-51.921
N1210 X-0.791
N1215 X-0.813 Y-51.934
N1220 X-0.861 Y-51.982 Z0.053
N1225 X-0.907 Y-52.027 Z0.031
N1230 X-0.952 Y-52.073 Z0.008
N1235 X-1. Y-52.121 Z0.
N1240 X-4.879 Y-56.
N1245 X-4.927 Y-56.048 Z0.008
N1250 X-4.973 Y-56.093 Z0.031
N1255 X-5.018 Y-56.139 Z0.053
N1260 X-5.066 Y-56.187 Z0.061
N1265 X-5.137 Y-56.257
N1270 X-5.159 Y-56.27
N1275 X-5.185
N1280 X-5.208 Y-56.257
N1285 X-5.22 Y-56.235
N1290 Y-56.209
N1295 X-5.208 Y-56.187
N1300 X-5.16 Y-56.139 Z0.053
N1305 X-5.114 Y-56.093 Z0.031
N1310 X-5.069 Y-56.048 Z0.008
N1315 X-5.021 Y-56. Z0.
N1320 X-1. Y-51.979
N1325 X-0.952 Y-51.931 Z0.008
N1330 X-0.907 Y-51.886 Z0.031
N1335 X-0.861 Y-51.84 Z0.053
N1340 X-0.813 Y-51.792 Z0.061
N1345 X-0.743 Y-51.722
N1350 X-0.73 Y-51.699
N1355 Y-51.673
N1360 X-0.743 Y-51.651
N1365 X-0.765 Y-51.638
N1370 X-0.791
N1375 X-0.813 Y-51.651
N1380 X-0.861 Y-51.699 Z0.053
N1385 X-0.907 Y-51.744 Z0.031
N1390 X-0.952 Y-51.79 Z0.008
N1395 X-1. Y-51.838 Z0.
N1400 X-5.162 Y-56.
N1405 X-5.21 Y-56.048 Z0.008
N1410 X-5.256 Y-56.093 Z0.031
N1415 X-5.301 Y-56.139 Z0.053
N1420 X-5.349 Y-56.187 Z0.061
N1425 X-5.42 Y-56.257
N1430 X-5.442 Y-56.27
N1435 X-5.468
N1440 X-5.49 Y-56.257
N1445 X-5.503 Y-56.235
N1450 Y-56.209
N1455 X-5.49 Y-56.187
N1460 X-5.442 Y-56.139 Z0.053
N1465 X-5.397 Y-56.093 Z0.031
N1470 X-5.352 Y-56.048 Z0.008
N1475 X-5.304 Y-56. Z0.
N1480 X-1. Y-51.696
N1485 X-0.952 Y-51.648 Z0.008
N1490 X-0.907 Y-51.603 Z0.031
N1495 X-0.861 Y-51.558 Z0.053
N1500 X-0.813 Y-51.51 Z0.061
N1505 X-0.743 Y-51.439
N1510 X-0.73 Y-51.417
N1515 Y-51.391
N1520 X-0.743 Y-51.368
N1525 X-0.765 Y-51.355
N1530 X-0.791
N1535 X-0.813 Y-51.368
N1540 X-0.861 Y-51.416 Z0.053
N1545 X-0.907 Y-51.462 Z0.031
N1550 X-0.952 Y-51.507 Z0.008
N1555 X-1. Y-51.555 Z0.
N1560 X-5.445 Y-56.
N1565 X-5.493 Y-56.048 Z0.008
N1570 X-5.538 Y-56.093 Z0.031
N1575 X-5.584 Y-56.139 Z0.053
N1580 X-5.632 Y-56.187 Z0.061
N1585 X-5.702 Y-56.257
N1590 X-5.725 Y-56.27
N1595 X-5.751
N1600 X-5.773 Y-56.257
N1605 X-5.786 Y-56.235
N1610 Y-56.209
N1615 X-5.773 Y-56.187
N1620 X-5.725 Y-56.139 Z0.053
N1625 X-5.68 Y-56.093 Z0.031
N1630 X-5.634 Y-56.048 Z0.008
N1635 X-5.586 Y-56. Z0.
N1640 X-1. Y-51.414
N1645 X-0.952 Y-51.366 Z0.008
N1650 X-0.907 Y-51.32 Z0.031
N1655 X-0.861 Y-51.275 Z0.053
N1660 X-0.813 Y-51.227 Z0.061
N1665 X-0.743 Y-51.156
N1670 X-0.73 Y-51.134
N1675 Y-51.108
N1680 X-0.743 Y-51.085
N1685 X-0.765 Y-51.072
N1690 X-0.791
N1695 X-0.813 Y-51.085
N1700 X-0.861 Y-51.133 Z0.053
N1705 X-0.907 Y-51.179 Z0.031
N1710 X-0.952 Y-51.224 Z0.008
N1715 X-1. Y-51.272 Z0.
N1720 X-5.728 Y-56.
N1725 X-5.776 Y-56.048 Z0.008
N1730 X-5.821 Y-56.093 Z0.031
N1735 X-5.867 Y-56.139 Z0.053
N1740 X-5.915 Y-56.187 Z0.061
N1745 X-5.985 Y-56.257
N1750 X-6.008 Y-56.27
N1755 X-6.034
N1760 X-6.056 Y-56.257
N1765 X-6.069 Y-56.235
N1770 Y-56.209
N1775 X-6.056 Y-56.187
N1780 X-6.008 Y-56.139 Z0.053
N1785 X-5.963 Y-56.093 Z0.031
N1790 X-5.917 Y-56.048 Z0.008
N1795 X-5.869 Y-56. Z0.
N1800 X-1. Y-51.131
N1805 X-0.952 Y-51.083 Z0.008
N1810 X-0.907 Y-51.037 Z0.031
N1815 X-0.861 Y-50.992 Z0.053
N1820 X-0.813 Y-50.944 Z0.061
N1825 X-0.743 Y-50.873
N1830 X-0.73 Y-50.851
N1835 Y-50.825
N1840 X-0.743 Y-50.803
N1845 X-0.765 Y-50.79
N1850 X-0.791
N1855 X-0.813 Y-50.803
N1860 X-0.861 Y-50.85 Z0.053
N1865 X-0.907 Y-50.896 Z0.031
N1870 X-0.952 Y-50.941 Z0.008
N1875 X-1. Y-50.989 Z0.
N1880 X-6.011 Y-56.
N1885 X-6.059 Y-56.048 Z0.008
N1890 X-6.104 Y-56.093 Z0.031
N1895 X-6.15 Y-56.139 Z0.053
N1900 X-6.197 Y-56.187 Z0.061
N1905 X-6.268 Y-56.257
N1910 X-6.291 Y-56.27
N1915 X-6.316
N1920 X-6.339 Y-56.257
N1925 X-6.352 Y-56.235
N1930 Y-56.209
N1935 X-6.339 Y-56.187
N1940 X-6.291 Y-56.139 Z0.053
N1945 X-6.246 Y-56.093 Z0.031
N1950 X-6.2 Y-56.048 Z0.008
N1955 X-6.152 Y-56. Z0.
N1960 X-1. Y-50.848
N1965 X-0.952 Y-50.8 Z0.008
N1970 X-0.907 Y-50.754 Z0.031
N1975 X-0.861 Y-50.709 Z0.053
N1980 X-0.813 Y-50.661 Z0.061
N1985 X-0.743 Y-50.59
N1990 X-0.73 Y-50.568
N1995 Y-50.542
N2000 X-0.743 Y-50.52
N2005 X-0.765 Y-50.507
N2010 X-0.791
N2015 X-0.813 Y-50.52
N2020 X-0.861 Y-50.568 Z0.053
N2025 X-0.907 Y-50.613 Z0.031
N2030 X-0.952 Y-50.659 Z0.008
N2035 X-1. Y-50.706 Z0.
N2040 X-6.294 Y-56.
N2045 X-6.341 Y-56.048 Z0.008
N2050 X-6.387 Y-56.093 Z0.031
N2055 X-6.432 Y-56.139 Z0.053
N2060 X-6.48 Y-56.187 Z0.061
N2065 X-6.551 Y-56.257
N2070 X-6.573 Y-56.27
N2075 X-6.599
N2080 X-6.622 Y-56.257
N2085 X-6.635 Y-56.235
N2090 Y-56.209
N2095 X-6.622 Y-56.187
N2100 X-6.574 Y-56.139 Z0.053
N2105 X-6.528 Y-56.093 Z0.031
N2110 X-6.483 Y-56.048 Z0.008
N2115 X-6.435 Y-56. Z0.
N2120 X-1. Y-50.565
N2125 X-0.952 Y-50.517 Z0.008
N2130 X-0.907 Y-50.472 Z0.031
N2135 X-0.861 Y-50.426 Z0.053
N2140 X-0.813 Y-50.378 Z0.061
N2145 X-0.743 Y-50.308
N2150 X-0.73 Y-50.285
N2155 Y-50.259
N2160 X-0.743 Y-50.237
N2165 X-0.765 Y-50.224
N2170 X-0.791
N2175 X-0.813 Y-50.237
N2180 X-0.861 Y-50.285 Z0.053
N2185 X-0.907 Y-50.33 Z0.031
N2190 X-0.952 Y-50.376 Z0.008
N2195 X-1. Y-50.424 Z0.
N2200 X-6.576 Y-56.
N2205 X-6.624 Y-56.048 Z0.008
N2210 X-6.67 Y-56.093 Z0.031
N2215 X-6.715 Y-56.139 Z0.053
N2220 X-6.763 Y-56.187 Z0.061
N2225 X-6.834 Y-56.257
N2230 X-6.856 Y-56.27
N2235 X-6.882
N2240 X-6.905 Y-56.257
N2245 X-6.917 Y-56.235
N2250 Y-56.209
N2255 X-6.905 Y-56.187
N2260 X-6.857 Y-56.139 Z0.053
N2265 X-6.811 Y-56.093 Z0.031
N2270 X-6.766 Y-56.048 Z0.008
N2275 X-6.718 Y-56. Z0.
N2280 X-1. Y-50.282
N2285 X-0.952 Y-50.234 Z0.008
N2290 X-0.907 Y-50.189 Z0.031
N2295 X-0.861 Y-50.143 Z0.053
N2300 X-0.813 Y-50.095 Z0.061
N2305 X-0.743 Y-50.025
N2310 X-0.73 Y-50.002
N2315 Y-49.976
N2320 X-0.743 Y-49.954
N2325 X-0.765 Y-49.941
N2330 X-0.791
N2335 X-0.813 Y-49.954
N2340 X-0.861 Y-50.002 Z0.053
N2345 X-0.907 Y-50.047 Z0.031
N2350 X-0.952 Y-50.093 Z0.008
N2355 X-1. Y-50.141 Z0.
N2360 X-6.859 Y-56.
N2365 X-6.907 Y-56.048 Z0.008
N2370 X-6.953 Y-56.093 Z0.031
N2375 X-6.998 Y-56.139 Z0.053
N2380 X-7.046 Y-56.187 Z0.061
N2385 X-7.117 Y-56.257
N2390 X-7.139 Y-56.27
N2395 X-7.165
N2400 X-7.187 Y-56.257
N2405 X-7.2 Y-56.235
N2410 Y-56.209
N2415 X-7.187 Y-56.187
N2420 X-7.139 Y-56.139 Z0.053
N2425 X-7.094 Y-56.093 Z0.031
N2430 X-7.049 Y-56.048 Z0.008
N2435 X-7.001 Y-56. Z0.
N2440 X-1. Y-49.999
N2445 X-0.952 Y-49.951 Z0.008
N2450 X-0.907 Y-49.906 Z0.031
N2455 X-0.861 Y-49.861 Z0.053
N2460 X-0.813 Y-49.813 Z0.061
N2465 X-0.743 Y-49.742
N2470 X-0.73 Y-49.719
N2475 Y-49.694
N2480 X-0.743 Y-49.671
N2485 X-0.765 Y-49.658
N2490 X-0.791
N2495 X-0.813 Y-49.671
N2500 X-0.861 Y-49.719 Z0.053
N2505 X-0.907 Y-49.765 Z0.031
N2510 X-0.952 Y-49.81 Z0.008
N2515 X-1. Y-49.858 Z0.
N2520 X-7.142 Y-56.
N2525 X-7.19 Y-56.048 Z0.008
N2530 X-7.235 Y-56.093 Z0.031
N2535 X-7.281 Y-56.139 Z0.053
N2540 X-7.329 Y-56.187 Z0.061
N2545 X-7.4 Y-56.257
N2550 X-7.422 Y-56.27
N2555 X-7.448
N2560 X-7.47 Y-56.257
N2565 X-7.483 Y-56.235
N2570 Y-56.209
N2575 X-7.47 Y-56.187
N2580 X-7.422 Y-56.139 Z0.053
N2585 X-7.377 Y-56.093 Z0.031
N2590 X-7.331 Y-56.048 Z0.008
N2595 X-7.284 Y-56. Z0.
N2600 X-1. Y-49.716
N2605 X-0.952 Y-49.669 Z0.008
N2610 X-0.907 Y-49.623 Z0.031
N2615 X-0.861 Y-49.578 Z0.053
N2620 X-0.813 Y-49.53 Z0.061
N2625 X-0.743 Y-49.459
N2630 X-0.73 Y-49.437
N2635 Y-49.411
N2640 X-0.743 Y-49.388
N2645 X-0.765 Y-49.375
N2650 X-0.791
N2655 X-0.813 Y-49.388
N2660 X-0.861 Y-49.436 Z0.053
N2665 X-0.907 Y-49.482 Z0.031
N2670 X-0.952 Y-49.527 Z0.008
N2675 X-1. Y-49.575 Z0.
N2680 X-7.425 Y-56.
N2685 X-7.473 Y-56.048 Z0.008
N2690 X-7.518 Y-56.093 Z0.031
N2695 X-7.564 Y-56.139 Z0.053
N2700 X-7.612 Y-56.187 Z0.061
N2705 X-7.682 Y-56.257
N2710 X-7.705 Y-56.27
N2715 X-7.731
N2720 X-7.753 Y-56.257
N2725 X-7.766 Y-56.235
N2730 Y-56.209
N2735 X-7.753 Y-56.187
N2740 X-7.705 Y-56.139 Z0.053
N2745 X-7.66 Y-56.093 Z0.031
N2750 X-7.614 Y-56.048 Z0.008
N2755 X-7.566 Y-56. Z0.
N2760 X-1. Y-49.434
N2765 X-0.952 Y-49.386 Z0.008
N2770 X-0.907 Y-49.34 Z0.031
N2775 X-0.861 Y-49.295 Z0.053
N2780 X-0.813 Y-49.247 Z0.061
N2785 X-0.743 Y-49.176
N2790 X-0.73 Y-49.154
N2795 Y-49.128
N2800 X-0.743 Y-49.106
N2805 X-0.765 Y-49.093
N2810 X-0.791
N2815 X-0.813 Y-49.106
N2820 X-0.861 Y-49.153 Z0.053
N2825 X-0.907 Y-49.199 Z0.031
N2830 X-0.952 Y-49.244 Z0.008
N2835 X-1. Y-49.292 Z0.
N2840 X-7.708 Y-56.
N2845 X-7.756 Y-56.048 Z0.008
N2850 X-7.801 Y-56.093 Z0.031
N2855 X-7.847 Y-56.139 Z0.053
N2860 X-7.894 Y-56.187 Z0.061
N2865 X-7.965 Y-56.257
N2870 X-7.988 Y-56.27
N2875 X-8.013
N2880 X-8.036 Y-56.257
N2885 X-8.049 Y-56.235
N2890 Y-56.209
N2895 X-8.036 Y-56.187
N2900 X-7.988 Y-56.139 Z0.053
N2905 X-7.943 Y-56.093 Z0.031
N2910 X-7.897 Y-56.048 Z0.008
N2915 X-7.849 Y-56. Z0.
N2920 X-1. Y-49.151
N2925 X-0.952 Y-49.103 Z0.008
N2930 X-0.907 Y-49.057 Z0.031
N2935 X-0.861 Y-49.012 Z0.053
N2940 X-0.813 Y-48.964 Z0.061
N2945 X-0.743 Y-48.893
N2950 X-0.73 Y-48.871
N2955 Y-48.845
N2960 X-0.743 Y-48.823
N2965 X-0.765 Y-48.81
N2970 X-0.791
N2975 X-0.813 Y-48.823
N2980 X-0.861 Y-48.871 Z0.053
N2985 X-0.907 Y-48.916 Z0.031
N2990 X-0.952 Y-48.961 Z0.008
N2995 X-1. Y-49.009 Z0.
N3000 X-7.991 Y-56.
N3005 X-8.039 Y-56.048 Z0.008
N3010 X-8.084 Y-56.093 Z0.031
N3015 X-8.129 Y-56.139 Z0.053
N3020 X-8.177 Y-56.187 Z0.061
N3025 X-8.248 Y-56.257
N3030 X-8.27 Y-56.27
N3035 X-8.296
N3040 X-8.319 Y-56.257
N3045 X-8.332 Y-56.235
N3050 Y-56.209
N3055 X-8.319 Y-56.187
N3060 X-8.271 Y-56.139 Z0.053
N3065 X-8.225 Y-56.093 Z0.031
N3070 X-8.18 Y-56.048 Z0.008
N3075 X-8.132 Y-56. Z0.
N3080 X-1. Y-48.868
N3085 X-0.952 Y-48.82 Z0.008
N3090 X-0.907 Y-48.775 Z0.031
N3095 X-0.861 Y-48.729 Z0.053
N3100 X-0.813 Y-48.681 Z0.061
N3105 X-0.743 Y-48.611
N3110 X-0.73 Y-48.588
N3115 Y-48.562
N3120 X-0.743 Y-48.54
N3125 X-0.765 Y-48.527
N3130 X-0.791
N3135 X-0.813 Y-48.54
N3140 X-0.861 Y-48.588 Z0.053
N3145 X-0.907 Y-48.633 Z0.031
N3150 X-0.952 Y-48.679 Z0.008
N3155 X-1. Y-48.727 Z0.
N3160 X-8.273 Y-56.
N3165 X-8.321 Y-56.048 Z0.008
N3170 X-8.367 Y-56.093 Z0.031
N3175 X-8.412 Y-56.139 Z0.053
N3180 X-8.46 Y-56.187 Z0.061
N3185 X-8.531 Y-56.257
N3190 X-8.553 Y-56.27
N3195 X-8.579
N3200 X-8.602 Y-56.257
N3205 X-8.615 Y-56.235
N3210 Y-56.209
N3215 X-8.602 Y-56.187
N3220 X-8.554 Y-56.139 Z0.053
N3225 X-8.508 Y-56.093 Z0.031
N3230 X-8.463 Y-56.048 Z0.008
N3235 X-8.415 Y-56. Z0.
N3240 X-1. Y-48.585
N3245 X-0.952 Y-48.537 Z0.008
N3250 X-0.907 Y-48.492 Z0.031
N3255 X-0.861 Y-48.446 Z0.053
N3260 X-0.813 Y-48.398 Z0.061
N3265 X-0.743 Y-48.328
N3270 X-0.73 Y-48.305
N3275 Y-48.279
N3280 X-0.743 Y-48.257
N3285 X-0.765 Y-48.244
N3290 X-0.791
N3295 X-0.813 Y-48.257
N3300 X-0.861 Y-48.305 Z0.053
N3305 X-0.907 Y-48.35 Z0.031
N3310 X-0.952 Y-48.396 Z0.008
N3315 X-1. Y-48.444 Z0.
N3320 X-8.556 Y-56.
N3325 X-8.604 Y-56.048 Z0.008
N3330 X-8.65 Y-56.093 Z0.031
N3335 X-8.695 Y-56.139 Z0.053
N3340 X-8.743 Y-56.187 Z0.061
N3345 X-8.814 Y-56.257
N3350 X-8.836 Y-56.27
N3355 X-8.862
N3360 X-8.884 Y-56.257
N3365 X-8.897 Y-56.235
N3370 Y-56.209
N3375 X-8.884 Y-56.187
N3380 X-8.837 Y-56.139 Z0.053
N3385 X-8.791 Y-56.093 Z0.031
N3390 X-8.746 Y-56.048 Z0.008
N3395 X-8.698 Y-56. Z0.
N3400 X-1. Y-48.302
N3405 X-0.952 Y-48.254 Z0.008
N3410 X-0.907 Y-48.209 Z0.031
N3415 X-0.861 Y-48.163 Z0.053
N3420 X-0.813 Y-48.116 Z0.061
N3425 X-0.743 Y-48.045
N3430 X-0.73 Y-48.022
N3435 Y-47.997
N3440 X-0.743 Y-47.974
N3445 X-0.765 Y-47.961
N3450 X-0.791
N3455 X-0.813 Y-47.974
N3460 X-0.861 Y-48.022 Z0.053
N3465 X-0.907 Y-48.068 Z0.031
N3470 X-0.952 Y-48.113 Z0.008
N3475 X-1. Y-48.161 Z0.
N3480 X-8.839 Y-56.
N3485 X-8.887 Y-56.048 Z0.008
N3490 X-8.932 Y-56.093 Z0.031
N3495 X-8.978 Y-56.139 Z0.053
N3500 X-9.026 Y-56.187 Z0.061
N3505 X-9.097 Y-56.257
N3510 X-9.119 Y-56.27
N3515 X-9.145
N3520 X-9.167 Y-56.257
N3525 X-9.18 Y-56.235
N3530 Y-56.209
N3535 X-9.167 Y-56.187
N3540 X-9.119 Y-56.139 Z0.053
N3545 X-9.074 Y-56.093 Z0.031
N3550 X-9.028 Y-56.048 Z0.008
N3555 X-8.981 Y-56. Z0.
N3560 X-1. Y-48.019
N3565 X-0.952 Y-47.972 Z0.008
N3570 X-0.907 Y-47.926 Z0.031
N3575 X-0.861 Y-47.881 Z0.053
N3580 X-0.813 Y-47.833 Z0.061
N3585 X-0.743 Y-47.762
N3590 X-0.73 Y-47.74
N3595 Y-47.714
N3600 X-0.743 Y-47.691
N3605 X-0.765 Y-47.678
N3610 X-0.791
N3615 X-0.813 Y-47.691
N3620 X-0.861 Y-47.739 Z0.053
N3625 X-0.907 Y-47.785 Z0.031
N3630 X-0.952 Y-47.83 Z0.008
N3635 X-1. Y-47.878 Z0.
N3640 X-9.122 Y-56.
N3645 X-9.17 Y-56.048 Z0.008
N3650 X-9.215 Y-56.093 Z0.031
N3655 X-9.261 Y-56.139 Z0.053
N3660 X-9.309 Y-56.187 Z0.061
N3665 X-9.379 Y-56.257
N3670 X-9.402 Y-56.27
N3675 X-9.428
N3680 X-9.45 Y-56.257
N3685 X-9.463 Y-56.235
N3690 Y-56.209
N3695 X-9.45 Y-56.187
N3700 X-9.402 Y-56.139 Z0.053
N3705 X-9.357 Y-56.093 Z0.031
N3710 X-9.311 Y-56.048 Z0.008
N3715 X-9.263 Y-56. Z0.
N3720 X-1. Y-47.737
N3725 X-0.952 Y-47.689 Z0.008
N3730 X-0.907 Y-47.643 Z0.031
N3735 X-0.861 Y-47.598 Z0.053
N3740 X-0.813 Y-47.55 Z0.061
N3745 X-0.743 Y-47.479
N3750 X-0.73 Y-47.457
N3755 Y-47.431
N3760 X-0.743 Y-47.408
N3765 X-0.765 Y-47.396
N3770 X-0.791
N3775 X-0.813 Y-47.408
N3780 X-0.861 Y-47.456 Z0.053
N3785 X-0.907 Y-47.502 Z0.031
N3790 X-0.952 Y-47.547 Z0.008
N3795 X-1. Y-47.595 Z0.
N3800 X-9.405 Y-56.
N3805 X-9.453 Y-56.048 Z0.008
N3810 X-9.498 Y-56.093 Z0.031
N3815 X-9.544 Y-56.139 Z0.053
N3820 X-9.592 Y-56.187 Z0.061
N3825 X-9.662 Y-56.257
N3830 X-9.685 Y-56.27
N3835 X-9.711
N3840 X-9.733 Y-56.257
N3845 X-9.746 Y-56.235
N3850 Y-56.209
N3855 X-9.733 Y-56.187
N3860 X-9.685 Y-56.139 Z0.053
N3865 X-9.64 Y-56.093 Z0.031
N3870 X-9.594 Y-56.048 Z0.008
N3875 X-9.546 Y-56. Z0.
N3880 X-1. Y-47.454
N3885 X-0.952 Y-47.406 Z0.008
N3890 X-0.907 Y-47.36 Z0.031
N3895 X-0.861 Y-47.315 Z0.053
N3900 X-0.813 Y-47.267 Z0.061
N3905 X-0.743 Y-47.196
N3910 X-0.73 Y-47.174
N3915 Y-47.148
N3920 X-0.743 Y-47.126
N3925 X-0.765 Y-47.113
N3930 X-0.791
N3935 X-0.813 Y-47.126
N3940 X-0.861 Y-47.174 Z0.053
N3945 X-0.907 Y-47.219 Z0.031
N3950 X-0.952 Y-47.264 Z0.008
N3955 X-1. Y-47.312 Z0.
N3960 X-9.688 Y-56.
N3965 X-9.736 Y-56.048 Z0.008
N3970 X-9.781 Y-56.093 Z0.031
N3975 X-9.826 Y-56.139 Z0.053
N3980 X-9.874 Y-56.187 Z0.061
N3985 X-9.945 Y-56.257
N3990 X-9.967 Y-56.27
N3995 X-9.993
N4000 X-10.016 Y-56.257
N4005 X-10.029 Y-56.235
N4010 Y-56.209
N4015 X-10.016 Y-56.187
N4020 X-9.968 Y-56.139 Z0.053
N4025 X-9.922 Y-56.093 Z0.031
N4030 X-9.877 Y-56.048 Z0.008
N4035 X-9.829 Y-56. Z0.
N4040 X-1. Y-47.171
N4045 X-0.952 Y-47.123 Z0.008
N4050 X-0.907 Y-47.078 Z0.031
N4055 X-0.861 Y-47.032 Z0.053
N4060 X-0.813 Y-46.984 Z0.061
N4065 X-0.743 Y-46.914
N4070 X-0.73 Y-46.891
N4075 Y-46.865
N4080 X-0.743 Y-46.843
N4085 X-0.765 Y-46.83
N4090 X-0.791
N4095 X-0.813 Y-46.843
N4100 X-0.861 Y-46.891 Z0.053
N4105 X-0.907 Y-46.936 Z0.031
N4110 X-0.952 Y-46.982 Z0.008
N4115 X-1. Y-47.03 Z0.
N4120 X-9.97 Y-56.
N4125 X-10.018 Y-56.048 Z0.008
N4130 X-10.064 Y-56.093 Z0.031
N4135 X-10.109 Y-56.139 Z0.053
N4140 X-10.157 Y-56.187 Z0.061
N4145 X-10.228 Y-56.257
N4150 X-10.25 Y-56.27
N4155 X-10.276
N4160 X-10.299 Y-56.257
N4165 X-10.312 Y-56.235
N4170 Y-56.209
N4175 X-10.299 Y-56.187
N4180 X-10.251 Y-56.139 Z0.053
N4185 X-10.205 Y-56.093 Z0.031
N4190 X-10.16 Y-56.048 Z0.008
N4195 X-10.112 Y-56. Z0.
N4200 X-1. Y-46.888
N4205 X-0.952 Y-46.84 Z0.008
N4210 X-0.907 Y-46.795 Z0.031
N4215 X-0.861 Y-46.749 Z0.053
N4220 X-0.813 Y-46.701 Z0.061
N4225 X-0.743 Y-46.631
N4230 X-0.73 Y-46.608
N4235 Y-46.582
N4240 X-0.743 Y-46.56
N4245 X-0.765 Y-46.547
N4250 X-0.791
N4255 X-0.813 Y-46.56
N4260 X-0.861 Y-46.608 Z0.053
N4265 X-0.907 Y-46.653 Z0.031
N4270 X-0.952 Y-46.699 Z0.008
N4275 X-1. Y-46.747 Z0.
N4280 X-10.253 Y-56.
N4285 X-10.301 Y-56.048 Z0.008
N4290 X-10.347 Y-56.093 Z0.031
N4295 X-10.392 Y-56.139 Z0.053
N4300 X-10.44 Y-56.187 Z0.061
N4305 X-10.511 Y-56.257
N4310 X-10.533 Y-56.27
N4315 X-10.559
N4320 X-10.581 Y-56.257
N4325 X-10.594 Y-56.235
N4330 Y-56.209
N4335 X-10.581 Y-56.187
N4340 X-10.534 Y-56.139 Z0.053
N4345 X-10.488 Y-56.093 Z0.031
N4350 X-10.443 Y-56.048 Z0.008
N4355 X-10.395 Y-56. Z0.
N4360 X-1. Y-46.605
N4365 X-0.952 Y-46.557 Z0.008
N4370 X-0.907 Y-46.512 Z0.031
N4375 X-0.861 Y-46.466 Z0.053
N4380 X-0.813 Y-46.419 Z0.061
N4385 X-0.743 Y-46.348
N4390 X-0.73 Y-46.325
N4395 Y-46.3
N4400 X-0.743 Y-46.277
N4405 X-0.765 Y-46.264
N4410 X-0.791
N4415 X-0.813 Y-46.277
N4420 X-0.861 Y-46.325 Z0.053
N4425 X-0.907 Y-46.37 Z0.031
N4430 X-0.952 Y-46.416 Z0.008
N4435 X-1. Y-46.464 Z0.
N4440 X-10.536 Y-56.
N4445 X-10.584 Y-56.048 Z0.008
N4450 X-10.63 Y-56.093 Z0.031
N4455 X-10.675 Y-56.139 Z0.053
N4460 X-10.723 Y-56.187 Z0.061
N4465 X-10.794 Y-56.257
N4470 X-10.816 Y-56.27
N4475 X-10.842
N4480 X-10.864 Y-56.257
N4485 X-10.877 Y-56.235
N4490 Y-56.209
N4495 X-10.864 Y-56.187
N4500 X-10.816 Y-56.139 Z0.053
N4505 X-10.771 Y-56.093 Z0.031
N4510 X-10.726 Y-56.048 Z0.008
N4515 X-10.678 Y-56. Z0.
N4520 X-1. Y-46.322
N4525 X-0.952 Y-46.274 Z0.008
N4530 X-0.907 Y-46.229 Z0.031
N4535 X-0.861 Y-46.184 Z0.053
N4540 X-0.813 Y-46.136 Z0.061
N4545 X-0.743 Y-46.065
N4550 X-0.73 Y-46.043
N4555 Y-46.017
N4560 X-0.743 Y-45.994
N4565 X-0.765 Y-45.981
N4570 X-0.791
N4575 X-0.813 Y-45.994
N4580 X-0.861 Y-46.042 Z0.053
N4585 X-0.907 Y-46.088 Z0.031
N4590 X-0.952 Y-46.133 Z0.008
N4595 X-1. Y-46.181 Z0.
N4600 X-10.819 Y-56.
N4605 X-10.867 Y-56.048 Z0.008
N4610 X-10.912 Y-56.093 Z0.031
N4615 X-10.958 Y-56.139 Z0.053
N4620 X-11.006 Y-56.187 Z0.061
N4625 X-11.076 Y-56.257
N4630 X-11.099 Y-56.27
N4635 X-11.125
N4640 X-11.147 Y-56.257
N4645 X-11.16 Y-56.235
N4650 Y-56.209
N4655 X-11.147 Y-56.187
N4660 X-11.099 Y-56.139 Z0.053
N4665 X-11.054 Y-56.093 Z0.031
N4670 X-11.008 Y-56.048 Z0.008
N4675 X-10.96 Y-56. Z0.
N4680 X-1. Y-46.04
N4685 X-0.952 Y-45.992 Z0.008
N4690 X-0.907 Y-45.946 Z0.031
N4695 X-0.861 Y-45.901 Z0.053
N4700 X-0.813 Y-45.853 Z0.061
N4705 X-0.743 Y-45.782
N4710 X-0.73 Y-45.76
N4715 Y-45.734
N4720 X-0.743 Y-45.711
N4725 X-0.765 Y-45.698
N4730 X-0.791
N4735 X-0.813 Y-45.711
N4740 X-0.861 Y-45.759 Z0.053
N4745 X-0.907 Y-45.805 Z0.031
N4750 X-0.952 Y-45.85 Z0.008
N4755 X-1. Y-45.898 Z0.
N4760 X-11.102 Y-56.
N4765 X-11.15 Y-56.048 Z0.008
N4770 X-11.195 Y-56.093 Z0.031
N4775 X-11.241 Y-56.139 Z0.053
N4780 X-11.289 Y-56.187 Z0.061
N4785 X-11.359 Y-56.257
N4790 X-11.382 Y-56.27
N4795 X-11.408
N4800 X-11.43 Y-56.257
N4805 X-11.443 Y-56.235
N4810 Y-56.209
N4815 X-11.43 Y-56.187
N4820 X-11.382 Y-56.139 Z0.053
N4825 X-11.337 Y-56.093 Z0.031
N4830 X-11.291 Y-56.048 Z0.008
N4835 X-11.243 Y-56. Z0.
N4840 X-1. Y-45.757
N4845 X-0.952 Y-45.709 Z0.008
N4850 X-0.907 Y-45.663 Z0.031
N4855 X-0.861 Y-45.618 Z0.053
N4860 X-0.813 Y-45.57 Z0.061
N4865 X-0.743 Y-45.499
N4870 X-0.73 Y-45.477
N4875 Y-45.451
N4880 X-0.743 Y-45.429
N4885 X-0.765 Y-45.416
N4890 X-0.791
N4895 X-0.813 Y-45.429
N4900 X-0.861 Y-45.477 Z0.053
N4905 X-0.907 Y-45.522 Z0.031
N4910 X-0.952 Y-45.567 Z0.008
N4915 X-1. Y-45.615 Z0.
N4920 X-11.385 Y-56.
N4925 X-11.433 Y-56.048 Z0.008
N4930 X-11.478 Y-56.093 Z0.031
N4935 X-11.523 Y-56.139 Z0.053
N4940 X-11.571 Y-56.187 Z0.061
N4945 X-11.642 Y-56.257
N4950 X-11.665 Y-56.27
N4955 X-11.69
N4960 X-11.713 Y-56.257
N4965 X-11.726 Y-56.235
N4970 Y-56.209
N4975 X-11.713 Y-56.187
N4980 X-11.665 Y-56.139 Z0.053
N4985 X-11.619 Y-56.093 Z0.031
N4990 X-11.574 Y-56.048 Z0.008
N4995 X-11.526 Y-56. Z0.
N5000 X-1. Y-45.474
N5005 X-0.952 Y-45.426 Z0.008
N5010 X-0.907 Y-45.381 Z0.031
N5015 X-0.861 Y-45.335 Z0.053
N5020 X-0.813 Y-45.287 Z0.061
N5025 X-0.743 Y-45.216
N5030 X-0.73 Y-45.194
N5035 Y-45.168
N5040 X-0.743 Y-45.146
N5045 X-0.765 Y-45.133
N5050 X-0.791
N5055 X-0.813 Y-45.146
N5060 X-0.861 Y-45.194 Z0.053
N5065 X-0.907 Y-45.239 Z0.031
N5070 X-0.952 Y-45.285 Z0.008
N5075 X-1. Y-45.332 Z0.
N5080 X-11.668 Y-56.
N5085 X-11.715 Y-56.048 Z0.008
N5090 X-11.761 Y-56.093 Z0.031
N5095 X-11.806 Y-56.139 Z0.053
N5100 X-11.854 Y-56.187 Z0.061
N5105 X-11.925 Y-56.257
N5110 X-11.947 Y-56.27
N5115 X-11.973
N5120 X-11.996 Y-56.257
N5125 X-12.009 Y-56.235
N5130 Y-56.209
N5135 X-11.996 Y-56.187
N5140 X-11.948 Y-56.139 Z0.053
N5145 X-11.902 Y-56.093 Z0.031
N5150 X-11.857 Y-56.048 Z0.008
N5155 X-11.809 Y-56. Z0.
N5160 X-1. Y-45.191
N5165 X-0.952 Y-45.143 Z0.008
N5170 X-0.907 Y-45.098 Z0.031
N5175 X-0.861 Y-45.052 Z0.053
N5180 X-0.813 Y-45.004 Z0.061
N5185 X-0.743 Y-44.934
N5190 X-0.73 Y-44.911
N5195 Y-44.885
N5200 X-0.743 Y-44.863
N5205 X-0.765 Y-44.85
N5210 X-0.791
N5215 X-0.813 Y-44.863
N5220 X-0.861 Y-44.911 Z0.053
N5225 X-0.907 Y-44.956 Z0.031
N5230 X-0.952 Y-45.002 Z0.008
N5235 X-1. Y-45.05 Z0.
N5240 X-11.95 Y-56.
N5245 X-11.998 Y-56.048 Z0.008
N5250 X-12.044 Y-56.093 Z0.031
N5255 X-12.089 Y-56.139 Z0.053
N5260 X-12.137 Y-56.187 Z0.061
N5265 X-12.208 Y-56.257
N5270 X-12.23 Y-56.27
N5275 X-12.256
N5280 X-12.279 Y-56.257
N5285 X-12.291 Y-56.235
N5290 Y-56.209
N5295 X-12.279 Y-56.187
N5300 X-12.231 Y-56.139 Z0.053
N5305 X-12.185 Y-56.093 Z0.031
N5310 X-12.14 Y-56.048 Z0.008
N5315 X-12.092 Y-56. Z0.
N5320 X-1. Y-44.908
N5325 X-0.952 Y-44.86 Z0.008
N5330 X-0.907 Y-44.815 Z0.031
N5335 X-0.861 Y-44.769 Z0.053
N5340 X-0.813 Y-44.721 Z0.061
N5345 X-0.743 Y-44.651
N5350 X-0.73 Y-44.628
N5355 Y-44.602
N5360 X-0.743 Y-44.58
N5365 X-0.765 Y-44.567
N5370 X-0.791
N5375 X-0.813 Y-44.58
N5380 X-0.861 Y-44.628 Z0.053
N5385 X-0.907 Y-44.673 Z0.031
N5390 X-0.952 Y-44.719 Z0.008
N5395 X-1. Y-44.767 Z0.
N5400 X-12.233 Y-56.
N5405 X-12.281 Y-56.048 Z0.008
N5410 X-12.327 Y-56.093 Z0.031
N5415 X-12.372 Y-56.139 Z0.053
N5420 X-12.42 Y-56.187 Z0.061
N5425 X-12.491 Y-56.257
N5430 X-12.513 Y-56.27
N5435 X-12.539
N5440 X-12.561 Y-56.257
N5445 X-12.574 Y-56.235
N5450 Y-56.209
N5455 X-12.561 Y-56.187
N5460 X-12.513 Y-56.139 Z0.053
N5465 X-12.468 Y-56.093 Z0.031
N5470 X-12.423 Y-56.048 Z0.008
N5475 X-12.375 Y-56. Z0.
N5480 X-1. Y-44.625
N5485 X-0.952 Y-44.577 Z0.008
N5490 X-0.907 Y-44.532 Z0.031
N5495 X-0.861 Y-44.487 Z0.053
N5500 X-0.813 Y-44.439 Z0.061
N5505 X-0.743 Y-44.368
N5510 X-0.73 Y-44.346
N5515 Y-44.32
N5520 X-0.743 Y-44.297
N5525 X-0.765 Y-44.284
N5530 X-0.791
N5535 X-0.813 Y-44.297
N5540 X-0.861 Y-44.345 Z0.053
N5545 X-0.907 Y-44.391 Z0.031
N5550 X-0.952 Y-44.436 Z0.008
N5555 X-1. Y-44.484 Z0.
N5560 X-12.516 Y-56.
N5565 X-12.564 Y-56.048 Z0.008
N5570 X-12.609 Y-56.093 Z0.031
N5575 X-12.655 Y-56.139 Z0.053
N5580 X-12.703 Y-56.187 Z0.061
N5585 X-12.773 Y-56.257
N5590 X-12.796 Y-56.27
N5595 X-12.822
N5600 X-12.844 Y-56.257
N5605 X-12.857 Y-56.235
N5610 Y-56.209
N5615 X-12.844 Y-56.187
N5620 X-12.796 Y-56.139 Z0.053
N5625 X-12.751 Y-56.093 Z0.031
N5630 X-12.705 Y-56.048 Z0.008
N5635 X-12.657 Y-56. Z0.
N5640 X-1. Y-44.343
N5645 X-0.952 Y-44.295 Z0.008
N5650 X-0.907 Y-44.249 Z0.031
N5655 X-0.861 Y-44.204 Z0.053
N5660 X-0.813 Y-44.156 Z0.061
N5665 X-0.743 Y-44.085
N5670 X-0.73 Y-44.063
N5675 Y-44.037
N5680 X-0.743 Y-44.014
N5685 X-0.765 Y-44.001
N5690 X-0.791
N5695 X-0.813 Y-44.014
N5700 X-0.861 Y-44.062 Z0.053
N5705 X-0.907 Y-44.108 Z0.031
N5710 X-0.952 Y-44.153 Z0.008
N5715 X-1. Y-44.201 Z0.
N5720 X-12.799 Y-56.
N5725 X-12.847 Y-56.048 Z0.008
N5730 X-12.892 Y-56.093 Z0.031
N5735 X-12.938 Y-56.139 Z0.053
N5740 X-12.986 Y-56.187 Z0.061
N5745 X-13.056 Y-56.257
N5750 X-13.079 Y-56.27
N5755 X-13.105
N5760 X-13.127 Y-56.257
N5765 X-13.14 Y-56.235
N5770 Y-56.209
N5775 X-13.127 Y-56.187
N5780 X-13.079 Y-56.139 Z0.053
N5785 X-13.034 Y-56.093 Z0.031
N5790 X-12.988 Y-56.048 Z0.008
N5795 X-12.94 Y-56. Z0.
N5800 X-1. Y-44.06
N5805 X-0.952 Y-44.012 Z0.008
N5810 X-0.907 Y-43.966 Z0.031
N5815 X-0.861 Y-43.921 Z0.053
N5820 X-0.813 Y-43.873 Z0.061
N5825 X-0.743 Y-43.802
N5830 X-0.73 Y-43.78
N5835 Y-43.754
N5840 X-0.743 Y-43.732
N5845 X-0.765 Y-43.719
N5850 X-0.791
N5855 X-0.813 Y-43.732
N5860 X-0.861 Y-43.78 Z0.053
N5865 X-0.907 Y-43.825 Z0.031
N5870 X-0.952 Y-43.87 Z0.008
N5875 X-1. Y-43.918 Z0.
N5880 X-6.416 Y-49.334 Z-0.005
N5885 X-13.082 Y-56. Z0.
N5890 X-13.13 Y-56.048 Z0.008
N5895 X-13.175 Y-56.093 Z0.031
N5900 X-13.22 Y-56.139 Z0.053
N5905 X-13.268 Y-56.187 Z0.061
N5910 X-13.339 Y-56.257
N5915 X-13.362 Y-56.27
N5920 X-13.387
N5925 X-13.41 Y-56.257
N5930 X-13.423 Y-56.235
N5935 Y-56.209
N5940 X-13.41 Y-56.187
N5945 X-13.362 Y-56.139 Z0.053
N5950 X-13.317 Y-56.093 Z0.031
N5955 X-13.271 Y-56.048 Z0.008
N5960 X-13.223 Y-56. Z0.
N5965 X-9.105 Y-51.882
N5970 X-7.586 Y-50.363 Z-0.012
N5975 X-6.049 Y-48.826 Z-0.005
N5980 X-1. Y-43.777 Z0.
N5985 X-0.952 Y-43.729 Z0.008
N5990 X-0.907 Y-43.684 Z0.031
N5995 X-0.861 Y-43.638 Z0.053
N6000 X-0.813 Y-43.59 Z0.061
N6005 X-0.743 Y-43.52
N6010 X-0.73 Y-43.497
N6015 Y-43.471
N6020 X-0.743 Y-43.449
N6025 X-0.765 Y-43.436
N6030 X-0.791
N6035 X-0.813 Y-43.449
N6040 X-0.861 Y-43.497 Z0.053
N6045 X-0.907 Y-43.542 Z0.031
N6050 X-0.952 Y-43.588 Z0.008
N6055 X-1. Y-43.635 Z0.
N6060 X-5.83 Y-48.465 Z-0.004
N6065 X-7.372 Y-50.008 Z-0.019
N6070 X-9.104 Y-51.739 Z0.
N6075 X-13.365 Y-56.
N6080 X-13.412 Y-56.048 Z0.008
N6085 X-13.458 Y-56.093 Z0.031
N6090 X-13.503 Y-56.139 Z0.053
N6095 X-13.551 Y-56.187 Z0.061
N6100 X-13.622 Y-56.257
N6105 X-13.644 Y-56.27
N6110 X-13.67
N6115 X-13.693 Y-56.257
N6120 X-13.706 Y-56.235
N6125 Y-56.209
N6130 X-13.693 Y-56.187
N6135 X-13.645 Y-56.139 Z0.053
N6140 X-13.599 Y-56.093 Z0.031
N6145 X-13.554 Y-56.048 Z0.008
N6150 X-13.506 Y-56. Z0.
N6155 X-11.822 Y-54.317
N6160 X-8.818 Y-51.312 Z-0.005
N6165 X-7.264 Y-49.758 Z-0.025
N6170 X-5.683 Y-48.177 Z-0.005
N6175 X-1. Y-43.494 Z0.
N6180 X-0.952 Y-43.446 Z0.008
N6185 X-0.907 Y-43.401 Z0.031
N6190 X-0.861 Y-43.355 Z0.053
N6195 X-0.813 Y-43.307 Z0.061
N6200 X-0.743 Y-43.237
N6205 X-0.73 Y-43.214
N6210 Y-43.188
N6215 X-0.743 Y-43.166
N6220 X-0.765 Y-43.153
N6225 X-0.791
N6230 X-0.813 Y-43.166
N6235 X-0.861 Y-43.214 Z0.053
N6240 X-0.907 Y-43.259 Z0.031
N6245 X-0.952 Y-43.305 Z0.008
N6250 X-1. Y-43.353 Z0.
N6255 X-5.524 Y-47.876 Z-0.004
N6260 X-7.041 Y-49.394 Z-0.032
N6265 X-8.082 Y-50.435 Z-0.026
N6270 X-9.41 Y-51.763 Z0.
N6275 X-13.647 Y-56.
N6280 X-13.695 Y-56.048 Z0.008
N6285 X-13.741 Y-56.093 Z0.031
N6290 X-13.786 Y-56.139 Z0.053
N6295 X-13.834 Y-56.187 Z0.061
N6300 X-13.905 Y-56.257
N6305 X-13.927 Y-56.27
N6310 X-13.953
N6315 X-13.976 Y-56.257
N6320 X-13.988 Y-56.235
N6325 Y-56.209
N6330 X-13.976 Y-56.187
N6335 X-13.928 Y-56.139 Z0.053
N6340 X-13.882 Y-56.093 Z0.031
N6345 X-13.837 Y-56.048 Z0.008
N6350 X-13.789 Y-56. Z0.
N6355 X-9.671 Y-51.882
N6360 X-7.963 Y-50.175 Z-0.039
N6365 X-7.153 Y-49.364 Z-0.043
N6370 X-5.446 Y-47.657 Z-0.005
N6375 X-1. Y-43.211 Z0.
N6380 X-0.952 Y-43.163 Z0.008
N6385 X-0.907 Y-43.118 Z0.031
N6390 X-0.861 Y-43.073 Z0.053
N6395 X-0.813 Y-43.025 Z0.061
N6400 X-0.743 Y-42.954
N6405 X-0.73 Y-42.931
N6410 Y-42.906
N6415 X-0.743 Y-42.883
N6420 X-0.765 Y-42.87
N6425 X-0.791
N6430 X-0.813 Y-42.883
N6435 X-0.861 Y-42.931 Z0.053
N6440 X-0.907 Y-42.977 Z0.031
N6445 X-0.952 Y-43.022 Z0.008
N6450 X-1. Y-43.07 Z0.
N6455 X-5.351 Y-47.421 Z-0.005
N6460 X-7.257 Y-49.327 Z-0.058
N6465 X-8.034 Y-50.104 Z-0.052
N6470 X-9.84 Y-51.909 Z0.
N6475 X-13.93 Y-56.
N6480 X-13.978 Y-56.048 Z0.008
N6485 X-14.024 Y-56.093 Z0.031
N6490 X-14.069 Y-56.139 Z0.053
N6495 X-14.117 Y-56.187 Z0.061
N6500 X-14.188 Y-56.257
N6505 X-14.21 Y-56.27
N6510 X-14.236
N6515 X-14.258 Y-56.257
N6520 X-14.271 Y-56.235
N6525 Y-56.209
N6530 X-14.258 Y-56.187
N6535 X-14.21 Y-56.139 Z0.053
N6540 X-14.165 Y-56.093 Z0.031
N6545 X-14.12 Y-56.048 Z0.008
N6550 X-14.072 Y-56. Z0.
N6555 X-9.846 Y-51.775 Z-0.003
N6560 X-8.105 Y-50.033 Z-0.068
N6565 X-7.242 Y-49.171 Z-0.074
N6570 X-5.279 Y-47.207 Z-0.004
N6575 X-1. Y-42.928 Z0.
N6580 X-0.952 Y-42.88 Z0.008
N6585 X-0.907 Y-42.835 Z0.031
N6590 X-0.861 Y-42.79 Z0.053
N6595 X-0.813 Y-42.742 Z0.061
N6600 X-0.743 Y-42.671
N6605 X-0.73 Y-42.649
N6610 Y-42.623
N6615 X-0.743 Y-42.6
N6620 X-0.765 Y-42.587
N6625 X-0.791
N6630 X-0.813 Y-42.6
N6635 X-0.861 Y-42.648 Z0.053
N6640 X-0.907 Y-42.694 Z0.031
N6645 X-0.952 Y-42.739 Z0.008
N6650 X-1. Y-42.787 Z0.
N6655 X-5.209 Y-46.995 Z-0.004
N6660 X-6.257 Y-48.044 Z-0.046
N6665 X-7.139 Y-48.926 Z-0.087
N6670 X-7.891 Y-49.678 Z-0.091
N6675 X-8.705 Y-50.492 Z-0.061
N6680 X-9.529 Y-51.316 Z-0.021
N6685 X-10.234 Y-52.021 Z0.
N6690 X-14.213 Y-56.
N6695 X-14.261 Y-56.048 Z0.008
N6700 X-14.306 Y-56.093 Z0.031
N6705 X-14.352 Y-56.139 Z0.053
N6710 X-14.4 Y-56.187 Z0.061
N6715 X-14.471 Y-56.257
N6720 X-14.493 Y-56.27
N6725 X-14.519
N6730 X-14.541 Y-56.257
N6735 X-14.554 Y-56.235
N6740 Y-56.209
N6745 X-14.541 Y-56.187
N6750 X-14.493 Y-56.139 Z0.053
N6755 X-14.448 Y-56.093 Z0.031
N6760 X-14.402 Y-56.048 Z0.008
N6765 X-14.355 Y-56. Z0.
N6770 X-10.468 Y-52.113
N6775 X-9.716 Y-51.362 Z-0.022
N6780 X-8.427 Y-50.072 Z-0.095
N6785 X-7.677 Y-49.323 Z-0.111
N6790 X-7.021 Y-48.667 Z-0.098
N6795 X-6.117 Y-47.762 Z-0.046
N6800 X-5.122 Y-46.768 Z-0.003
N6805 X-1. Y-42.645 Z0.
N6810 X-0.952 Y-42.598 Z0.008
N6815 X-0.907 Y-42.552 Z0.031
N6820 X-0.861 Y-42.507 Z0.053
N6825 X-0.813 Y-42.459 Z0.061
N6830 X-0.743 Y-42.388
N6835 X-0.73 Y-42.366
N6840 Y-42.34
N6845 X-0.743 Y-42.318
N6850 X-0.765 Y-42.305
N6855 X-0.791
N6860 X-0.813 Y-42.318
N6865 X-0.861 Y-42.365 Z0.053
N6870 X-0.907 Y-42.411 Z0.031
N6875 X-0.952 Y-42.456 Z0.008
N6880 X-1. Y-42.504 Z0.
N6885 X-5.11 Y-46.615 Z-0.004
N6890 X-5.977 Y-47.481 Z-0.044
N6895 X-6.849 Y-48.353 Z-0.105
N6900 X-7.5 Y-49.005 Z-0.126
N6905 X-8.127 Y-49.631 Z-0.123
N6910 X-8.856 Y-50.36 Z-0.093
N6915 X-9.867 Y-51.371 Z-0.025
N6920 X-10.612 Y-52.116 Z0.
N6925 X-14.496 Y-56.
N6930 X-14.544 Y-56.048 Z0.008
N6935 X-14.589 Y-56.093 Z0.031
N6940 X-14.635 Y-56.139 Z0.053
N6945 X-14.683 Y-56.187 Z0.061
N6950 X-14.753 Y-56.257
N6955 X-14.776 Y-56.27
N6960 X-14.802
N6965 X-14.824 Y-56.257
N6970 X-14.837 Y-56.235
N6975 Y-56.209
N6980 X-14.824 Y-56.187
N6985 X-14.776 Y-56.139 Z0.053
N6990 X-14.731 Y-56.093 Z0.031
N6995 X-14.685 Y-56.048 Z0.008
N7000 X-14.637 Y-56. Z0.
N7005 X-10.77 Y-52.133
N7010 X-10.069 Y-51.432 Z-0.025
N7015 X-8.919 Y-50.281 Z-0.11
N7020 X-8.198 Y-49.561 Z-0.143
N7025 X-7.576 Y-48.939 Z-0.147
N7030 X-6.865 Y-48.227 Z-0.118
N7035 X-5.905 Y-47.267 Z-0.046
N7040 X-5.057 Y-46.419 Z-0.004
N7045 X-1. Y-42.363 Z0.
N7050 X-0.952 Y-42.315 Z0.008
N7055 X-0.907 Y-42.269 Z0.031
N7060 X-0.861 Y-42.224 Z0.053
N7065 X-0.813 Y-42.176 Z0.061
N7070 X-0.743 Y-42.105
N7075 X-0.73 Y-42.083
N7080 Y-42.057
N7085 X-0.743 Y-42.035
N7090 X-0.765 Y-42.022
N7095 X-0.791
N7100 X-0.813 Y-42.035
N7105 X-0.861 Y-42.083 Z0.053
N7110 X-0.907 Y-42.128 Z0.031
N7115 X-0.952 Y-42.173 Z0.008
N7120 X-1. Y-42.221 Z0.
N7125 X-5.036 Y-46.258 Z-0.004
N7130 X-5.773 Y-46.995 Z-0.041
N7135 X-6.885 Y-48.107 Z-0.134
N7140 X-7.593 Y-48.814 Z-0.169
N7145 X-8.15 Y-49.371 Z-0.17
N7150 X-8.813 Y-50.034 Z-0.139
N7155 X-9.758 Y-50.979 Z-0.064
N7160 X-10.308 Y-51.529 Z-0.023
N7165 X-10.943 Y-52.164 Z0.
N7170 X-14.779 Y-56.
N7175 X-14.827 Y-56.048 Z0.008
N7180 X-14.872 Y-56.093 Z0.031
N7185 X-14.918 Y-56.139 Z0.053
N7190 X-14.965 Y-56.187 Z0.061
N7195 X-15.036 Y-56.257
N7200 X-15.059 Y-56.27
N7205 X-15.084
N7210 X-15.107 Y-56.257
N7215 X-15.12 Y-56.235
N7220 Y-56.209
N7225 X-15.107 Y-56.187
N7230 X-15.059 Y-56.139 Z0.053
N7235 X-15.014 Y-56.093 Z0.031
N7240 X-14.968 Y-56.048 Z0.008
N7245 X-14.92 Y-56. Z0.
N7250 X-11.145 Y-52.225
N7255 X-10.447 Y-51.527 Z-0.025
N7260 X-9.91 Y-50.99 Z-0.071
N7265 X-8.709 Y-49.789 Z-0.174
N7270 X-8.15 Y-49.23 Z-0.199
N7275 X-7.593 Y-48.673 Z-0.194
N7280 X-6.972 Y-48.051 Z-0.156
N7285 X-5.707 Y-46.787 Z-0.041
N7290 X-5.006 Y-46.086 Z-0.004
N7295 X-1. Y-42.08 Z0.
N7300 X-0.952 Y-42.032 Z0.008
N7305 X-0.907 Y-41.987 Z0.031
N7310 X-0.861 Y-41.941 Z0.053
N7315 X-0.813 Y-41.893 Z0.061
N7320 X-0.743 Y-41.823
N7325 X-0.73 Y-41.8
N7330 Y-41.774
N7335 X-0.743 Y-41.752
N7340 X-0.765 Y-41.739
N7345 X-0.791
N7350 X-0.813 Y-41.752
N7355 X-0.861 Y-41.8 Z0.053
N7360 X-0.907 Y-41.845 Z0.031
N7365 X-0.952 Y-41.891 Z0.008
N7370 X-1. Y-41.938 Z0.
N7375 X-4.983 Y-45.922 Z-0.004
N7380 X-5.663 Y-46.601 Z-0.042
N7385 X-7.205 Y-48.143 Z-0.195
N7390 X-7.84 Y-48.778 Z-0.228
N7395 X-8.41 Y-49.349 Z-0.222
N7400 X-9.025 Y-49.964 Z-0.18
N7405 X-10.516 Y-51.455 Z-0.032
N7410 X-11.232 Y-52.17 Z0.
N7415 X-15.062 Y-56.
N7420 X-15.11 Y-56.048 Z0.008
N7425 X-15.155 Y-56.093 Z0.031
N7430 X-15.2 Y-56.139 Z0.053
N7435 X-15.248 Y-56.187 Z0.061
N7440 X-15.319 Y-56.257
N7445 X-15.341 Y-56.27
N7450 X-15.367
N7455 X-15.39 Y-56.257
N7460 X-15.403 Y-56.235
N7465 Y-56.209
N7470 X-15.39 Y-56.187
N7475 X-15.342 Y-56.139 Z0.053
N7480 X-15.296 Y-56.093 Z0.031
N7485 X-15.251 Y-56.048 Z0.008
N7490 X-15.203 Y-56. Z0.
N7495 X-11.42 Y-52.217
N7500 X-10.679 Y-51.476 Z-0.033
N7505 X-8.994 Y-49.791 Z-0.217
N7510 X-8.386 Y-49.183 Z-0.254
N7515 X-7.841 Y-48.638 Z-0.255
N7520 X-7.28 Y-48.077 Z-0.223
N7525 X-5.604 Y-46.401 Z-0.04
N7530 X-4.883 Y-45.68 Z-0.001
N7535 X-1. Y-41.797 Z0.
N7540 X-0.952 Y-41.749 Z0.008
N7545 X-0.907 Y-41.704 Z0.031
N7550 X-0.861 Y-41.658 Z0.053
N7555 X-0.813 Y-41.61 Z0.061
N7560 X-0.743 Y-41.54
N7565 X-0.73 Y-41.517
N7570 Y-41.491
N7575 X-0.743 Y-41.469
N7580 X-0.765 Y-41.456
N7585 X-0.791
N7590 X-0.813 Y-41.469
N7595 X-0.861 Y-41.517 Z0.053
N7600 X-0.907 Y-41.562 Z0.031
N7605 X-0.952 Y-41.608 Z0.008
N7610 X-1. Y-41.656 Z0.
N7615 X-4.952 Y-45.607 Z-0.005
N7620 X-5.509 Y-46.165 Z-0.035
N7625 X-6.628 Y-47.284 Z-0.167
N7630 X-7.248 Y-47.904 Z-0.243
N7635 X-7.881 Y-48.536 Z-0.283
N7640 X-8.362 Y-49.017 Z-0.285
N7645 X-8.898 Y-49.553 Z-0.26
N7650 X-9.564 Y-50.219 Z-0.187
N7655 X-10.803 Y-51.459 Z-0.038
N7660 X-11.459 Y-52.115 Z-0.002
N7665 X-15.344 Y-56. Z0.
N7670 X-15.392 Y-56.048 Z0.008
N7675 X-15.438 Y-56.093 Z0.031
N7680 X-15.483 Y-56.139 Z0.053
N7685 X-15.531 Y-56.187 Z0.061
N7690 X-15.602 Y-56.257
N7695 X-15.624 Y-56.27
N7700 X-15.65
N7705 X-15.672 Y-56.257
N7710 X-15.685 Y-56.235
N7715 Y-56.209
N7720 X-15.672 Y-56.187
N7725 X-15.625 Y-56.139 Z0.053
N7730 X-15.579 Y-56.093 Z0.031
N7735 X-15.534 Y-56.048 Z0.008
N7740 X-15.486 Y-56. Z0.
N7745 X-11.597 Y-52.111 Z-0.002
N7750 X-11.054 Y-51.568 Z-0.031
N7755 X-10.332 Y-50.846 Z-0.116
N7760 X-9.784 Y-50.298 Z-0.192
N7765 X-9.131 Y-49.645 Z-0.274
N7770 X-8.71 Y-49.224 Z-0.306
N7775 X-8.243 Y-48.757 Z-0.319
N7780 X-7.791 Y-48.305 Z-0.306
N7785 X-7.24 Y-47.755 Z-0.262
N7790 X-6.603 Y-47.117 Z-0.177
N7795 X-5.503 Y-46.017 Z-0.037
N7800 X-4.937 Y-45.451 Z-0.004
N7805 X-1. Y-41.514 Z0.
N7810 X-0.952 Y-41.466 Z0.008
N7815 X-0.907 Y-41.421 Z0.031
N7820 X-0.861 Y-41.376 Z0.053
N7825 X-0.813 Y-41.328 Z0.061
N7830 X-0.743 Y-41.257
N7835 X-0.73 Y-41.234
N7840 Y-41.209
N7845 X-0.743 Y-41.186
N7850 X-0.765 Y-41.173
N7855 X-0.791
N7860 X-0.813 Y-41.186
N7865 X-0.861 Y-41.234 Z0.053
N7870 X-0.907 Y-41.28 Z0.031
N7875 X-0.952 Y-41.325 Z0.008
N7880 X-1. Y-41.373 Z0.
N7885 X-4.932 Y-45.305 Z-0.004
N7890 X-5.476 Y-45.848 Z-0.037
N7895 X-6.376 Y-46.749 Z-0.154
N7900 X-7.027 Y-47.4 Z-0.256
N7905 X-7.645 Y-48.018 Z-0.324
N7910 X-8.125 Y-48.498 Z-0.351
N7915 X-8.551 Y-48.923 Z-0.35
N7920 X-9.031 Y-49.404 Z-0.319
N7925 X-9.549 Y-49.922 Z-0.263
N7930 X-10.556 Y-50.928 Z-0.113
N7935 X-11.208 Y-51.581 Z-0.032
N7940 X-11.868 Y-52.241 Z0.
N7945 X-15.627 Y-56.
N7950 X-15.675 Y-56.048 Z0.008
N7955 X-15.721 Y-56.093 Z0.031
N7960 X-15.766 Y-56.139 Z0.053
N7965 X-15.814 Y-56.187 Z0.061
N7970 X-15.885 Y-56.257
N7975 X-15.907 Y-56.27
N7980 X-15.933
N7985 X-15.955 Y-56.257
N7990 X-15.968 Y-56.235
N7995 Y-56.209
N8000 X-15.955 Y-56.187
N8005 X-15.908 Y-56.139 Z0.053
N8010 X-15.862 Y-56.093 Z0.031
N8015 X-15.817 Y-56.048 Z0.008
N8020 X-15.769 Y-56. Z0.
N8025 X-12.201 Y-52.432
N8030 X-11.745 Y-51.977 Z-0.01
N8035 X-11.279 Y-51.51 Z-0.04
N8040 X-10.696 Y-50.928 Z-0.118
N8045 X-9.7 Y-49.932 Z-0.279
N8050 X-9.058 Y-49.289 Z-0.358
N8055 X-8.604 Y-48.835 Z-0.389
N8060 X-8.187 Y-48.419
N8065 X-7.741 Y-47.972 Z-0.361
N8070 X-7.123 Y-47.355 Z-0.287
N8075 X-6.319 Y-46.55 Z-0.154
N8080 X-5.469 Y-45.7 Z-0.038
N8085 X-4.87 Y-45.102 Z-0.002
N8090 X-1. Y-41.231 Z0.
N8095 X-0.952 Y-41.183 Z0.008
N8100 X-0.907 Y-41.138 Z0.031
N8105 X-0.861 Y-41.093 Z0.053
N8110 X-0.813 Y-41.045 Z0.061
N8115 X-0.743 Y-40.974
N8120 X-0.73 Y-40.952
N8125 Y-40.926
N8130 X-0.743 Y-40.903
N8135 X-0.765 Y-40.89
N8140 X-0.791
N8145 X-0.813 Y-40.903
N8150 X-0.861 Y-40.951 Z0.053
N8155 X-0.907 Y-40.997 Z0.031
N8160 X-0.952 Y-41.042 Z0.008
N8165 X-1. Y-41.09 Z0.
N8170 X-4.89 Y-44.979 Z-0.003
N8175 X-5.468 Y-45.558 Z-0.039
N8180 X-6.254 Y-46.344 Z-0.151
N8185 X-7.121 Y-47.211 Z-0.305
N8190 X-7.738 Y-47.828 Z-0.391
N8195 X-8.109 Y-48.199 Z-0.423
N8200 X-8.486 Y-48.576 Z-0.433
N8205 X-8.834 Y-48.924 Z-0.421
N8210 X-9.252 Y-49.342 Z-0.382
N8215 X-9.935 Y-50.025 Z-0.281
N8220 X-10.868 Y-50.958 Z-0.119
N8225 X-11.42 Y-51.51 Z-0.042
N8230 X-11.983 Y-52.073 Z-0.005
N8235 X-14.239 Y-54.329 Z0.
N8240 X-15.91 Y-56.
N8245 X-15.958 Y-56.048 Z0.008
N8250 X-16.003 Y-56.093 Z0.031
N8255 X-16.049 Y-56.139 Z0.053
N8260 X-16.097 Y-56.187 Z0.061
N8265 X-16.167 Y-56.257
N8270 X-16.19 Y-56.27
N8275 X-16.216
N8280 X-16.238 Y-56.257
N8285 X-16.251 Y-56.235
N8290 Y-56.209
N8295 X-16.238 Y-56.187
N8300 X-16.19 Y-56.139 Z0.053
N8305 X-16.145 Y-56.093 Z0.031
N8310 X-16.099 Y-56.048 Z0.008
N8315 X-16.052 Y-56. Z0.
N8320 X-12.149 Y-52.097 Z-0.004
N8325 X-11.647 Y-51.595 Z-0.034
N8330 X-11.053 Y-51.001 Z-0.117
N8335 X-10.604 Y-50.552 Z-0.198
N8340 X-9.61 Y-49.558 Z-0.379
N8345 X-9.073 Y-49.022 Z-0.449
N8350 X-8.598 Y-48.546 Z-0.474
N8355 X-8.106 Y-48.055 Z-0.461
N8360 X-7.735 Y-47.684 Z-0.423
N8365 X-7.242 Y-47.191 Z-0.344
N8370 X-6.151 Y-46.1 Z-0.141
N8375 X-5.468 Y-45.416 Z-0.041
N8380 X-4.923 Y-44.872 Z-0.005
N8385 X-1. Y-40.948 Z0.
N8390 X-0.952 Y-40.901 Z0.008
N8395 X-0.907 Y-40.855 Z0.031
N8400 X-0.861 Y-40.81 Z0.053
N8405 X-0.813 Y-40.762 Z0.061
N8410 X-0.743 Y-40.691
N8415 X-0.73 Y-40.669
N8420 Y-40.643
N8425 X-0.743 Y-40.62
N8430 X-0.765 Y-40.607
N8435 X-0.791
N8440 X-0.813 Y-40.62
N8445 X-0.861 Y-40.668 Z0.053
N8450 X-0.907 Y-40.714 Z0.031
N8455 X-0.952 Y-40.759 Z0.008
N8460 X-1. Y-40.807 Z0.
N8465 X-4.87 Y-44.677 Z-0.002
N8470 X-5.384 Y-45.191 Z-0.032
N8475 X-5.8 Y-45.607 Z-0.09
N8480 X-6.275 Y-46.082 Z-0.17
N8485 X-7.456 Y-47.263 Z-0.407
N8490 X-7.899 Y-47.706 Z-0.475
N8495 X-8.27 Y-48.077 Z-0.507
N8500 X-8.647 Y-48.454 Z-0.516
N8505 X-8.976 Y-48.783 Z-0.504
N8510 X-9.477 Y-49.284 Z-0.451
N8515 X-10.057 Y-49.864 Z-0.344
N8520 X-11.095 Y-50.902 Z-0.136
N8525 X-11.722 Y-51.529 Z-0.042
N8530 X-12.268 Y-52.075 Z-0.005
N8535 X-12.72 Y-52.527 Z0.
N8540 X-16.193 Y-56.
N8545 X-16.241 Y-56.048 Z0.008
N8550 X-16.286 Y-56.093 Z0.031
N8555 X-16.332 Y-56.139 Z0.053
N8560 X-16.38 Y-56.187 Z0.061
N8565 X-16.45 Y-56.257
N8570 X-16.473 Y-56.27
N8575 X-16.499
N8580 X-16.521 Y-56.257
N8585 X-16.534 Y-56.235
N8590 Y-56.209
N8595 X-16.521 Y-56.187
N8600 X-16.473 Y-56.139 Z0.053
N8605 X-16.428 Y-56.093 Z0.031
N8610 X-16.382 Y-56.048 Z0.008
N8615 X-16.334 Y-56. Z0.
N8620 X-12.432 Y-52.097 Z-0.004
N8625 X-11.92 Y-51.586 Z-0.036
N8630 X-11.385 Y-51.051 Z-0.116
N8635 X-11.017 Y-50.683 Z-0.186
N8640 X-9.713 Y-49.379 Z-0.464
N8645 X-9.282 Y-48.947 Z-0.525
N8650 X-8.863 Y-48.528 Z-0.556
N8655 X-8.472 Y-48.138
N8660 X-8.077 Y-47.742 Z-0.528
N8665 X-7.546 Y-47.211 Z-0.45
N8670 X-6.15 Y-45.816 Z-0.15
N8675 X-5.468 Y-45.133 Z-0.042
N8680 X-4.923 Y-44.589 Z-0.005
N8685 X-1. Y-40.666 Z0.
N8690 X-0.952 Y-40.618 Z0.008
N8695 X-0.907 Y-40.572 Z0.031
N8700 X-0.861 Y-40.527 Z0.053
N8705 X-0.813 Y-40.479 Z0.061
N8710 X-0.743 Y-40.408
N8715 X-0.73 Y-40.386
N8720 Y-40.36
N8725 X-0.743 Y-40.338
N8730 X-0.765 Y-40.325
N8735 X-0.791
N8740 X-0.813 Y-40.338
N8745 X-0.861 Y-40.385 Z0.053
N8750 X-0.907 Y-40.431 Z0.031
N8755 X-0.952 Y-40.476 Z0.008
N8760 X-1. Y-40.524 Z0.
N8765 X-4.87 Y-44.395 Z-0.002
N8770 X-5.384 Y-44.908 Z-0.033
N8775 X-5.634 Y-45.158 Z-0.067
N8780 X-6.19 Y-45.714 Z-0.163
N8785 X-7.236 Y-46.761 Z-0.406
N8790 X-7.727 Y-47.252 Z-0.51
N8795 X-8.171 Y-47.695 Z-0.573
N8800 X-8.541 Y-48.066 Z-0.602
N8805 X-8.824 Y-48.348 Z-0.605
N8810 X-9.159 Y-48.683 Z-0.588
N8815 X-9.575 Y-49.1 Z-0.537
N8820 X-9.948 Y-49.472 Z-0.472
N8825 X-11.341 Y-50.865 Z-0.151
N8830 X-12.008 Y-51.532 Z-0.042
N8835 X-12.245 Y-51.77 Z-0.022
N8840 X-12.73 Y-52.254 Z0.
N8845 X-16.476 Y-56.
N8850 X-16.524 Y-56.048 Z0.008
N8855 X-16.569 Y-56.093 Z0.031
N8860 X-16.615 Y-56.139 Z0.053
N8865 X-16.663 Y-56.187 Z0.061
N8870 X-16.733 Y-56.257
N8875 X-16.756 Y-56.27
N8880 X-16.782
N8885 X-16.804 Y-56.257
N8890 X-16.817 Y-56.235
N8895 Y-56.209
N8900 X-16.804 Y-56.187
N8905 X-16.756 Y-56.139 Z0.053
N8910 X-16.711 Y-56.093 Z0.031
N8915 X-16.665 Y-56.048 Z0.008
N8920 X-16.617 Y-56. Z0.
N8925 X-12.892 Y-52.274
N8930 X-12.367 Y-51.749 Z-0.023
N8935 X-12.054 Y-51.437 Z-0.056
N8940 X-11.501 Y-50.884 Z-0.15
N8945 X-10.97 Y-50.353 Z-0.277
N8950 X-10.202 Y-49.585 Z-0.47
N8955 X-9.812 Y-49.194 Z-0.552
N8960 X-9.396 Y-48.779 Z-0.619
N8965 X-9.046 Y-48.429 Z-0.651
N8970 X-8.72 Y-48.102 Z-0.656
N8975 X-8.421 Y-47.804 Z-0.641
N8980 X-8.028 Y-47.411 Z-0.59
N8985 X-7.522 Y-46.905 Z-0.494
N8990 X-7.011 Y-46.394 Z-0.365
N8995 X-6.15 Y-45.533 Z-0.158
N9000 X-5.8 Y-45.182 Z-0.095
N9005 X-5.384 Y-44.767 Z-0.033
N9010 X-4.923 Y-44.306 Z-0.005
N9015 X-1. Y-40.383 Z0.
N9020 X-0.952 Y-40.335 Z0.008
N9025 X-0.907 Y-40.29 Z0.031
N9030 X-0.861 Y-40.244 Z0.053
N9035 X-0.813 Y-40.196 Z0.061
N9040 X-0.743 Y-40.126
N9045 X-0.73 Y-40.103
N9050 Y-40.077
N9055 X-0.743 Y-40.055
N9060 X-0.765 Y-40.042
N9065 X-0.791
N9070 X-0.813 Y-40.055
N9075 X-0.861 Y-40.103 Z0.053
N9080 X-0.907 Y-40.148 Z0.031
N9085 X-0.952 Y-40.194 Z0.008
N9090 X-1. Y-40.241 Z0.
N9095 X-4.923 Y-44.164 Z-0.005
N9100 X-5.384 Y-44.626 Z-0.033
N9105 X-5.634 Y-44.875 Z-0.068
N9110 X-6.15 Y-45.391 Z-0.161
N9115 X-6.996 Y-46.237 Z-0.376
N9120 X-7.565 Y-46.806 Z-0.526
N9125 X-8.111 Y-47.352 Z-0.641
N9130 X-8.42 Y-47.662 Z-0.686
N9135 X-8.791 Y-48.033 Z-0.711
N9140 X-9.069 Y-48.31 Z-0.709
N9145 X-9.463 Y-48.704 Z-0.671
N9150 X-9.878 Y-49.119 Z-0.596
N9155 X-10.432 Y-49.674 Z-0.468
N9160 X-11.125 Y-50.367 Z-0.28
N9165 X-11.656 Y-50.897 Z-0.15
N9170 X-11.84 Y-51.081 Z-0.115
N9175 X-12.283 Y-51.524 Z-0.043
N9180 X-12.56 Y-51.802 Z-0.02
N9185 X-13.005 Y-52.246 Z0.
N9190 X-16.759 Y-56.
N9195 X-16.807 Y-56.048 Z0.008
N9200 X-16.852 Y-56.093 Z0.031
N9205 X-16.897 Y-56.139 Z0.053
N9210 X-16.945 Y-56.187 Z0.061
N9215 X-17.016 Y-56.257
N9220 X-17.038 Y-56.27
N9225 X-17.064
N9230 X-17.087 Y-56.257
N9235 X-17.1 Y-56.235
N9240 Y-56.209
N9245 X-17.087 Y-56.187
N9250 X-17.039 Y-56.139 Z0.053
N9255 X-16.993 Y-56.093 Z0.031
N9260 X-16.948 Y-56.048 Z0.008
N9265 X-16.9 Y-56. Z0.
N9270 X-13.151 Y-52.251
N9275 X-12.644 Y-51.744 Z-0.023
N9280 X-12.367 Y-51.467 Z-0.051
N9285 X-11.814 Y-50.914 Z-0.148
N9290 X-11.288 Y-50.388 Z-0.281
N9295 X-10.501 Y-49.601 Z-0.505
N9300 X-9.907 Y-49.007 Z-0.654
N9305 X-9.492 Y-48.592 Z-0.731
N9310 X-9.14 Y-48.24 Z-0.764
N9315 X-8.787 Y-47.887 Z-0.765
N9320 X-8.416 Y-47.516 Z-0.732
N9325 X-8.07 Y-47.17 Z-0.67
N9330 X-7.498 Y-46.598 Z-0.531
N9335 X-6.846 Y-45.946 Z-0.344
N9340 X-6.067 Y-45.167 Z-0.144
N9345 X-5.634 Y-44.734 Z-0.068
N9350 X-5.384 Y-44.484 Z-0.033
N9355 X-4.923 Y-44.023 Z-0.005
N9360 X-1. Y-40.1 Z0.
N9365 X-0.952 Y-40.052 Z0.008
N9370 X-0.907 Y-40.007 Z0.031
N9375 X-0.861 Y-39.961 Z0.053
N9380 X-0.813 Y-39.913 Z0.061
N9385 X-0.743 Y-39.843
N9390 X-0.73 Y-39.82
N9395 Y-39.794
N9400 X-0.743 Y-39.772
N9405 X-0.765 Y-39.759
N9410 X-0.791
N9415 X-0.813 Y-39.772
N9420 X-0.861 Y-39.82 Z0.053
N9425 X-0.907 Y-39.865 Z0.031
N9430 X-0.952 Y-39.911 Z0.008
N9435 X-1. Y-39.959 Z0.
N9440 X-4.923 Y-43.882 Z-0.005
N9445 X-5.384 Y-44.343 Z-0.033
N9450 X-5.634 Y-44.592 Z-0.068
N9455 X-6.15 Y-45.108 Z-0.163
N9460 X-6.906 Y-45.865 Z-0.371
N9465 X-7.587 Y-46.545 Z-0.576
N9470 X-8.024 Y-46.982 Z-0.696
N9475 X-8.39 Y-47.349 Z-0.771
N9480 X-8.76 Y-47.719 Z-0.814
N9485 X-9.136 Y-48.094 Z-0.821
N9490 X-9.377 Y-48.336 Z-0.807
N9495 X-9.729 Y-48.688 Z-0.758
N9500 X-10.183 Y-49.142 Z-0.653
N9505 X-10.897 Y-49.856 Z-0.447
N9510 X-11.378 Y-50.337 Z-0.3
N9515 X-12.005 Y-50.963 Z-0.138
N9520 X-12.506 Y-51.465 Z-0.052
N9525 X-12.784 Y-51.742 Z-0.023
N9530 X-13.249 Y-52.208 Z0.
N9535 X-17.041 Y-56.
N9540 X-17.089 Y-56.048 Z0.008
N9545 X-17.135 Y-56.093 Z0.031
N9550 X-17.18 Y-56.139 Z0.053
N9555 X-17.228 Y-56.187 Z0.061
N9560 X-17.299 Y-56.257
N9565 X-17.321 Y-56.27
N9570 X-17.347
N9575 X-17.37 Y-56.257
N9580 X-17.382 Y-56.235
N9585 Y-56.209
N9590 X-17.37 Y-56.187
N9595 X-17.322 Y-56.139 Z0.053
N9600 X-17.276 Y-56.093 Z0.031
N9605 X-17.231 Y-56.048 Z0.008
N9610 X-17.183 Y-56. Z0.
N9615 X-13.294 Y-52.111 Z-0.003
N9620 X-12.828 Y-51.645 Z-0.03
N9625 X-12.589 Y-51.406 Z-0.061
N9630 X-12.091 Y-50.908 Z-0.15
N9635 X-11.562 Y-50.379 Z-0.292
N9640 X-10.621 Y-49.438 Z-0.59
N9645 X-10.13 Y-48.947 Z-0.738
N9650 X-9.799 Y-48.616 Z-0.813
N9655 X-9.531 Y-48.348 Z-0.853
N9660 X-9.216 Y-48.033 Z-0.878
N9665 X-8.915 Y-47.732 Z-0.876
N9670 X-8.59 Y-47.407 Z-0.845
N9675 X-8.221 Y-47.038 Z-0.779
N9680 X-7.856 Y-46.673 Z-0.682
N9685 X-6.642 Y-45.459 Z-0.298
N9690 X-6.067 Y-44.884 Z-0.145
N9695 X-5.634 Y-44.451 Z-0.068
N9700 X-5.384 Y-44.201 Z-0.033
N9705 X-4.923 Y-43.74 Z-0.005
N9710 X-1. Y-39.817 Z0.
N9715 X-0.952 Y-39.769 Z0.008
N9720 X-0.907 Y-39.724 Z0.031
N9725 X-0.861 Y-39.678 Z0.053
N9730 X-0.813 Y-39.631 Z0.061
N9735 X-0.743 Y-39.56
N9740 X-0.73 Y-39.537
N9745 Y-39.512
N9750 X-0.743 Y-39.489
N9755 X-0.765 Y-39.476
N9760 X-0.791
N9765 X-0.813 Y-39.489
N9770 X-0.861 Y-39.537 Z0.053
N9775 X-0.907 Y-39.582 Z0.031
N9780 X-0.952 Y-39.628 Z0.008
N9785 X-1. Y-39.676 Z0.
N9790 X-4.923 Y-43.599 Z-0.005
N9795 X-5.384 Y-44.06 Z-0.033
N9800 X-5.634 Y-44.31 Z-0.068
N9805 X-6.067 Y-44.743 Z-0.145
N9810 X-6.601 Y-45.276 Z-0.289
N9815 X-6.967 Y-45.643 Z-0.409
N9820 X-7.996 Y-46.672 Z-0.753
N9825 X-8.361 Y-47.037 Z-0.847
N9830 X-8.683 Y-47.359 Z-0.906
N9835 X-8.961 Y-47.637 Z-0.936
N9840 X-9.226 Y-47.902 Z-0.941
N9845 X-9.508 Y-48.184 Z-0.924
N9850 X-9.768 Y-48.443 Z-0.885
N9855 X-10.035 Y-48.711 Z-0.832
N9860 X-10.364 Y-49.04 Z-0.743
N9865 X-11.677 Y-50.353 Z-0.303
N9870 X-12.248 Y-50.923 Z-0.147
N9875 X-12.616 Y-51.292 Z-0.08
N9880 X-12.893 Y-51.569 Z-0.038
N9885 X-13.381 Y-52.056 Z-0.006
N9890 X-14.041 Y-52.717 Z0.
N9895 X-17.324 Y-56.
N9900 X-17.372 Y-56.048 Z0.008
N9905 X-17.418 Y-56.093 Z0.031
N9910 X-17.463 Y-56.139 Z0.053
N9915 X-17.511 Y-56.187 Z0.061
N9920 X-17.582 Y-56.257
N9925 X-17.604 Y-56.27
N9930 X-17.63
N9935 X-17.652 Y-56.257
N9940 X-17.665 Y-56.235
N9945 Y-56.209
N9950 X-17.652 Y-56.187
N9955 X-17.605 Y-56.139 Z0.053
N9960 X-17.559 Y-56.093 Z0.031
N9965 X-17.514 Y-56.048 Z0.008
N9970 X-17.466 Y-56. Z0.
N9975 X-13.717 Y-52.251
N9980 X-13.213 Y-51.747 Z-0.023
N9985 X-12.936 Y-51.47 Z-0.051
N9990 X-12.567 Y-51.101 Z-0.113
N9995 X-12.292 Y-50.826 Z-0.17
N10000 X-11.764 Y-50.299 Z-0.321
N10005 X-10.758 Y-49.293 Z-0.682
N10010 X-10.31 Y-48.844 Z-0.831
N10015 X-9.921 Y-48.455 Z-0.931
N10020 X-9.672 Y-48.206 Z-0.976
N10025 X-9.423 Y-47.957 Z-1.004
N10030 X-9.183 Y-47.717 Z-1.009
N10035 X-8.947 Y-47.481 Z-0.995
N10040 X-8.727 Y-47.262 Z-0.966
N10045 X-8.394 Y-46.929 Z-0.895
N10050 X-8.03 Y-46.564 Z-0.793
N10055 X-6.823 Y-45.357 Z-0.362
N10060 X-6.478 Y-45.012 Z-0.256
N10065 X-6.067 Y-44.601 Z-0.145
N10070 X-5.634 Y-44.168 Z-0.068
N10075 X-5.384 Y-43.918 Z-0.033
N10080 X-4.923 Y-43.457 Z-0.005
N10085 X-1. Y-39.534 Z0.
N10090 X-0.952 Y-39.486 Z0.008
N10095 X-0.907 Y-39.441 Z0.031
N10100 X-0.861 Y-39.396 Z0.053
N10105 X-0.813 Y-39.348 Z0.061
N10110 X-0.743 Y-39.277
N10115 X-0.73 Y-39.255
N10120 Y-39.229
N10125 X-0.743 Y-39.206
N10130 X-0.765 Y-39.193
N10135 X-0.791
N10140 X-0.813 Y-39.206
N10145 X-0.861 Y-39.254 Z0.053
N10150 X-0.907 Y-39.3 Z0.031
N10155 X-0.952 Y-39.345 Z0.008
N10160 X-1. Y-39.393 Z0.
N10165 X-4.923 Y-43.316 Z-0.005
N10170 X-5.384 Y-43.777 Z-0.033
N10175 X-5.634 Y-44.027 Z-0.068
N10180 X-6.067 Y-44.46 Z-0.145
N10185 X-6.478 Y-44.87 Z-0.256
N10190 X-6.823 Y-45.216 Z-0.365
N10195 X-7.636 Y-46.029 Z-0.674
N10200 X-8.096 Y-46.489 Z-0.843
N10205 X-8.504 Y-46.897 Z-0.966
N10210 X-8.732 Y-47.125 Z-1.02
N10215 X-8.916 Y-47.309 Z-1.053
N10220 X-9.101 Y-47.494 Z-1.073
N10225 X-9.385 Y-47.778 Z-1.079
N10230 X-9.679 Y-48.072 Z-1.054
N10235 X-10.01 Y-48.403 Z-0.99
N10240 X-10.337 Y-48.73 Z-0.898
N10245 X-10.682 Y-49.074 Z-0.785
N10250 X-11.434 Y-49.827 Z-0.497
N10255 X-11.865 Y-50.258 Z-0.336
N10260 X-12.319 Y-50.712 Z-0.202
N10265 X-12.593 Y-50.986 Z-0.134
N10270 X-13.054 Y-51.447 Z-0.054
N10275 X-13.378 Y-51.771 Z-0.022
N10280 X-13.893 Y-52.285 Z0.
N10285 X-17.607 Y-56.
N10290 X-17.655 Y-56.048 Z0.008
N10295 X-17.701 Y-56.093 Z0.031
N10300 X-17.746 Y-56.139 Z0.053
N10305 X-17.794 Y-56.187 Z0.061
N10310 X-17.865 Y-56.257
N10315 X-17.887 Y-56.27
N10320 X-17.913
N10325 X-17.935 Y-56.257
N10330 X-17.948 Y-56.235
N10335 Y-56.209
N10340 X-17.935 Y-56.187
N10345 X-17.887 Y-56.139 Z0.053
N10350 X-17.842 Y-56.093 Z0.031
N10355 X-17.796 Y-56.048 Z0.008
N10360 X-17.749 Y-56. Z0.
N10365 X-13.998 Y-52.25
N10370 X-13.54 Y-51.791 Z-0.021
N10375 X-13.262 Y-51.514 Z-0.045
N10380 X-12.824 Y-51.075 Z-0.117
N10385 X-12.526 Y-50.778 Z-0.183
N10390 X-12.072 Y-50.323 Z-0.316
N10395 X-11.53 Y-49.781 Z-0.52
N10400 X-10.893 Y-49.144 Z-0.781
N10405 X-10.388 Y-48.64 Z-0.964
N10410 X-10.062 Y-48.313 Z-1.063
N10415 X-9.731 Y-47.982 Z-1.128
N10420 X-9.564 Y-47.815 Z-1.145
N10425 X-9.374 Y-47.626 Z-1.153
N10430 X-9.115 Y-47.367 Z-1.139
N10435 X-8.93 Y-47.182 Z-1.114
N10440 X-8.747 Y-46.998 Z-1.078
N10445 X-8.519 Y-46.77 Z-1.015
N10450 X-8.021 Y-46.272 Z-0.843
N10455 X-7.544 Y-45.795 Z-0.651
N10460 X-6.823 Y-45.074 Z-0.366
N10465 X-6.478 Y-44.729 Z-0.256
N10470 X-6.067 Y-44.318 Z-0.145
N10475 X-5.634 Y-43.885 Z-0.068
N10480 X-5.384 Y-43.636 Z-0.033
N10485 X-4.923 Y-43.175 Z-0.005
N10490 X-1. Y-39.251 Z0.
N10495 X-0.952 Y-39.204 Z0.008
N10500 X-0.907 Y-39.158 Z0.031
N10505 X-0.861 Y-39.113 Z0.053
N10510 X-0.813 Y-39.065 Z0.061
N10515 X-0.743 Y-38.994
N10520 X-0.73 Y-38.972
N10525 Y-38.946
N10530 X-0.743 Y-38.923
N10535 X-0.765 Y-38.911
N10540 X-0.791
N10545 X-0.813 Y-38.923
N10550 X-0.861 Y-38.971 Z0.053
N10555 X-0.907 Y-39.017 Z0.031
N10560 X-0.952 Y-39.062 Z0.008
N10565 X-1. Y-39.11 Z0.
N10570 X-4.923 Y-43.033 Z-0.005
N10575 X-5.384 Y-43.494 Z-0.033
N10580 X-5.634 Y-43.744 Z-0.068
N10585 X-6.067 Y-44.177 Z-0.145
N10590 X-6.478 Y-44.588 Z-0.256
N10595 X-6.741 Y-44.851 Z-0.337
N10600 X-7.439 Y-45.549 Z-0.616
N10605 X-7.98 Y-46.09 Z-0.85
N10610 X-8.428 Y-46.538 Z-1.027
N10615 X-8.699 Y-46.809 Z-1.115
N10620 X-8.881 Y-46.991 Z-1.161
N10625 X-9.204 Y-47.314 Z-1.211
N10630 X-9.445 Y-47.555 Z-1.224
N10635 X-9.681 Y-47.791 Z-1.211
N10640 X-9.986 Y-48.096 Z-1.165
N10645 X-10.315 Y-48.425 Z-1.078
N10650 X-10.639 Y-48.749 Z-0.959
N10655 X-11.138 Y-49.248 Z-0.756
N10660 X-11.669 Y-49.779 Z-0.526
N10665 X-12.153 Y-50.263 Z-0.336
N10670 X-12.333 Y-50.443 Z-0.279
N10675 X-12.789 Y-50.899 Z-0.152
N10680 X-13.249 Y-51.359 Z-0.069
N10685 X-13.526 Y-51.636 Z-0.031
N10690 X-14.145 Y-52.255 Z0.
N10695 X-17.89 Y-56.
N10700 X-17.938 Y-56.048 Z0.008
N10705 X-17.983 Y-56.093 Z0.031
N10710 X-18.029 Y-56.139 Z0.053
N10715 X-18.077 Y-56.187 Z0.061
N10720 X-18.147 Y-56.257
N10725 X-18.17 Y-56.27
N10730 X-18.196
N10735 X-18.218 Y-56.257
N10740 X-18.231 Y-56.235
N10745 Y-56.209
N10750 X-18.218 Y-56.187
N10755 X-18.17 Y-56.139 Z0.053
N10760 X-18.125 Y-56.093 Z0.031
N10765 X-18.079 Y-56.048 Z0.008
N10770 X-18.031 Y-56. Z0.
N10775 X-17.783 Y-55.752
N10780 X-14.106 Y-52.075 Z-0.005
N10785 X-13.641 Y-51.61 Z-0.034
N10790 X-13.364 Y-51.333 Z-0.073
N10795 X-12.904 Y-50.873 Z-0.159
N10800 X-12.54 Y-50.508 Z-0.26
N10805 X-12.269 Y-50.238 Z-0.345
N10810 X-11.796 Y-49.765 Z-0.534
N10815 X-11.187 Y-49.155 Z-0.812
N10820 X-10.529 Y-48.498 Z-1.094
N10825 X-10.203 Y-48.171 Z-1.2
N10830 X-10.038 Y-48.006 Z-1.239
N10835 X-9.789 Y-47.757 Z-1.282
N10840 X-9.563 Y-47.532 Z-1.298
N10845 X-9.329 Y-47.297 Z-1.29
N10850 X-9.098 Y-47.067 Z-1.26
N10855 X-8.847 Y-46.816 Z-1.205
N10860 X-8.509 Y-46.478 Z-1.096
N10865 X-8.075 Y-46.044 Z-0.911
N10870 X-7.323 Y-45.291 Z-0.572
N10875 X-6.741 Y-44.71 Z-0.337
N10880 X-6.478 Y-44.446 Z-0.256
N10885 X-6.067 Y-44.035 Z-0.145
N10890 X-5.634 Y-43.602 Z-0.068
N10895 X-5.384 Y-43.353 Z-0.033
N10900 X-4.923 Y-42.892 Z-0.005
N10905 X-1. Y-38.969 Z0.
N10910 X-0.952 Y-38.921 Z0.008
N10915 X-0.907 Y-38.875 Z0.031
N10920 X-0.861 Y-38.83 Z0.053
N10925 X-0.813 Y-38.782 Z0.061
N10930 X-0.743 Y-38.711
N10935 X-0.73 Y-38.689
N10940 Y-38.663
N10945 X-0.743 Y-38.641
N10950 X-0.765 Y-38.628
N10955 X-0.791
N10960 X-0.813 Y-38.641
N10965 X-0.861 Y-38.689 Z0.053
N10970 X-0.907 Y-38.734 Z0.031
N10975 X-0.952 Y-38.779 Z0.008
N10980 X-1. Y-38.827 Z0.
N10985 X-4.923 Y-42.75 Z-0.005
N10990 X-5.384 Y-43.211 Z-0.033
N10995 X-5.634 Y-43.461 Z-0.068
N11000 X-6.067 Y-43.894 Z-0.145
N11005 X-6.478 Y-44.305 Z-0.256
N11010 X-6.741 Y-44.568 Z-0.337
N11015 X-7.233 Y-45.06 Z-0.535
N11020 X-7.56 Y-45.388 Z-0.688
N11025 X-8.327 Y-46.154 Z-1.055
N11030 X-8.684 Y-46.511 Z-1.201
N11035 X-9.001 Y-46.829 Z-1.3
N11040 X-9.23 Y-47.057 Z-1.349
N11045 X-9.464 Y-47.291 Z-1.377
N11050 X-9.6 Y-47.427 Z-1.381
N11055 X-9.776 Y-47.603 Z-1.371
N11060 X-9.942 Y-47.77 Z-1.349
N11065 X-10.19 Y-48.018 Z-1.295
N11070 X-10.477 Y-48.304 Z-1.205
N11075 X-10.76 Y-48.587 Z-1.093
N11080 X-11.929 Y-49.756 Z-0.54
N11085 X-12.33 Y-50.157 Z-0.375
N11090 X-12.6 Y-50.427 Z-0.284
N11095 X-13.055 Y-50.882 Z-0.156
N11100 X-13.331 Y-51.158 Z-0.103
N11105 X-13.7 Y-51.527 Z-0.043
N11110 X-14.071 Y-51.898 Z-0.015
N11115 X-14.444 Y-52.271 Z0.
N11120 X-18.173 Y-56.
N11125 X-18.221 Y-56.048 Z0.008
N11130 X-18.266 Y-56.093 Z0.031
N11135 X-18.312 Y-56.139 Z0.053
N11140 X-18.36 Y-56.187 Z0.061
N11145 X-18.43 Y-56.257
N11150 X-18.453 Y-56.27
N11155 X-18.479
N11160 X-18.501 Y-56.257
N11165 X-18.514 Y-56.235
N11170 Y-56.209
N11175 X-18.501 Y-56.187
N11180 X-18.453 Y-56.139 Z0.053
N11185 X-18.408 Y-56.093 Z0.031
N11190 X-18.362 Y-56.048 Z0.008
N11195 X-18.314 Y-56. Z0.
N11200 X-14.502 Y-52.187 Z-0.001
N11205 X-14.082 Y-51.768 Z-0.022
N11210 X-13.758 Y-51.444 Z-0.055
N11215 X-13.298 Y-50.983 Z-0.134
N11220 X-13.024 Y-50.71 Z-0.203
N11225 X-12.571 Y-50.256 Z-0.338
N11230 X-12.124 Y-49.81 Z-0.518
N11235 X-11.948 Y-49.633 Z-0.596
N11240 X-11.067 Y-48.752 Z-1.044
N11245 X-10.667 Y-48.353 Z-1.226
N11250 X-10.343 Y-48.029 Z-1.347
N11255 X-10.096 Y-47.782 Z-1.418
N11260 X-9.847 Y-47.533 Z-1.46
N11265 X-9.657 Y-47.343 Z-1.47
N11270 X-9.396 Y-47.081 Z-1.451
N11275 X-9.199 Y-46.884 Z-1.413
N11280 X-8.942 Y-46.627 Z-1.338
N11285 X-8.673 Y-46.358 Z-1.237
N11290 X-8.32 Y-46.005 Z-1.079
N11295 X-7.521 Y-45.206 Z-0.673
N11300 X-7.233 Y-44.919 Z-0.536
N11305 X-6.741 Y-44.427 Z-0.337
N11310 X-6.478 Y-44.163 Z-0.256
N11315 X-6.067 Y-43.753 Z-0.145
N11320 X-5.634 Y-43.32 Z-0.068
N11325 X-5.384 Y-43.07 Z-0.033
N11330 X-4.923 Y-42.609 Z-0.005
N11335 X-1. Y-38.686 Z0.
N11340 X-0.952 Y-38.638 Z0.008
N11345 X-0.907 Y-38.593 Z0.031
N11350 X-0.861 Y-38.547 Z0.053
N11355 X-0.813 Y-38.499 Z0.061
N11360 X-0.743 Y-38.428
N11365 X-0.73 Y-38.406
N11370 Y-38.38
N11375 X-0.743 Y-38.358
N11380 X-0.765 Y-38.345
N11385 X-0.791
N11390 X-0.813 Y-38.358
N11395 X-0.861 Y-38.406 Z0.053
N11400 X-0.907 Y-38.451 Z0.031
N11405 X-0.952 Y-38.496 Z0.008
N11410 X-1. Y-38.544 Z0.
N11415 X-4.87 Y-42.415 Z-0.002
N11420 X-5.384 Y-42.929 Z-0.033
N11425 X-5.634 Y-43.178 Z-0.068
N11430 X-6.067 Y-43.611 Z-0.145
N11435 X-6.478 Y-44.022 Z-0.256
N11440 X-6.741 Y-44.285 Z-0.337
N11445 X-7.233 Y-44.777 Z-0.536
N11450 X-7.52 Y-45.064 Z-0.675
N11455 X-8.164 Y-45.708 Z-1.019
N11460 X-8.541 Y-46.085 Z-1.215
N11465 X-8.894 Y-46.438 Z-1.373
N11470 X-9.072 Y-46.616 Z-1.441
N11475 X-9.344 Y-46.888 Z-1.518
N11480 X-9.528 Y-47.073 Z-1.548
N11485 X-9.732 Y-47.277 Z-1.559
N11490 X-9.906 Y-47.45 Z-1.55
N11495 X-10.092 Y-47.637 Z-1.522
N11500 X-10.258 Y-47.802 Z-1.48
N11505 X-10.463 Y-48.007 Z-1.412
N11510 X-10.785 Y-48.329 Z-1.274
N11515 X-11.064 Y-48.609 Z-1.141
N11520 X-11.706 Y-49.251 Z-0.797
N11525 X-12.125 Y-49.669 Z-0.58
N11530 X-12.658 Y-50.202 Z-0.358
N11535 X-12.928 Y-50.473 Z-0.271
N11540 X-13.293 Y-50.837 Z-0.167
N11545 X-13.568 Y-51.112 Z-0.111
N11550 X-13.937 Y-51.481 Z-0.049
N11555 X-14.214 Y-51.759 Z-0.022
N11560 X-14.708 Y-52.252 Z0.
N11565 X-18.456 Y-56.
N11570 X-18.504 Y-56.048 Z0.008
N11575 X-18.549 Y-56.093 Z0.031
N11580 X-18.594 Y-56.139 Z0.053
N11585 X-18.642 Y-56.187 Z0.061
N11590 X-18.713 Y-56.257
N11595 X-18.736 Y-56.27
N11600 X-18.761
N11605 X-18.784 Y-56.257
N11610 X-18.797 Y-56.235
N11615 Y-56.209
N11620 X-18.784 Y-56.187
N11625 X-18.736 Y-56.139 Z0.053
N11630 X-18.69 Y-56.093 Z0.031
N11635 X-18.645 Y-56.048 Z0.008
N11640 X-18.597 Y-56. Z0.
N11645 X-14.87 Y-52.273
N11650 X-14.496 Y-51.899 Z-0.015
N11655 X-14.125 Y-51.528 Z-0.043
N11660 X-13.756 Y-51.159 Z-0.103
N11665 X-13.481 Y-50.884 Z-0.156
N11670 X-13.025 Y-50.428 Z-0.284
N11675 X-12.845 Y-50.248 Z-0.341
N11680 X-12.488 Y-49.891 Z-0.485
N11685 X-12.224 Y-49.627 Z-0.6
N11690 X-11.767 Y-49.17 Z-0.844
N11695 X-11.289 Y-48.692 Z-1.119
N11700 X-10.821 Y-48.224 Z-1.364
N11705 X-10.502 Y-47.904 Z-1.509
N11710 X-10.338 Y-47.741 Z-1.564
N11715 X-10.172 Y-47.575 Z-1.608
N11720 X-10.032 Y-47.435 Z-1.631
N11725 X-9.799 Y-47.201 Z-1.648
N11730 X-9.645 Y-47.048 Z-1.64
N11735 X-9.462 Y-46.865 Z-1.614
N11740 X-9.19 Y-46.593 Z-1.544
N11745 X-8.923 Y-46.326 Z-1.436
N11750 X-8.473 Y-45.876 Z-1.209
N11755 X-7.985 Y-45.387 Z-0.928
N11760 X-7.52 Y-44.923 Z-0.677
N11765 X-7.233 Y-44.636 Z-0.536
N11770 X-6.741 Y-44.144 Z-0.337
N11775 X-6.478 Y-43.88 Z-0.256
N11780 X-6.067 Y-43.47 Z-0.145
N11785 X-5.634 Y-43.037 Z-0.068
N11790 X-5.384 Y-42.787 Z-0.033
N11795 X-4.923 Y-42.326 Z-0.005
N11800 X-1. Y-38.403 Z0.
N11805 X-0.952 Y-38.355 Z0.008
N11810 X-0.907 Y-38.31 Z0.031
N11815 X-0.861 Y-38.264 Z0.053
N11820 X-0.813 Y-38.216 Z0.061
N11825 X-0.743 Y-38.146
N11830 X-0.73 Y-38.123
N11835 Y-38.097
N11840 X-0.743 Y-38.075
N11845 X-0.765 Y-38.062
N11850 X-0.791
N11855 X-0.813 Y-38.075
N11860 X-0.861 Y-38.123 Z0.053
N11865 X-0.907 Y-38.168 Z0.031
N11870 X-0.952 Y-38.214 Z0.008
N11875 X-1. Y-38.261 Z0.
N11880 X-4.923 Y-42.185 Z-0.005
N11885 X-5.384 Y-42.646 Z-0.033
N11890 X-5.634 Y-42.895 Z-0.068
N11895 X-6.067 Y-43.328 Z-0.145
N11900 X-6.478 Y-43.739 Z-0.256
N11905 X-6.741 Y-44.003 Z-0.337
N11910 X-7.233 Y-44.495 Z-0.536
N11915 X-7.52 Y-44.781 Z-0.677
N11920 X-7.976 Y-45.237 Z-0.931
N11925 X-8.443 Y-45.704 Z-1.213
N11930 X-8.876 Y-46.137 Z-1.459
N11935 X-9.138 Y-46.4 Z-1.583
N11940 X-9.318 Y-46.58 Z-1.648
N11945 X-9.501 Y-46.762 Z-1.699
N11950 X-9.685 Y-46.946 Z-1.731
N11955 X-9.871 Y-47.132 Z-1.742
N11960 X-10.078 Y-47.34 Z-1.727
N11965 X-10.282 Y-47.544 Z-1.687
N11970 X-10.492 Y-47.754 Z-1.623
N11975 X-10.732 Y-47.993 Z-1.524
N11980 X-11.006 Y-48.268 Z-1.379
N11985 X-11.593 Y-48.855 Z-1.036
N11990 X-11.939 Y-49.201 Z-0.83
N11995 X-12.333 Y-49.595 Z-0.616
N12000 X-12.686 Y-49.948 Z-0.461
N12005 X-13.044 Y-50.305 Z-0.322
N12010 X-13.498 Y-50.759 Z-0.188
N12015 X-13.812 Y-51.074 Z-0.117
N12020 X-14.233 Y-51.495 Z-0.047
N12025 X-14.511 Y-51.772 Z-0.022
N12030 X-14.993 Y-52.254 Z0.
N12035 X-18.739 Y-56.
N12040 X-18.786 Y-56.048 Z0.008
N12045 X-18.832 Y-56.093 Z0.031
N12050 X-18.877 Y-56.139 Z0.053
N12055 X-18.925 Y-56.187 Z0.061
N12060 X-18.996 Y-56.257
N12065 X-19.018 Y-56.27
N12070 X-19.044
N12075 X-19.067 Y-56.257
N12080 X-19.08 Y-56.235
N12085 Y-56.209
N12090 X-19.067 Y-56.187
N12095 X-19.019 Y-56.139 Z0.053
N12100 X-18.973 Y-56.093 Z0.031
N12105 X-18.928 Y-56.048 Z0.008
N12110 X-18.88 Y-56. Z0.
N12115 X-15.026 Y-52.146 Z-0.002
N12120 X-14.654 Y-51.774 Z-0.022
N12125 X-14.33 Y-51.45 Z-0.054
N12130 X-13.823 Y-50.943 Z-0.143
N12135 X-13.459 Y-50.579 Z-0.24
N12140 X-13.097 Y-50.217 Z-0.353
N12145 X-12.74 Y-49.86 Z-0.498
N12150 X-12.476 Y-49.597 Z-0.615
N12155 X-12.024 Y-49.144 Z-0.863
N12160 X-11.722 Y-48.842 Z-1.053
N12165 X-10.958 Y-48.078 Z-1.526
N12170 X-10.749 Y-47.869 Z-1.631
N12175 X-10.516 Y-47.636 Z-1.729
N12180 X-10.291 Y-47.411 Z-1.799
N12185 X-10.126 Y-47.246 Z-1.83
N12190 X-9.94 Y-47.06 Z-1.842
N12195 X-9.66 Y-46.78 Z-1.812
N12200 X-9.433 Y-46.553 Z-1.753
N12205 X-9.211 Y-46.331 Z-1.668
N12210 X-8.95 Y-46.07 Z-1.542
N12215 X-8.78 Y-45.9 Z-1.442
N12220 X-7.965 Y-45.086 Z-0.928
N12225 X-7.52 Y-44.64 Z-0.677
N12230 X-7.233 Y-44.353 Z-0.536
N12235 X-6.741 Y-43.861 Z-0.337
N12240 X-6.478 Y-43.598 Z-0.256
N12245 X-6.067 Y-43.187 Z-0.145
N12250 X-5.634 Y-42.754 Z-0.068
N12255 X-5.384 Y-42.504 Z-0.033
N12260 X-4.87 Y-41.99 Z-0.002
N12265 X-1. Y-38.12 Z0.
N12270 X-0.952 Y-38.072 Z0.008
N12275 X-0.907 Y-38.027 Z0.031
N12280 X-0.861 Y-37.981 Z0.053
N12285 X-0.813 Y-37.933 Z0.061
N12290 X-0.743 Y-37.863
N12295 X-0.73 Y-37.84
N12300 Y-37.814
N12305 X-0.743 Y-37.792
N12310 X-0.765 Y-37.779
N12315 X-0.791
N12320 X-0.813 Y-37.792
N12325 X-0.861 Y-37.84 Z0.053
N12330 X-0.907 Y-37.885 Z0.031
N12335 X-0.952 Y-37.931 Z0.008
N12340 X-1. Y-37.979 Z0.
N12345 X-4.87 Y-41.849 Z-0.002
N12350 X-5.384 Y-42.363 Z-0.033
N12355 X-5.634 Y-42.612 Z-0.068
N12360 X-6.067 Y-43.046 Z-0.145
N12365 X-6.478 Y-43.456 Z-0.256
N12370 X-6.741 Y-43.72 Z-0.337
N12375 X-7.233 Y-44.212 Z-0.536
N12380 X-7.52 Y-44.499 Z-0.677
N12385 X-7.879 Y-44.858 Z-0.877
N12390 X-8.118 Y-45.096 Z-1.031
N12395 X-8.923 Y-45.901 Z-1.564
N12400 X-9.095 Y-46.074 Z-1.662
N12405 X-9.309 Y-46.288 Z-1.771
N12410 X-9.426 Y-46.405 Z-1.821
N12415 X-9.604 Y-46.583 Z-1.882
N12420 X-9.786 Y-46.765 Z-1.922
N12425 X-10.011 Y-46.989 Z-1.942
N12430 X-10.196 Y-47.175 Z-1.929
N12435 X-10.362 Y-47.341 Z-1.898
N12440 X-10.525 Y-47.504 Z-1.848
N12445 X-10.747 Y-47.725 Z-1.755
N12450 X-11.024 Y-48.002 Z-1.607
N12455 X-11.255 Y-48.233 Z-1.465
N12460 X-12.102 Y-49.08 Z-0.901
N12465 X-12.532 Y-49.511 Z-0.66
N12470 X-12.816 Y-49.795 Z-0.525
N12475 X-13.24 Y-50.218 Z-0.352
N12480 X-13.51 Y-50.489 Z-0.266
N12485 X-13.874 Y-50.853 Z-0.163
N12490 X-14.242 Y-51.22 Z-0.092
N12495 X-14.611 Y-51.589 Z-0.036
N12500 X-14.983 Y-51.961 Z-0.011
N12505 X-15.359 Y-52.337 Z0.
N12510 X-19.021 Y-56.
N12515 X-19.069 Y-56.048 Z0.008
N12520 X-19.115 Y-56.093 Z0.031
N12525 X-19.16 Y-56.139 Z0.053
N12530 X-19.208 Y-56.187 Z0.061
N12535 X-19.279 Y-56.257
N12540 X-19.301 Y-56.27
N12545 X-19.327
N12550 X-19.349 Y-56.257
N12555 X-19.362 Y-56.235
N12560 Y-56.209
N12565 X-19.349 Y-56.187
N12570 X-19.302 Y-56.139 Z0.053
N12575 X-19.256 Y-56.093 Z0.031
N12580 X-19.211 Y-56.048 Z0.008
N12585 X-19.163 Y-56. Z0.
N12590 X-15.31 Y-52.148 Z-0.002
N12595 X-14.845 Y-51.682 Z-0.027
N12600 X-14.568 Y-51.405 Z-0.061
N12605 X-14.107 Y-50.944 Z-0.142
N12610 X-13.743 Y-50.58 Z-0.24
N12615 X-13.381 Y-50.218 Z-0.352
N12620 X-13.024 Y-49.861 Z-0.497
N12625 X-12.761 Y-49.598 Z-0.615
N12630 X-12.244 Y-49.081 Z-0.901
N12635 X-11.842 Y-48.68 Z-1.173
N12640 X-11.243 Y-48.08 Z-1.595
N12645 X-11.012 Y-47.849 Z-1.738
N12650 X-10.845 Y-47.682 Z-1.833
N12655 X-10.596 Y-47.433 Z-1.946
N12660 X-10.433 Y-47.27 Z-1.996
N12665 X-10.267 Y-47.104 Z-2.029
N12670 X-10.16 Y-46.997 Z-2.038
N12675 X-10.028 Y-46.865 Z-2.039
N12680 X-9.79 Y-46.627 Z-2.009
N12685 X-9.608 Y-46.445 Z-1.959
N12690 X-9.43 Y-46.267 Z-1.888
N12695 X-9.257 Y-46.094 Z-1.799
N12700 X-9.002 Y-45.84 Z-1.647
N12705 X-8.667 Y-45.504 Z-1.417
N12710 X-8.118 Y-44.955 Z-1.033
N12715 X-7.879 Y-44.716 Z-0.877
N12720 X-7.52 Y-44.357 Z-0.677
N12725 X-7.233 Y-44.07 Z-0.536
N12730 X-6.741 Y-43.578 Z-0.337
N12735 X-6.478 Y-43.315 Z-0.256
N12740 X-6.067 Y-42.904 Z-0.145
N12745 X-5.634 Y-42.471 Z-0.068
N12750 X-5.384 Y-42.221 Z-0.033
N12755 X-4.87 Y-41.708 Z-0.002
N12760 X-1. Y-37.837 Z0.
N12765 X-0.952 Y-37.789 Z0.008
N12770 X-0.907 Y-37.744 Z0.031
N12775 X-0.861 Y-37.699 Z0.053
N12780 X-0.813 Y-37.651 Z0.061
N12785 X-0.743 Y-37.58
N12790 X-0.73 Y-37.558
N12795 Y-37.532
N12800 X-0.743 Y-37.509
N12805 X-0.765 Y-37.496
N12810 X-0.791
N12815 X-0.813 Y-37.509
N12820 X-0.861 Y-37.557 Z0.053
N12825 X-0.907 Y-37.603 Z0.031
N12830 X-0.952 Y-37.648 Z0.008
N12835 X-1. Y-37.696 Z0.
N12840 X-4.923 Y-41.619 Z-0.005
N12845 X-5.384 Y-42.08 Z-0.033
N12850 X-5.634 Y-42.33 Z-0.068
N12855 X-6.067 Y-42.763 Z-0.145
N12860 X-6.478 Y-43.173 Z-0.256
N12865 X-6.741 Y-43.437 Z-0.337
N12870 X-7.233 Y-43.929 Z-0.536
N12875 X-7.52 Y-44.216 Z-0.677
N12880 X-7.879 Y-44.575 Z-0.877
N12885 X-8.118 Y-44.813 Z-1.033
N12890 X-8.581 Y-45.277 Z-1.366
N12895 X-8.892 Y-45.588 Z-1.603
N12900 X-9.208 Y-45.904 Z-1.818
N12905 X-9.377 Y-46.073 Z-1.919
N12910 X-9.55 Y-46.246 Z-2.004
N12915 X-9.728 Y-46.424 Z-2.072
N12920 X-9.91 Y-46.606 Z-2.118
N12925 X-10.153 Y-46.849 Z-2.143
N12930 X-10.342 Y-47.038 Z-2.127
N12935 X-10.508 Y-47.204 Z-2.093
N12940 X-10.671 Y-47.367 Z-2.04
N12945 X-10.831 Y-47.527 Z-1.971
N12950 X-11.074 Y-47.769 Z-1.833
N12955 X-11.461 Y-48.157 Z-1.569
N12960 X-11.945 Y-48.641 Z-1.203
N12965 X-12.385 Y-49.081 Z-0.901
N12970 X-12.816 Y-49.511 Z-0.66
N12975 X-13.1 Y-49.796 Z-0.524
N12980 X-13.523 Y-50.219 Z-0.352
N12985 X-13.794 Y-50.49 Z-0.266
N12990 X-14.158 Y-50.854 Z-0.163
N12995 X-14.526 Y-51.221 Z-0.092
N13000 X-14.895 Y-51.59 Z-0.036
N13005 X-15.266 Y-51.962 Z-0.011
N13010 X-15.643 Y-52.338 Z0.
N13015 X-19.304 Y-56.
N13020 X-19.352 Y-56.048 Z0.008
N13025 X-19.398 Y-56.093 Z0.031
N13030 X-19.443 Y-56.139 Z0.053
N13035 X-19.491 Y-56.187 Z0.061
N13040 X-19.562 Y-56.257
N13045 X-19.584 Y-56.27
N13050 X-19.61
N13055 X-19.632 Y-56.257
N13060 X-19.645 Y-56.235
N13065 Y-56.209
N13070 X-19.632 Y-56.187
N13075 X-19.584 Y-56.139 Z0.053
N13080 X-19.539 Y-56.093 Z0.031
N13085 X-19.494 Y-56.048 Z0.008
N13090 X-19.446 Y-56. Z0.
N13095 X-15.711 Y-52.265
N13100 X-15.338 Y-51.892 Z-0.015
N13105 X-14.967 Y-51.521 Z-0.044
N13110 X-14.598 Y-51.152 Z-0.104
N13115 X-14.323 Y-50.877 Z-0.158
N13120 X-13.867 Y-50.421 Z-0.286
N13125 X-13.687 Y-50.241 Z-0.344
N13130 X-13.33 Y-49.884 Z-0.488
N13135 X-13.066 Y-49.62 Z-0.603
N13140 X-12.806 Y-49.36 Z-0.743
N13145 X-12.464 Y-49.018 Z-0.94
N13150 X-12.05 Y-48.604 Z-1.231
N13155 X-11.789 Y-48.343 Z-1.438
N13160 X-11.344 Y-47.898 Z-1.781
N13165 X-11.066 Y-47.62 Z-1.973
N13170 X-10.91 Y-47.465 Z-2.059
N13175 X-10.75 Y-47.305 Z-2.131
N13180 X-10.587 Y-47.142 Z-2.188
N13185 X-10.422 Y-46.976 Z-2.225
N13190 X-10.271 Y-46.825 Z-2.24
N13195 X-10.085 Y-46.64 Z-2.235
N13200 X-9.904 Y-46.458 Z-2.201
N13205 X-9.726 Y-46.28 Z-2.144
N13210 X-9.552 Y-46.106 Z-2.068
N13215 X-9.383 Y-45.938 Z-1.976
N13220 X-9.215 Y-45.769 Z-1.865
N13225 X-8.979 Y-45.533 Z-1.69
N13230 X-8.507 Y-45.062 Z-1.314
N13235 X-8.118 Y-44.672 Z-1.033
N13240 X-7.879 Y-44.433 Z-0.877
N13245 X-7.52 Y-44.074 Z-0.677
N13250 X-7.233 Y-43.787 Z-0.536
N13255 X-6.741 Y-43.296 Z-0.337
N13260 X-6.478 Y-43.032 Z-0.256
N13265 X-6.067 Y-42.621 Z-0.145
N13270 X-5.634 Y-42.188 Z-0.068
N13275 X-5.384 Y-41.939 Z-0.033
N13280 X-4.87 Y-41.425 Z-0.002
N13285 X-1. Y-37.554 Z0.
N13290 X-0.952 Y-37.507 Z0.008
N13295 X-0.907 Y-37.461 Z0.031
N13300 X-0.861 Y-37.416 Z0.053
N13305 X-0.813 Y-37.368 Z0.061
N13310 X-0.743 Y-37.297
N13315 X-0.73 Y-37.275
N13320 Y-37.249
N13325 X-0.743 Y-37.226
N13330 X-0.765 Y-37.213
N13335 X-0.791
N13340 X-0.813 Y-37.226
N13345 X-0.861 Y-37.274 Z0.053
N13350 X-0.907 Y-37.32 Z0.031
N13355 X-0.952 Y-37.365 Z0.008
N13360 X-1. Y-37.413 Z0.
N13365 X-4.923 Y-41.336 Z-0.005
N13370 X-5.384 Y-41.797 Z-0.033
N13375 X-5.634 Y-42.047 Z-0.068
N13380 X-6.067 Y-42.48 Z-0.145
N13385 X-6.478 Y-42.891 Z-0.256
N13390 X-6.741 Y-43.154 Z-0.337
N13395 X-7.233 Y-43.646 Z-0.536
N13400 X-7.52 Y-43.933 Z-0.677
N13405 X-7.879 Y-44.292 Z-0.877
N13410 X-8.118 Y-44.531 Z-1.033
N13415 X-8.507 Y-44.92 Z-1.316
N13420 X-9.103 Y-45.516 Z-1.813
N13425 X-9.338 Y-45.751 Z-1.989
N13430 X-9.507 Y-45.92 Z-2.098
N13435 X-9.68 Y-46.093 Z-2.191
N13440 X-9.858 Y-46.271 Z-2.264
N13445 X-10.04 Y-46.453 Z-2.314
N13450 X-10.294 Y-46.706 Z-2.342
N13455 X-10.501 Y-46.914 Z-2.323
N13460 X-10.667 Y-47.08 Z-2.283
N13465 X-10.83 Y-47.243 Z-2.223
N13470 X-10.99 Y-47.402 Z-2.147
N13475 X-11.145 Y-47.558 Z-2.056
N13480 X-11.297 Y-47.71 Z-1.955
N13485 X-11.752 Y-48.165 Z-1.593
N13490 X-12.118 Y-48.531 Z-1.286
N13495 X-12.613 Y-49.026 Z-0.935
N13500 X-12.868 Y-49.281 Z-0.787
N13505 X-13.127 Y-49.54 Z-0.644
N13510 X-13.39 Y-49.803 Z-0.521
N13515 X-13.836 Y-50.249 Z-0.341
N13520 X-14.107 Y-50.52 Z-0.257
N13525 X-14.471 Y-50.884 Z-0.156
N13530 X-15.024 Y-51.437 Z-0.056
N13535 X-15.336 Y-51.749 Z-0.023
N13540 X-15.767 Y-52.18 Z-0.001
N13545 X-19.587 Y-56. Z0.
N13550 X-19.635 Y-56.048 Z0.008
N13555 X-19.68 Y-56.093 Z0.031
N13560 X-19.726 Y-56.139 Z0.053
N13565 X-19.774 Y-56.187 Z0.061
N13570 X-19.844 Y-56.257
N13575 X-19.867 Y-56.27
N13580 X-19.893
N13585 X-19.915 Y-56.257
N13590 X-19.928 Y-56.235
N13595 Y-56.209
N13600 X-19.915 Y-56.187
N13605 X-19.867 Y-56.139 Z0.053
N13610 X-19.822 Y-56.093 Z0.031
N13615 X-19.776 Y-56.048 Z0.008
N13620 X-19.728 Y-56. Z0.
N13625 X-15.992 Y-52.264
N13630 X-15.619 Y-51.891 Z-0.015
N13635 X-15.248 Y-51.52 Z-0.044
N13640 X-14.81 Y-51.082 Z-0.116
N13645 X-14.513 Y-50.784 Z-0.181
N13650 X-13.968 Y-50.24 Z-0.344
N13655 X-13.611 Y-49.883 Z-0.488
N13660 X-13.347 Y-49.619 Z-0.604
N13665 X-12.83 Y-49.101 Z-0.888
N13670 X-12.621 Y-48.892 Z-1.026
N13675 X-12.25 Y-48.522 Z-1.293
N13680 X-11.523 Y-47.795 Z-1.92
N13685 X-11.225 Y-47.496 Z-2.14
N13690 X-11.069 Y-47.34 Z-2.235
N13695 X-10.909 Y-47.181 Z-2.315
N13700 X-10.746 Y-47.017 Z-2.378
N13705 X-10.58 Y-46.852 Z-2.421
N13710 X-10.409 Y-46.68 Z-2.441
N13715 X-10.224 Y-46.495 Z-2.433
N13720 X-10.042 Y-46.314 Z-2.396
N13725 X-9.864 Y-46.136 Z-2.334
N13730 X-9.691 Y-45.962 Z-2.252
N13735 X-9.522 Y-45.793 Z-2.152
N13740 X-9.358 Y-45.63 Z-2.038
N13745 X-9.2 Y-45.471 Z-1.915
N13750 X-8.507 Y-44.778 Z-1.316
N13755 X-8.118 Y-44.389 Z-1.033
N13760 X-7.879 Y-44.15 Z-0.877
N13765 X-7.52 Y-43.791 Z-0.677
N13770 X-7.233 Y-43.505 Z-0.536
N13775 X-6.741 Y-43.013 Z-0.337
N13780 X-6.478 Y-42.749 Z-0.256
N13785 X-6.067 Y-42.338 Z-0.145
N13790 X-5.634 Y-41.905 Z-0.068
N13795 X-5.384 Y-41.656 Z-0.033
N13800 X-4.87 Y-41.142 Z-0.002
N13805 X-1. Y-37.272 Z0.
N13810 X-0.952 Y-37.224 Z0.008
N13815 X-0.907 Y-37.178 Z0.031
N13820 X-0.861 Y-37.133 Z0.053
N13825 X-0.813 Y-37.085 Z0.061
N13830 X-0.743 Y-37.014
N13835 X-0.73 Y-36.992
N13840 Y-36.966
N13845 X-0.743 Y-36.944
N13850 X-0.765 Y-36.931
N13855 X-0.791
N13860 X-0.813 Y-36.944
N13865 X-0.861 Y-36.992 Z0.053
N13870 X-0.907 Y-37.037 Z0.031
N13875 X-0.952 Y-37.082 Z0.008
N13880 X-1. Y-37.13 Z0.
N13885 X-4.923 Y-41.053 Z-0.005
N13890 X-5.384 Y-41.514 Z-0.033
N13895 X-5.634 Y-41.764 Z-0.068
N13900 X-6.067 Y-42.197 Z-0.145
N13905 X-6.478 Y-42.608 Z-0.256
N13910 X-6.741 Y-42.871 Z-0.337
N13915 X-7.233 Y-43.363 Z-0.536
N13920 X-7.52 Y-43.65 Z-0.677
N13925 X-7.879 Y-44.009 Z-0.877
N13930 X-8.118 Y-44.248 Z-1.033
N13935 X-8.507 Y-44.637 Z-1.316
N13940 X-9.024 Y-45.154 Z-1.773
N13945 X-9.321 Y-45.451 Z-2.038
N13950 X-9.48 Y-45.61 Z-2.161
N13955 X-9.643 Y-45.773 Z-2.274
N13960 X-9.812 Y-45.942 Z-2.372
N13965 X-9.985 Y-46.116 Z-2.451
N13970 X-10.163 Y-46.294 Z-2.509
N13975 X-10.345 Y-46.476 Z-2.538
N13980 X-10.531 Y-46.661
N13985 X-10.66 Y-46.79 Z-2.518
N13990 X-10.825 Y-46.955 Z-2.473
N13995 X-10.988 Y-47.118 Z-2.407
N14000 X-11.148 Y-47.278 Z-2.323
N14005 X-11.303 Y-47.433 Z-2.224
N14010 X-11.601 Y-47.731 Z-1.993
N14015 X-11.862 Y-47.993 Z-1.757
N14020 X-12.34 Y-48.47 Z-1.334
N14025 X-12.667 Y-48.797 Z-1.094
N14030 X-12.917 Y-49.047 Z-0.922
N14035 X-13.346 Y-49.476 Z-0.679
N14040 X-13.607 Y-49.737 Z-0.549
N14045 X-14.052 Y-50.182 Z-0.366
N14050 X-14.322 Y-50.452 Z-0.277
N14055 X-14.686 Y-50.816 Z-0.173
N14060 X-14.961 Y-51.091 Z-0.114
N14065 X-15.422 Y-51.552 Z-0.04
N14070 X-15.7 Y-51.83 Z-0.018
N14075 X-16.073 Y-52.203 Z0.
N14080 X-19.87 Y-56.
N14085 X-19.918 Y-56.048 Z0.008
N14090 X-19.963 Y-56.093 Z0.031
N14095 X-20.009 Y-56.139 Z0.053
N14100 X-20.057 Y-56.187 Z0.061
N14105 X-20.127 Y-56.257
N14110 X-20.15 Y-56.27
N14115 X-20.176
N14120 X-20.198 Y-56.257
N14125 X-20.211 Y-56.235
N14130 Y-56.209
N14135 X-20.198 Y-56.187
N14140 X-20.15 Y-56.139 Z0.053
N14145 X-20.105 Y-56.093 Z0.031
N14150 X-20.059 Y-56.048 Z0.008
N14155 X-20.011 Y-56. Z0.
N14160 X-16.261 Y-52.25
N14165 X-15.804 Y-51.793 Z-0.021
N14170 X-15.526 Y-51.515 Z-0.045
N14175 X-15.088 Y-51.077 Z-0.117
N14180 X-14.791 Y-50.779 Z-0.183
N14185 X-14.336 Y-50.325 Z-0.315
N14190 X-14.115 Y-50.104 Z-0.397
N14195 X-13.625 Y-49.614 Z-0.607
N14200 X-13.279 Y-49.267 Z-0.794
N14205 X-13.024 Y-49.013 Z-0.944
N14210 X-12.692 Y-48.681 Z-1.176
N14215 X-12.45 Y-48.439 Z-1.361
N14220 X-12.136 Y-48.125 Z-1.64
N14225 X-11.619 Y-47.608 Z-2.118
N14230 X-11.39 Y-47.379 Z-2.299
N14235 X-11.239 Y-47.228 Z-2.401
N14240 X-11.083 Y-47.072 Z-2.489
N14245 X-10.923 Y-46.912 Z-2.56
N14250 X-10.739 Y-46.728 Z-2.616
N14255 X-10.549 Y-46.538 Z-2.641
N14260 X-10.334 Y-46.323 Z-2.627
N14265 X-10.152 Y-46.141 Z-2.582
N14270 X-9.975 Y-45.963 Z-2.511
N14275 X-9.802 Y-45.791 Z-2.42
N14280 X-9.636 Y-45.625 Z-2.31
N14285 X-9.472 Y-45.461 Z-2.186
N14290 X-9.314 Y-45.302 Z-2.05
N14295 X-8.864 Y-44.853 Z-1.63
N14300 X-8.507 Y-44.495 Z-1.316
N14305 X-8.118 Y-44.106 Z-1.033
N14310 X-7.879 Y-43.868 Z-0.877
N14315 X-7.52 Y-43.509 Z-0.677
N14320 X-7.233 Y-43.222 Z-0.536
N14325 X-6.741 Y-42.73 Z-0.337
N14330 X-6.478 Y-42.466 Z-0.256
N14335 X-6.067 Y-42.056 Z-0.145
N14340 X-5.634 Y-41.623 Z-0.068
N14345 X-5.384 Y-41.373 Z-0.033
N14350 X-4.923 Y-40.912 Z-0.005
N14355 X-1. Y-36.989 Z0.
N14360 X-0.952 Y-36.941 Z0.008
N14365 X-0.907 Y-36.896 Z0.031
N14370 X-0.861 Y-36.85 Z0.053
N14375 X-0.813 Y-36.802 Z0.061
N14380 X-0.743 Y-36.731
N14385 X-0.73 Y-36.709
N14390 Y-36.683
N14395 X-0.743 Y-36.661
N14400 X-0.765 Y-36.648
N14405 X-0.791
N14410 X-0.813 Y-36.661
N14415 X-0.861 Y-36.709 Z0.053
N14420 X-0.907 Y-36.754 Z0.031
N14425 X-0.952 Y-36.799 Z0.008
N14430 X-1. Y-36.847 Z0.
N14435 X-4.923 Y-40.77 Z-0.005
N14440 X-5.384 Y-41.231 Z-0.033
N14445 X-5.634 Y-41.481 Z-0.068
N14450 X-6.067 Y-41.914 Z-0.145
N14455 X-6.478 Y-42.325 Z-0.256
N14460 X-6.741 Y-42.588 Z-0.337
N14465 X-7.233 Y-43.08 Z-0.536
N14470 X-7.52 Y-43.367 Z-0.677
N14475 X-7.879 Y-43.726 Z-0.877
N14480 X-8.118 Y-43.965 Z-1.033
N14485 X-8.507 Y-44.354 Z-1.316
N14490 X-8.864 Y-44.712 Z-1.63
N14495 X-9.021 Y-44.869 Z-1.779
N14500 X-9.312 Y-45.159 Z-2.06
N14505 X-9.624 Y-45.472 Z-2.333
N14510 X-9.788 Y-45.635 Z-2.454
N14515 X-9.957 Y-45.804 Z-2.559
N14520 X-10.129 Y-45.976 Z-2.643
N14525 X-10.307 Y-46.154 Z-2.704
N14530 X-10.489 Y-46.336 Z-2.739
N14535 X-10.673 Y-46.521 Z-2.737
N14540 X-10.818 Y-46.666 Z-2.713
N14545 X-10.982 Y-46.829 Z-2.661
N14550 X-11.142 Y-46.989 Z-2.588
N14555 X-11.297 Y-47.145 Z-2.498
N14560 X-11.449 Y-47.296 Z-2.393
N14565 X-11.596 Y-47.443 Z-2.279
N14570 X-11.897 Y-47.744 Z-2.007
N14575 X-12.293 Y-48.14 Z-1.626
N14580 X-12.563 Y-48.41 Z-1.385
N14585 X-12.803 Y-48.65 Z-1.198
N14590 X-13.135 Y-48.983 Z-0.964
N14595 X-13.389 Y-49.237 Z-0.811
N14600 X-13.735 Y-49.583 Z-0.622
N14605 X-13.998 Y-49.846 Z-0.504
N14610 X-14.355 Y-50.203 Z-0.358
N14615 X-14.717 Y-50.564 Z-0.244
N14620 X-15.081 Y-50.928 Z-0.146
N14625 X-15.449 Y-51.297 Z-0.08
N14630 X-15.726 Y-51.574 Z-0.037
N14635 X-16.237 Y-52.085 Z-0.004
N14640 X-20.153 Y-56. Z0.
N14645 X-20.201 Y-56.048 Z0.008
N14650 X-20.246 Y-56.093 Z0.031
N14655 X-20.291 Y-56.139 Z0.053
N14660 X-20.339 Y-56.187 Z0.061
N14665 X-20.41 Y-56.257
N14670 X-20.433 Y-56.27
N14675 X-20.458
N14680 X-20.481 Y-56.257
N14685 X-20.494 Y-56.235
N14690 Y-56.209
N14695 X-20.481 Y-56.187
N14700 X-20.433 Y-56.139 Z0.053
N14705 X-20.387 Y-56.093 Z0.031
N14710 X-20.342 Y-56.048 Z0.008
N14715 X-20.294 Y-56. Z0.
N14720 X-16.547 Y-52.253
N14725 X-16.059 Y-51.765 Z-0.022
N14730 X-15.782 Y-51.487 Z-0.048
N14735 X-15.32 Y-51.026 Z-0.126
N14740 X-15.046 Y-50.752 Z-0.19
N14745 X-14.592 Y-50.298 Z-0.324
N14750 X-14.235 Y-49.941 Z-0.464
N14755 X-13.882 Y-49.588 Z-0.62
N14760 X-13.536 Y-49.242 Z-0.809
N14765 X-13.282 Y-48.988 Z-0.96
N14770 X-13.033 Y-48.739 Z-1.135
N14775 X-12.789 Y-48.495 Z-1.314
N14780 X-12.436 Y-48.141 Z-1.625
N14785 X-11.816 Y-47.522 Z-2.225
N14790 X-11.527 Y-47.233 Z-2.473
N14795 X-11.375 Y-47.081 Z-2.582
N14800 X-11.221 Y-46.926 Z-2.676
N14805 X-11.061 Y-46.767 Z-2.752
N14810 X-10.898 Y-46.604 Z-2.808
N14815 X-10.708 Y-46.414 Z-2.841
N14820 X-10.46 Y-46.166 Z-2.823
N14825 X-10.282 Y-45.988 Z-2.773
N14830 X-10.108 Y-45.814 Z-2.696
N14835 X-9.94 Y-45.646 Z-2.596
N14840 X-9.776 Y-45.482 Z-2.479
N14845 X-9.617 Y-45.323 Z-2.35
N14850 X-9.463 Y-45.169 Z-2.211
N14855 X-9.021 Y-44.727 Z-1.779
N14860 X-8.864 Y-44.57 Z-1.63
N14865 X-8.507 Y-44.213 Z-1.316
N14870 X-8.118 Y-43.824 Z-1.033
N14875 X-7.879 Y-43.585 Z-0.877
N14880 X-7.52 Y-43.226 Z-0.677
N14885 X-7.233 Y-42.939 Z-0.536
N14890 X-6.741 Y-42.447 Z-0.337
N14895 X-6.478 Y-42.183 Z-0.256
N14900 X-6.067 Y-41.773 Z-0.145
N14905 X-5.634 Y-41.34 Z-0.068
N14910 X-5.384 Y-41.09 Z-0.033
N14915 X-4.87 Y-40.576 Z-0.002
N14920 X-1. Y-36.706 Z0.
N14925 X-0.952 Y-36.658 Z0.008
N14930 X-0.907 Y-36.613 Z0.031
N14935 X-0.861 Y-36.567 Z0.053
N14940 X-0.813 Y-36.519 Z0.061
N14945 X-0.743 Y-36.449
N14950 X-0.73 Y-36.426
N14955 Y-36.4
N14960 X-0.743 Y-36.378
N14965 X-0.765 Y-36.365
N14970 X-0.791
N14975 X-0.813 Y-36.378
N14980 X-0.861 Y-36.426 Z0.053
N14985 X-0.907 Y-36.471 Z0.031
N14990 X-0.952 Y-36.517 Z0.008
N14995 X-1. Y-36.564 Z0.
N15000 X-4.923 Y-40.488 Z-0.005
N15005 X-5.384 Y-40.949 Z-0.033
N15010 X-5.634 Y-41.198 Z-0.068
N15015 X-6.067 Y-41.631 Z-0.145
N15020 X-6.478 Y-42.042 Z-0.256
N15025 X-6.741 Y-42.306 Z-0.337
N15030 X-7.233 Y-42.798 Z-0.536
N15035 X-7.52 Y-43.084 Z-0.677
N15040 X-7.879 Y-43.443 Z-0.877
N15045 X-8.118 Y-43.682 Z-1.033
N15050 X-8.507 Y-44.071 Z-1.316
N15055 X-8.864 Y-44.429 Z-1.63
N15060 X-9.021 Y-44.586 Z-1.779
N15065 X-9.615 Y-45.18 Z-2.363
N15070 X-9.77 Y-45.334 Z-2.499
N15075 X-9.928 Y-45.493 Z-2.626
N15080 X-10.092 Y-45.657 Z-2.737
N15085 X-10.264 Y-45.829 Z-2.83
N15090 X-10.442 Y-46.006 Z-2.898
N15095 X-10.624 Y-46.188 Z-2.936
N15100 X-10.809 Y-46.373 Z-2.937
N15105 X-10.973 Y-46.538 Z-2.904
N15110 X-11.137 Y-46.701 Z-2.845
N15115 X-11.296 Y-46.861 Z-2.764
N15120 X-11.451 Y-47.016 Z-2.666
N15125 X-11.6 Y-47.165 Z-2.554
N15130 X-11.887 Y-47.451 Z-2.299
N15135 X-12.563 Y-48.128 Z-1.637
N15140 X-12.856 Y-48.421 Z-1.376
N15145 X-13.097 Y-48.661 Z-1.19
N15150 X-13.429 Y-48.993 Z-0.956
N15155 X-13.684 Y-49.248 Z-0.805
N15160 X-14.03 Y-49.594 Z-0.616
N15165 X-14.293 Y-49.858 Z-0.499
N15170 X-14.65 Y-50.215 Z-0.353
N15175 X-15.012 Y-50.576 Z-0.241
N15180 X-15.376 Y-50.941 Z-0.143
N15185 X-15.883 Y-51.447 Z-0.054
N15190 X-16.207 Y-51.771 Z-0.022
N15195 X-16.579 Y-52.144 Z-0.002
N15200 X-20.436 Y-56. Z0.
N15205 X-20.483 Y-56.048 Z0.008
N15210 X-20.529 Y-56.093 Z0.031
N15215 X-20.574 Y-56.139 Z0.053
N15220 X-20.622 Y-56.187 Z0.061
N15225 X-20.693 Y-56.257
N15230 X-20.715 Y-56.27
N15235 X-20.741
N15240 X-20.764 Y-56.257
N15245 X-20.777 Y-56.235
N15250 Y-56.209
N15255 X-20.764 Y-56.187
N15260 X-20.716 Y-56.139 Z0.053
N15265 X-20.67 Y-56.093 Z0.031
N15270 X-20.625 Y-56.048 Z0.008
N15275 X-20.577 Y-56. Z0.
N15280 X-16.756 Y-52.18 Z-0.001
N15285 X-16.326 Y-51.749 Z-0.023
N15290 X-16.013 Y-51.436 Z-0.056
N15295 X-15.461 Y-50.884 Z-0.156
N15300 X-15.097 Y-50.52 Z-0.257
N15305 X-14.826 Y-50.249 Z-0.341
N15310 X-14.379 Y-49.802 Z-0.522
N15315 X-14.204 Y-49.627 Z-0.6
N15320 X-13.857 Y-49.28 Z-0.787
N15325 X-13.603 Y-49.026 Z-0.935
N15330 X-13.27 Y-48.693 Z-1.167
N15335 X-13.027 Y-48.45 Z-1.351
N15340 X-12.713 Y-48.136 Z-1.629
N15345 X-12.561 Y-47.984 Z-1.773
N15350 X-11.983 Y-47.406 Z-2.348
N15355 X-11.7 Y-47.123 Z-2.61
N15360 X-11.553 Y-46.976 Z-2.729
N15365 X-11.399 Y-46.822 Z-2.837
N15370 X-11.239 Y-46.662 Z-2.926
N15375 X-11.05 Y-46.473 Z-3.
N15380 X-10.527 Y-45.95
N15385 X-10.421 Y-45.844 Z-2.963
N15390 X-10.248 Y-45.671 Z-2.878
N15395 X-10.082 Y-45.505 Z-2.771
N15400 X-9.922 Y-45.345 Z-2.647
N15405 X-9.767 Y-45.19 Z-2.513
N15410 X-9.613 Y-45.036 Z-2.367
N15415 X-9.021 Y-44.444 Z-1.779
N15420 X-8.864 Y-44.287 Z-1.63
N15425 X-8.507 Y-43.93 Z-1.316
N15430 X-8.118 Y-43.541 Z-1.033
N15435 X-7.879 Y-43.302 Z-0.877
N15440 X-7.52 Y-42.943 Z-0.677
N15445 X-7.233 Y-42.656 Z-0.536
N15450 X-6.741 Y-42.164 Z-0.337
N15455 X-6.478 Y-41.901 Z-0.256
N15460 X-6.067 Y-41.49 Z-0.145
N15465 X-5.634 Y-41.057 Z-0.068
N15470 X-5.384 Y-40.807 Z-0.033
N15475 X-4.923 Y-40.346 Z-0.005
N15480 X-1. Y-36.423 Z0.
N15485 X-0.952 Y-36.375 Z0.008
N15490 X-0.907 Y-36.33 Z0.031
N15495 X-0.861 Y-36.284 Z0.053
N15500 X-0.813 Y-36.236 Z0.061
N15505 X-0.743 Y-36.166
N15510 X-0.73 Y-36.143
N15515 Y-36.117
N15520 X-0.743 Y-36.095
N15525 X-0.765 Y-36.082
N15530 X-0.791
N15535 X-0.813 Y-36.095
N15540 X-0.861 Y-36.143 Z0.053
N15545 X-0.907 Y-36.188 Z0.031
N15550 X-0.952 Y-36.234 Z0.008
N15555 X-1. Y-36.282 Z0.
N15560 X-4.87 Y-40.152 Z-0.002
N15565 X-5.384 Y-40.666 Z-0.033
N15570 X-5.634 Y-40.915 Z-0.068
N15575 X-6.067 Y-41.348 Z-0.145
N15580 X-6.478 Y-41.759 Z-0.256
N15585 X-6.741 Y-42.023 Z-0.337
N15590 X-7.233 Y-42.515 Z-0.536
N15595 X-7.52 Y-42.801 Z-0.677
N15600 X-7.879 Y-43.161 Z-0.877
N15605 X-8.118 Y-43.399 Z-1.033
N15610 X-8.507 Y-43.788 Z-1.316
N15615 X-8.864 Y-44.146 Z-1.63
N15620 X-9.021 Y-44.303 Z-1.779
N15625 X-9.765 Y-45.046 Z-2.518
N15630 X-9.919 Y-45.2 Z-2.664
N15635 X-10.073 Y-45.355 Z-2.795
N15640 X-10.234 Y-45.515 Z-2.914
N15645 X-10.374 Y-45.655 Z-3.
N15650 X-11.345 Y-46.626
N15655 X-11.535 Y-46.816 Z-2.879
N15660 X-11.701 Y-46.982 Z-2.749
N15665 X-11.984 Y-47.265 Z-2.489
N15670 X-12.714 Y-47.995 Z-1.762
N15675 X-12.865 Y-48.147 Z-1.62
N15680 X-13.18 Y-48.461 Z-1.342
N15685 X-13.423 Y-48.705 Z-1.159
N15690 X-13.756 Y-49.037 Z-0.928
N15695 X-14.011 Y-49.293 Z-0.78
N15700 X-14.271 Y-49.552 Z-0.638
N15705 X-14.533 Y-49.815 Z-0.516
N15710 X-14.98 Y-50.261 Z-0.337
N15715 X-15.464 Y-50.746 Z-0.192
N15720 X-15.753 Y-51.034 Z-0.124
N15725 X-16.26 Y-51.542 Z-0.041
N15730 X-16.538 Y-51.82 Z-0.019
N15735 X-16.962 Y-52.243 Z0.
N15740 X-20.718 Y-56.
N15745 X-20.766 Y-56.048 Z0.008
N15750 X-20.812 Y-56.093 Z0.031
N15755 X-20.857 Y-56.139 Z0.053
N15760 X-20.905 Y-56.187 Z0.061
N15765 X-20.976 Y-56.257
N15770 X-20.998 Y-56.27
N15775 X-21.024
N15780 X-21.047 Y-56.257
N15785 X-21.059 Y-56.235
N15790 Y-56.209
N15795 X-21.047 Y-56.187
N15800 X-20.999 Y-56.139 Z0.053
N15805 X-20.953 Y-56.093 Z0.031
N15810 X-20.908 Y-56.048 Z0.008
N15815 X-20.86 Y-56. Z0.
N15820 X-17.292 Y-52.432
N15825 X-16.86 Y-52. Z-0.009
N15830 X-16.396 Y-51.536 Z-0.042
N15835 X-15.934 Y-51.075 Z-0.117
N15840 X-15.66 Y-50.8 Z-0.177
N15845 X-15.205 Y-50.345 Z-0.309
N15850 X-14.937 Y-50.077 Z-0.408
N15855 X-14.494 Y-49.634 Z-0.597
N15860 X-14.06 Y-49.201 Z-0.831
N15865 X-13.891 Y-49.031 Z-0.932
N15870 X-13.559 Y-48.699 Z-1.163
N15875 X-13.317 Y-48.457 Z-1.345
N15880 X-12.926 Y-48.066 Z-1.693
N15885 X-12.045 Y-47.185 Z-2.572
N15890 X-11.745 Y-46.886 Z-2.851
N15895 X-11.556 Y-46.696 Z-3.
N15900 X-10.304 Y-45.444
N15905 X-10.294 Y-45.434 Z-2.993
N15910 X-10.071 Y-45.211 Z-2.815
N15915 X-9.917 Y-45.057 Z-2.669
N15920 X-9.021 Y-44.162 Z-1.779
N15925 X-8.864 Y-44.004 Z-1.63
N15930 X-8.507 Y-43.647 Z-1.316
N15935 X-8.118 Y-43.258 Z-1.033
N15940 X-7.879 Y-43.019 Z-0.877
N15945 X-7.52 Y-42.66 Z-0.677
N15950 X-7.233 Y-42.373 Z-0.536
N15955 X-6.741 Y-41.881 Z-0.337
N15960 X-6.478 Y-41.618 Z-0.256
N15965 X-6.067 Y-41.207 Z-0.145
N15970 X-5.634 Y-40.774 Z-0.068
N15975 X-5.384 Y-40.524 Z-0.033
N15980 X-4.923 Y-40.063 Z-0.005
N15985 X-1. Y-36.14 Z0.
N15990 X-0.952 Y-36.092 Z0.008
N15995 X-0.907 Y-36.047 Z0.031
N16000 X-0.861 Y-36.002 Z0.053
N16005 X-0.813 Y-35.954 Z0.061
N16010 X-0.743 Y-35.883
N16015 X-0.73 Y-35.86
N16020 Y-35.835
N16025 X-0.743 Y-35.812
N16030 X-0.765 Y-35.799
N16035 X-0.791
N16040 X-0.813 Y-35.812
N16045 X-0.861 Y-35.86 Z0.053
N16050 X-0.907 Y-35.905 Z0.031
N16055 X-0.952 Y-35.951 Z0.008
N16060 X-1. Y-35.999 Z0.
N16065 X-4.87 Y-39.869 Z-0.002
N16070 X-5.384 Y-40.383 Z-0.033
N16075 X-5.634 Y-40.633 Z-0.068
N16080 X-6.067 Y-41.066 Z-0.145
N16085 X-6.478 Y-41.476 Z-0.256
N16090 X-6.741 Y-41.74 Z-0.337
N16095 X-7.233 Y-42.232 Z-0.536
N16100 X-7.52 Y-42.519 Z-0.677
N16105 X-7.879 Y-42.878 Z-0.877
N16110 X-8.118 Y-43.116 Z-1.033
N16115 X-8.507 Y-43.505 Z-1.316
N16120 X-8.864 Y-43.863 Z-1.63
N16125 X-9.021 Y-44.02 Z-1.779
N16130 X-10.068 Y-45.067 Z-2.82
N16135 X-10.267 Y-45.266 Z-3.
N16140 X-11.734 Y-46.733
N16145 X-12.033 Y-47.032 Z-2.725
N16150 X-13.067 Y-48.066 Z-1.694
N16155 X-13.458 Y-48.456 Z-1.346
N16160 X-13.699 Y-48.698 Z-1.164
N16165 X-14.032 Y-49.03 Z-0.932
N16170 X-14.201 Y-49.2 Z-0.832
N16175 X-14.634 Y-49.633 Z-0.597
N16180 X-14.899 Y-49.898 Z-0.482
N16185 X-15.166 Y-50.165 Z-0.372
N16190 X-15.436 Y-50.435 Z-0.282
N16195 X-15.892 Y-50.89 Z-0.154
N16200 X-16.167 Y-51.166 Z-0.102
N16205 X-16.536 Y-51.535 Z-0.042
N16210 X-17. Y-51.999 Z-0.009
N16215 X-17.282 Y-52.28 Z0.
N16220 X-21.001 Y-56.
N16225 X-21.049 Y-56.048 Z0.008
N16230 X-21.095 Y-56.093 Z0.031
N16235 X-21.14 Y-56.139 Z0.053
N16240 X-21.188 Y-56.187 Z0.061
N16245 X-21.259 Y-56.257
N16250 X-21.281 Y-56.27
N16255 X-21.307
N16260 X-21.329 Y-56.257
N16265 X-21.342 Y-56.235
N16270 Y-56.209
N16275 X-21.329 Y-56.187
N16280 X-21.281 Y-56.139 Z0.053
N16285 X-21.236 Y-56.093 Z0.031
N16290 X-21.191 Y-56.048 Z0.008
N16295 X-21.143 Y-56. Z0.
N16300 X-17.396 Y-52.253
N16305 X-16.909 Y-51.766 Z-0.022
N16310 X-16.631 Y-51.488 Z-0.048
N16315 X-16.21 Y-51.067 Z-0.118
N16320 X-15.896 Y-50.753 Z-0.19
N16325 X-15.442 Y-50.299 Z-0.324
N16330 X-15.084 Y-49.942 Z-0.464
N16335 X-14.731 Y-49.589 Z-0.619
N16340 X-14.385 Y-49.242 Z-0.808
N16345 X-14.132 Y-48.989 Z-0.959
N16350 X-13.8 Y-48.658 Z-1.193
N16355 X-13.559 Y-48.417 Z-1.379
N16360 X-13.17 Y-48.027 Z-1.731
N16365 X-12.487 Y-47.344 Z-2.413
N16370 X-11.892 Y-46.75 Z-3.
N16375 X-10.251 Y-45.108
N16380 X-10.22 Y-45.077 Z-2.971
N16385 X-9.021 Y-43.879 Z-1.779
N16390 X-8.864 Y-43.722 Z-1.63
N16395 X-8.507 Y-43.364 Z-1.316
N16400 X-8.118 Y-42.975 Z-1.033
N16405 X-7.879 Y-42.736 Z-0.877
N16410 X-7.52 Y-42.377 Z-0.677
N16415 X-7.233 Y-42.09 Z-0.536
N16420 X-6.741 Y-41.598 Z-0.337
N16425 X-6.478 Y-41.335 Z-0.256
N16430 X-6.067 Y-40.924 Z-0.145
N16435 X-5.634 Y-40.491 Z-0.068
N16440 X-5.384 Y-40.242 Z-0.033
N16445 X-4.923 Y-39.78 Z-0.005
N16450 X-1. Y-35.857 Z0.
N16455 X-0.952 Y-35.81 Z0.008
N16460 X-0.907 Y-35.764 Z0.031
N16465 X-0.861 Y-35.719 Z0.053
N16470 X-0.813 Y-35.671 Z0.061
N16475 X-0.743 Y-35.6
N16480 X-0.73 Y-35.578
N16485 Y-35.552
N16490 X-0.743 Y-35.529
N16495 X-0.765 Y-35.516
N16500 X-0.791
N16505 X-0.813 Y-35.529
N16510 X-0.861 Y-35.577 Z0.053
N16515 X-0.907 Y-35.623 Z0.031
N16520 X-0.952 Y-35.668 Z0.008
N16525 X-1. Y-35.716 Z0.
N16530 X-4.87 Y-39.586 Z-0.002
N16535 X-5.384 Y-40.1 Z-0.033
N16540 X-5.634 Y-40.35 Z-0.068
N16545 X-6.067 Y-40.783 Z-0.145
N16550 X-6.478 Y-41.193 Z-0.256
N16555 X-6.741 Y-41.457 Z-0.337
N16560 X-7.233 Y-41.949 Z-0.536
N16565 X-7.52 Y-42.236 Z-0.677
N16570 X-7.879 Y-42.595 Z-0.877
N16575 X-8.118 Y-42.834 Z-1.033
N16580 X-8.507 Y-43.223 Z-1.316
N16585 X-8.864 Y-43.58 Z-1.63
N16590 X-9.021 Y-43.737 Z-1.779
N16595 X-10.243 Y-44.959 Z-3.
N16600 X-12.041 Y-46.757
N16605 X-13.293 Y-48.009 Z-1.748
N16610 X-13.446 Y-48.161 Z-1.607
N16615 X-13.76 Y-48.476 Z-1.33
N16620 X-13.921 Y-48.637 Z-1.207
N16625 X-14.253 Y-48.969 Z-0.973
N16630 X-14.507 Y-49.223 Z-0.819
N16635 X-14.853 Y-49.569 Z-0.629
N16640 X-15.115 Y-49.831 Z-0.51
N16645 X-15.472 Y-50.188 Z-0.363
N16650 X-15.743 Y-50.458 Z-0.275
N16655 X-16.107 Y-50.823 Z-0.171
N16660 X-16.381 Y-51.097 Z-0.113
N16665 X-16.843 Y-51.559 Z-0.039
N16670 X-17.121 Y-51.837 Z-0.018
N16675 X-17.494 Y-52.21 Z0.
N16680 X-21.284 Y-56.
N16685 X-21.332 Y-56.048 Z0.008
N16690 X-21.377 Y-56.093 Z0.031
N16695 X-21.423 Y-56.139 Z0.053
N16700 X-21.471 Y-56.187 Z0.061
N16705 X-21.541 Y-56.257
N16710 X-21.564 Y-56.27
N16715 X-21.59
N16720 X-21.612 Y-56.257
N16725 X-21.625 Y-56.235
N16730 Y-56.209
N16735 X-21.612 Y-56.187
N16740 X-21.564 Y-56.139 Z0.053
N16745 X-21.519 Y-56.093 Z0.031
N16750 X-21.473 Y-56.048 Z0.008
N16755 X-21.425 Y-56. Z0.
N16760 X-17.675 Y-52.25
N16765 X-17.217 Y-51.792 Z-0.021
N16770 X-16.939 Y-51.514 Z-0.045
N16775 X-16.501 Y-51.076 Z-0.117
N16780 X-16.204 Y-50.778 Z-0.183
N16785 X-15.749 Y-50.324 Z-0.315
N16790 X-15.481 Y-50.056 Z-0.417
N16795 X-15.038 Y-49.613 Z-0.607
N16800 X-14.692 Y-49.266 Z-0.795
N16805 X-14.438 Y-49.012 Z-0.944
N16810 X-14.106 Y-48.68 Z-1.177
N16815 X-13.863 Y-48.438 Z-1.361
N16820 X-13.549 Y-48.124 Z-1.641
N16825 X-13.397 Y-47.972 Z-1.786
N16830 X-12.183 Y-46.758 Z-3.
N16835 X-10.243 Y-44.818
N16840 X-9.021 Y-43.596 Z-1.779
N16845 X-8.864 Y-43.439 Z-1.63
N16850 X-8.507 Y-43.081 Z-1.316
N16855 X-8.118 Y-42.692 Z-1.033
N16860 X-7.879 Y-42.453 Z-0.877
N16865 X-7.52 Y-42.094 Z-0.677
N16870 X-7.233 Y-41.808 Z-0.536
N16875 X-6.741 Y-41.316 Z-0.337
N16880 X-6.478 Y-41.052 Z-0.256
N16885 X-6.067 Y-40.641 Z-0.145
N16890 X-5.634 Y-40.208 Z-0.068
N16895 X-5.384 Y-39.959 Z-0.033
N16900 X-4.87 Y-39.445 Z-0.002
N16905 X-1. Y-35.575 Z0.
N16910 X-0.952 Y-35.527 Z0.008
N16915 X-0.907 Y-35.481 Z0.031
N16920 X-0.861 Y-35.436 Z0.053
N16925 X-0.813 Y-35.388 Z0.061
N16930 X-0.743 Y-35.317
N16935 X-0.73 Y-35.295
N16940 Y-35.269
N16945 X-0.743 Y-35.247
N16950 X-0.765 Y-35.234
N16955 X-0.791
N16960 X-0.813 Y-35.247
N16965 X-0.861 Y-35.294 Z0.053
N16970 X-0.907 Y-35.34 Z0.031
N16975 X-0.952 Y-35.385 Z0.008
N16980 X-1. Y-35.433 Z0.
N16985 X-4.923 Y-39.356 Z-0.005
N16990 X-5.384 Y-39.817 Z-0.033
N16995 X-5.634 Y-40.067 Z-0.068
N17000 X-6.067 Y-40.5 Z-0.145
N17005 X-6.478 Y-40.911 Z-0.256
N17010 X-6.741 Y-41.174 Z-0.337
N17015 X-7.233 Y-41.666 Z-0.536
N17020 X-7.52 Y-41.953 Z-0.677
N17025 X-7.879 Y-42.312 Z-0.877
N17030 X-8.118 Y-42.551 Z-1.033
N17035 X-8.507 Y-42.94 Z-1.316
N17040 X-8.864 Y-43.297 Z-1.63
N17045 X-9.021 Y-43.454 Z-1.779
N17050 X-10.243 Y-44.676 Z-3.
N17055 X-12.327 Y-46.76 Z-2.997
N17060 X-13.539 Y-47.972 Z-1.786
N17065 X-13.69 Y-48.123 Z-1.641
N17070 X-14.005 Y-48.438 Z-1.362
N17075 X-14.247 Y-48.68 Z-1.177
N17080 X-14.579 Y-49.012 Z-0.944
N17085 X-14.833 Y-49.266 Z-0.795
N17090 X-15.179 Y-49.612 Z-0.607
N17095 X-15.622 Y-50.055 Z-0.417
N17100 X-15.891 Y-50.324 Z-0.316
N17105 X-16.345 Y-50.778 Z-0.183
N17110 X-16.642 Y-51.075 Z-0.117
N17115 X-17.081 Y-51.514 Z-0.045
N17120 X-17.358 Y-51.791 Z-0.021
N17125 X-17.817 Y-52.25 Z0.
N17130 X-21.567 Y-56.
N17135 X-21.615 Y-56.048 Z0.008
N17140 X-21.66 Y-56.093 Z0.031
N17145 X-21.706 Y-56.139 Z0.053
N17150 X-21.754 Y-56.187 Z0.061
N17155 X-21.824 Y-56.257
N17160 X-21.847 Y-56.27
N17165 X-21.873
N17170 X-21.895 Y-56.257
N17175 X-21.908 Y-56.235
N17180 Y-56.209
N17185 X-21.895 Y-56.187
N17190 X-21.847 Y-56.139 Z0.053
N17195 X-21.802 Y-56.093 Z0.031
N17200 X-21.756 Y-56.048 Z0.008
N17205 X-21.708 Y-56. Z0.
N17210 X-17.958 Y-52.25
N17215 X-17.5 Y-51.792 Z-0.021
N17220 X-17.222 Y-51.514 Z-0.045
N17225 X-16.784 Y-51.075 Z-0.117
N17230 X-16.486 Y-50.778 Z-0.183
N17235 X-16.032 Y-50.324 Z-0.316
N17240 X-15.764 Y-50.056 Z-0.417
N17245 X-15.321 Y-49.613 Z-0.607
N17250 X-14.975 Y-49.266 Z-0.795
N17255 X-14.72 Y-49.012 Z-0.944
N17260 X-14.388 Y-48.68 Z-1.177
N17265 X-14.146 Y-48.438 Z-1.361
N17270 X-13.832 Y-48.123 Z-1.641
N17275 X-13.68 Y-47.972 Z-1.786
N17280 X-12.466 Y-46.757 Z-3.
N17285 X-10.243 Y-44.535
N17290 X-9.021 Y-43.313 Z-1.779
N17295 X-8.864 Y-43.156 Z-1.63
N17300 X-8.507 Y-42.798 Z-1.316
N17305 X-8.118 Y-42.409 Z-1.033
N17310 X-7.879 Y-42.171 Z-0.877
N17315 X-7.52 Y-41.812 Z-0.677
N17320 X-7.233 Y-41.525 Z-0.536
N17325 X-6.741 Y-41.033 Z-0.337
N17330 X-6.478 Y-40.769 Z-0.256
N17335 X-6.067 Y-40.359 Z-0.145
N17340 X-5.634 Y-39.926 Z-0.068
N17345 X-5.384 Y-39.676 Z-0.033
N17350 X-4.87 Y-39.162 Z-0.002
N17355 X-1. Y-35.292 Z0.
N17360 X-0.952 Y-35.244 Z0.008
N17365 X-0.907 Y-35.198 Z0.031
N17370 X-0.861 Y-35.153 Z0.053
N17375 X-0.813 Y-35.105 Z0.061
N17380 X-0.743 Y-35.034
N17385 X-0.73 Y-35.012
N17390 Y-34.986
N17395 X-0.743 Y-34.964
N17400 X-0.765 Y-34.951
N17405 X-0.791
N17410 X-0.813 Y-34.964
N17415 X-0.861 Y-35.012 Z0.053
N17420 X-0.907 Y-35.057 Z0.031
N17425 X-0.952 Y-35.102 Z0.008
N17430 X-1. Y-35.15 Z0.
N17435 X-4.923 Y-39.073 Z-0.005
N17440 X-5.384 Y-39.534 Z-0.033
N17445 X-5.634 Y-39.784 Z-0.068
N17450 X-6.067 Y-40.217 Z-0.145
N17455 X-6.478 Y-40.628 Z-0.256
