%
(LLISTA)
(MACHINE)
(  VENDOR 3DWORKS)
(  MODEL 4590CNC)
(  DESCRIPTION MEGABRUTAL)
(T4 D=6. CR=0. - ZMIN=-2. - FLAT END MILL)
N10 G90 G94 G17 G91.1
N15 G21
N20 G53 G0 Z0.
(2D POCKET1)
N25 M0
(MANUAL TOOL CHANGE TO T4)
N30 S24000 M3
N35 G17 G90 G94
N40 G54
N45 G64 P0.1 Q0.1
N50 G0 X2.505 Y2.863
N55 G43 Z15. H4
N60 G0 Z5.
N65 G1 Z-1.4 F2880.
N70 G19 G2 Y2.263 Z-2. J-0.6 K0.
N75 G1 Y1.453
N80 Y-141.452
N85 Y-141.475
N90 G2 Y-142.075 Z-1.4 J0. K0.6
N95 G0 Z5.
N100 X2.005 Y3.324
N105 G1 Z-1.4 F2880.
N110 G2 Y2.724 Z-2. J-0.6 K0.
N115 G1 Y1.953
N120 Y-141.948
N125 Y-141.972
N130 G2 Y-142.572 Z-1.4 J0. K0.6
N135 G0 Z5.
N140 X1.505 Y3.465
N145 G1 Z-1.4 F2880.
N150 G2 Y2.865 Z-2. J-0.6 K0.
N155 G1 Y2.453
N160 Y-142.456
N165 Y-142.48
N170 G2 Y-143.08 Z-1.4 J0. K0.6
N175 G0 Z5.
N180 X1.005 Y3.594
N185 G1 Z-1.4 F2880.
N190 G2 Y2.994 Z-2. J-0.6 K0.
N195 G1 Y2.629
N200 Y-142.628
N205 Y-142.652
N210 G2 Y-143.252 Z-1.4 J0. K0.6
N215 G0 Z5.
N220 X0.505 Y3.73
N225 G1 Z-1.4 F2880.
N230 G2 Y3.13 Z-2. J-0.6 K0.
N235 G1 Y2.757
N240 Y-142.764
N245 Y-143.163
N250 G2 Y-143.763 Z-1.4 J0. K0.6
N255 G0 Z5.
N260 X0.14 Y3.826
N265 G1 Z-1.46 F2880.
N270 X0.138 Y3.819 Z-1.544
N275 X0.135 Y3.8 Z-1.627
N280 X0.13 Y3.768 Z-1.705
N285 X0.123 Y3.724 Z-1.777
N290 X0.115 Y3.669 Z-1.842
N295 X0.105 Y3.606 Z-1.897
N300 X0.093 Y3.534 Z-1.941
N305 X0.081 Y3.457 Z-1.974
N310 X0.068 Y3.376 Z-1.993
N315 X0.055 Y3.292 Z-2.
N320 X0.007 Y2.991
N325 X0. Y2.897
N330 Y-140.
N335 Y-142.892
N340 X0.007 Y-142.986
N345 X0.059 Y-143.31
N350 X0.073 Y-143.403 Z-1.993
N355 X0.088 Y-143.494 Z-1.971
N360 X0.101 Y-143.579 Z-1.935
N365 X0.114 Y-143.659 Z-1.885
N370 X0.125 Y-143.729 Z-1.824
N375 X0.135 Y-143.79 Z-1.753
N380 X0.142 Y-143.838 Z-1.672
N385 X0.148 Y-143.874 Z-1.585
N390 X0.151 Y-143.896 Z-1.494
N395 X0.153 Y-143.903 Z-1.4
N400 G0 Z15.
N405 G17
N410 M5
N415 G53 G0 Z0.
N420 M30
%
