%
(SRDCE)
(T30601 D=6. CR=0. - ZMIN=-10. - FLAT END MILL)
N10 G90 G94 G17 G91.1
N15 G21
N20 G53 G0 Z0.
(FACE2)
N25 T30601 M6
N30 S24000 M3
N35 G17 G90 G94
N40 G54
N45 G64 P0.01 Q0.01
N50 G0 X3.61 Y-28.4
N55 G43 Z15. H30601
N60 G0 Z5.
N65 G1 Z-1.4 F333.33
N70 G18 G3 X3.01 Z-2. I-0.6 K0. F2864.79
N75 G1 X-31.81
N80 G17 G2 Y-27.806 I0. J0.297
N85 G1 X3.01
N90 G3 Y-27.212 I0. J0.297
N95 G1 X-31.81
N100 G2 Y-26.618 I0. J0.297
N105 G1 X3.01
N110 G3 Y-26.024 I0. J0.297
N115 G1 X-31.81
N120 G2 Y-25.43 I0. J0.297
N125 G1 X3.01
N130 G3 Y-24.836 I0. J0.297
N135 G1 X-31.81
N140 G2 Y-24.242 I0. J0.297
N145 G1 X3.01
N150 G3 Y-23.648 I0. J0.297
N155 G1 X-31.81
N160 G2 Y-23.054 I0. J0.297
N165 G1 X3.01
N170 G3 Y-22.459 I0. J0.297
N175 G1 X-31.81
N180 G2 Y-21.865 I0. J0.297
N185 G1 X3.01
N190 G3 Y-21.271 I0. J0.297
N195 G1 X-31.81
N200 G2 Y-20.677 I0. J0.297
N205 G1 X3.01
N210 G3 Y-20.083 I0. J0.297
N215 G1 X-31.81
N220 G2 Y-19.489 I0. J0.297
N225 G1 X3.01
N230 G3 Y-18.895 I0. J0.297
N235 G1 X-31.81
N240 G2 Y-18.301 I0. J0.297
N245 G1 X3.01
N250 G3 Y-17.707 I0. J0.297
N255 G1 X-31.81
N260 G2 Y-17.113 I0. J0.297
N265 G1 X3.01
N270 G3 Y-16.519 I0. J0.297
N275 G1 X-31.81
N280 G2 Y-15.925 I0. J0.297
N285 G1 X3.01
N290 G3 Y-15.331 I0. J0.297
N295 G1 X-31.81
N300 G2 Y-14.737 I0. J0.297
N305 G1 X3.01
N310 G3 Y-14.143 I0. J0.297
N315 G1 X-31.81
N320 G2 Y-13.549 I0. J0.297
N325 G1 X3.01
N330 G3 Y-12.955 I0. J0.297
N335 G1 X-31.81
N340 G2 Y-12.361 I0. J0.297
N345 G1 X3.01
N350 G3 Y-11.767 I0. J0.297
N355 G1 X-31.81
N360 G2 Y-11.173 I0. J0.297
N365 G1 X3.01
N370 G3 Y-10.579 I0. J0.297
N375 G1 X-31.81
N380 G2 Y-9.985 I0. J0.297
N385 G1 X3.01
N390 G3 Y-9.391 I0. J0.297
N395 G1 X-31.81
N400 G2 Y-8.796 I0. J0.297
N405 G1 X3.01
N410 G3 Y-8.202 I0. J0.297
N415 G1 X-31.81
N420 G2 Y-7.608 I0. J0.297
N425 G1 X3.01
N430 G3 Y-7.014 I0. J0.297
N435 G1 X-31.81
N440 G2 Y-6.42 I0. J0.297
N445 G1 X3.01
N450 G3 Y-5.826 I0. J0.297
N455 G1 X-31.81
N460 G2 Y-5.232 I0. J0.297
N465 G1 X3.01
N470 G3 Y-4.638 I0. J0.297
N475 G1 X-31.81
N480 G2 Y-4.044 I0. J0.297
N485 G1 X3.01
N490 G3 Y-3.45 I0. J0.297
N495 G1 X-31.81
N500 G2 Y-2.856 I0. J0.297
N505 G1 X3.01
N510 G18 G2 X3.61 Z-1.4 I0. K0.6
N515 G0 Z15.
N520 G17
(2D ADAPTIVE4)
N525 G64 P0.1 Q0.1
N530 G0 X-29.27 Y-32.296
N535 Z15.
N540 Z5.
N545 Z-7.4
N550 G1 Z-8. F2864.79
N555 Z-10.
N560 G3 X-28.8 Y-29.029 I-14.839 J3.801
N565 G1 Y-28.969
N570 X-29.566 Y-28.395
N575 X-30.16 Y-27.644
N580 X-30.583 Y-26.784
N585 X-30.857 Y-25.867
N590 X-31.021 Y-24.923
N595 X-31.111 Y-23.969
N600 X-31.157 Y-23.013
N605 X-31.179 Y-22.055
N610 X-31.19 Y-21.098
N615 X-31.195 Y-20.14
N620 X-31.198 Y-19.182
N625 X-31.2 Y-16.309
N630 Y-0.986
N635 X-30.909 Y-0.074
N640 X-30.354 Y0.706
N645 X-29.615 Y1.316
N650 X-28.762 Y1.752
N655 X-27.848 Y2.038
N660 X-26.906 Y2.21
N665 X-25.953 Y2.305
N670 X-24.997 Y2.354
N675 X-24.039 Y2.378
N680 X-23.082 Y2.39
N685 X-22.124 Y2.395
N690 X-21.166 Y2.398
N695 X-19.251 Y2.399
N700 X-10.632 Y2.4
N705 X-1.055
N710 X-0.135 Y2.131
N715 X0.656 Y1.592
N720 X1.278 Y0.864
N725 X1.726 Y0.018
N730 X2.022 Y-0.893
N735 X2.201 Y-1.834
N740 X2.3 Y-2.787
N745 X2.351 Y-3.743
N750 X2.377 Y-4.7
N755 X2.389 Y-5.658
N760 X2.395 Y-6.616
N765 X2.398 Y-7.573
N770 X2.399 Y-9.489
N775 X2.4 Y-24.812
N780 X2.176 Y-25.743
N785 X1.669 Y-26.556
N790 X0.962 Y-27.202
N795 X0.129 Y-27.674
N800 X-0.775 Y-27.989
N805 X-1.714 Y-28.182
N810 X-2.665 Y-28.29
N815 X-3.621 Y-28.346
N820 X-4.578 Y-28.374
N825 X-5.536 Y-28.388
N830 X-6.494 Y-28.394
N835 X-7.451 Y-28.397
N840 X-8.409 Y-28.399
N845 X-13.198 Y-28.4
N850 X-26.605
N855 X-27.536 Y-28.175
N860 X-28.37 Y-27.705
N865 X-29.062 Y-27.042
N870 X-29.596 Y-26.248
N875 X-29.982 Y-25.371
N880 X-30.239 Y-24.448
N885 X-30.399 Y-23.504
N890 X-30.492 Y-22.551
N895 X-30.544 Y-21.595
N900 X-30.571 Y-20.637
N905 X-30.586 Y-19.68
N910 X-30.593 Y-18.722
N915 X-30.596 Y-17.764
N920 X-30.599 Y-15.849
N925 X-30.6 Y-7.23
N930 Y-2.441
N935 X-30.405 Y-1.504
N940 X-29.973 Y-0.649
N945 X-29.347 Y0.076
N950 X-28.582 Y0.652
N955 X-27.723 Y1.075
N960 X-26.81 Y1.366
N965 X-25.871 Y1.553
N970 X-24.92 Y1.665
N975 X-23.964 Y1.729
N980 X-23.007 Y1.763
N985 X-22.05 Y1.781
N990 X-21.092 Y1.791
N995 X-20.134 Y1.795
N1000 X-19.177 Y1.798
N1005 X-16.304 Y1.8
N1010 X-2.896
N1015 X-1.941 Y1.722
N1020 X-1.039 Y1.4
N1025 X-0.248 Y0.86
N1030 X0.398 Y0.153
N1035 X0.891 Y-0.668
N1040 X1.243 Y-1.559
N1045 X1.476 Y-2.487
N1050 X1.62 Y-3.434
N1055 X1.703 Y-4.388
N1060 X1.75 Y-5.345
N1065 X1.774 Y-6.302
N1070 X1.787 Y-7.26
N1075 X1.793 Y-8.217
N1080 X1.797 Y-9.175
N1085 X1.799 Y-11.091
N1090 X1.8 Y-21.625
N1095 Y-23.541
N1100 X1.606 Y-24.478
N1105 X1.177 Y-25.334
N1110 X0.554 Y-26.062
N1115 X-0.211 Y-26.639
N1120 X-1.067 Y-27.067
N1125 X-1.979 Y-27.361
N1130 X-2.918 Y-27.549
N1135 X-3.869 Y-27.663
N1140 X-4.824 Y-27.727
N1145 X-5.781 Y-27.763
N1150 X-6.739 Y-27.781
N1155 X-7.696 Y-27.79
N1160 X-8.654 Y-27.795
N1165 X-9.612 Y-27.798
N1170 X-11.527 Y-27.799
N1175 X-24.935 Y-27.8
N1180 X-25.89 Y-27.733
N1185 X-26.804 Y-27.445
N1190 X-27.624 Y-26.95
N1195 X-28.314 Y-26.286
N1200 X-28.86 Y-25.499
N1205 X-29.265 Y-24.632
N1210 X-29.549 Y-23.717
N1215 X-29.736 Y-22.778
N1220 X-29.85 Y-21.827
N1225 X-29.917 Y-20.872
N1230 X-29.955 Y-19.915
N1235 X-29.976 Y-18.957
N1240 X-29.988 Y-18.
N1245 X-29.994 Y-17.042
N1250 X-29.997 Y-16.084
N1255 X-29.999 Y-14.169
N1260 X-30. Y-10.338
N1265 Y-3.634
N1270 X-29.857 Y-2.687
N1275 X-29.505 Y-1.797
N1280 X-28.959 Y-1.01
N1285 X-28.26 Y-0.356
N1290 X-27.45 Y0.156
N1295 X-26.569 Y0.531
N1300 X-25.647 Y0.79
N1305 X-24.704 Y0.959
N1310 X-23.752 Y1.063
N1315 X-22.797 Y1.125
N1320 X-21.84 Y1.159
N1325 X-20.882 Y1.178
N1330 X-19.925 Y1.189
N1335 X-18.967 Y1.194
N1340 X-18.009 Y1.197
N1345 X-16.094 Y1.199
N1350 X-4.601 Y1.2
N1355 X-3.644 Y1.191
N1360 X-2.696 Y1.054
N1365 X-1.805 Y0.702
N1370 X-1.018 Y0.157
N1375 X-0.363 Y-0.542
N1380 X0.149 Y-1.352
N1385 X0.527 Y-2.232
N1390 X0.789 Y-3.153
N1395 X0.959 Y-4.095
N1400 X1.063 Y-5.047
N1405 X1.124 Y-6.003
N1410 X1.159 Y-6.96
N1415 X1.178 Y-7.918
N1420 X1.188 Y-8.875
N1425 X1.194 Y-9.833
N1430 X1.197 Y-10.791
N1435 X1.198 Y-11.748
N1440 X1.2 Y-15.579
N1445 Y-22.283
N1450 X1.074 Y-23.232
N1455 X0.739 Y-24.13
N1460 X0.209 Y-24.927
N1465 X-0.479 Y-25.594
N1470 X-1.281 Y-26.116
N1475 X-2.158 Y-26.502
N1480 X-3.077 Y-26.771
N1485 X-4.019 Y-26.947
N1490 X-4.97 Y-27.056
N1495 X-5.925 Y-27.12
N1500 X-6.882 Y-27.157
N1505 X-7.84 Y-27.177
N1510 X-8.798 Y-27.188
N1515 X-9.755 Y-27.194
N1520 X-10.713 Y-27.197
N1525 X-12.628 Y-27.199
N1530 X-22.205 Y-27.2
N1535 X-23.163
N1540 X-24.121 Y-27.195
N1545 X-25.074 Y-27.099
N1550 X-25.986 Y-26.809
N1555 X-26.813 Y-26.326
N1560 X-27.521 Y-25.68
N1565 X-28.093 Y-24.913
N1570 X-28.531 Y-24.061
N1575 X-28.847 Y-23.157
N1580 X-29.061 Y-22.223
N1585 X-29.199 Y-21.276
N1590 X-29.284 Y-20.322
N1595 X-29.335 Y-19.365
N1600 X-29.364 Y-18.408
N1605 X-29.38 Y-17.451
N1610 X-29.389 Y-16.493
N1615 X-29.394 Y-15.535
N1620 X-29.397 Y-14.578
N1625 X-29.399 Y-12.662
N1630 X-29.4 Y-5.001
N1635 X-29.341 Y-4.045
N1640 X-29.107 Y-3.116
N1645 X-28.68 Y-2.259
N1650 X-28.082 Y-1.511
N1655 X-27.349 Y-0.895
N1660 X-26.52 Y-0.414
N1665 X-25.631 Y-0.06
N1670 X-24.706 Y0.188
N1675 X-23.762 Y0.353
N1680 X-22.81 Y0.456
N1685 X-21.855 Y0.519
N1690 X-20.898 Y0.555
N1695 X-19.94 Y0.575
N1700 X-18.982 Y0.586
N1705 X-18.025 Y0.593
N1710 X-17.067 Y0.596
N1715 X-15.152 Y0.599
N1720 X-8.448 Y0.6
N1725 X-5.575
N1730 X-4.617 Y0.591
N1735 X-3.667 Y0.467
N1740 X-2.762 Y0.156
N1745 X-1.945 Y-0.345
N1750 X-1.248 Y-1.001
N1755 X-0.685 Y-1.776
N1760 X-0.256 Y-2.632
N1765 X0.053 Y-3.539
N1770 X0.263 Y-4.473
N1775 X0.4 Y-5.421
N1780 X0.484 Y-6.375
N1785 X0.534 Y-7.331
N1790 X0.564 Y-8.289
N1795 X0.58 Y-9.246
N1800 X0.589 Y-10.204
N1805 X0.594 Y-11.162
N1810 X0.597 Y-12.119
N1815 X0.599 Y-14.035
N1820 X0.6 Y-20.738
N1825 X0.572 Y-21.696
N1830 X0.391 Y-22.636
N1835 X0.014 Y-23.517
N1840 X-0.542 Y-24.296
N1845 X-1.243 Y-24.949
N1850 X-2.049 Y-25.466
N1855 X-2.924 Y-25.854
N1860 X-3.841 Y-26.13
N1865 X-4.781 Y-26.315
N1870 X-5.731 Y-26.433
N1875 X-6.686 Y-26.504
N1880 X-7.643 Y-26.546
N1885 X-8.601 Y-26.57
N1890 X-9.558 Y-26.584
N1895 X-10.516 Y-26.591
N1900 X-11.474 Y-26.595
N1905 X-12.431 Y-26.597
N1910 X-15.304 Y-26.6
N1915 X-22.008
N1920 X-22.966 Y-26.598
N1925 X-23.922 Y-26.541
N1930 X-24.855 Y-26.325
N1935 X-25.725 Y-25.924
N1940 X-26.494 Y-25.354
N1945 X-27.139 Y-24.646
N1950 X-27.65 Y-23.836
N1955 X-28.035 Y-22.959
N1960 X-28.31 Y-22.042
N1965 X-28.497 Y-21.102
N1970 X-28.618 Y-20.152
N1975 X-28.694 Y-19.198
N1980 X-28.739 Y-18.241
N1985 X-28.766 Y-17.284
N1990 X-28.781 Y-16.326
N1995 X-28.789 Y-15.369
N2000 X-28.794 Y-14.411
N2005 X-28.797 Y-13.453
N2010 X-28.799 Y-11.538
N2015 X-28.8 Y-6.749
N2020 X-28.796 Y-5.792
N2025 X-28.729 Y-4.836
N2030 X-28.498 Y-3.907
N2035 X-28.084 Y-3.043
N2040 X-27.502 Y-2.283
N2045 X-26.787 Y-1.646
N2050 X-25.974 Y-1.14
N2055 X-25.095 Y-0.758
N2060 X-24.177 Y-0.486
N2065 X-23.237 Y-0.301
N2070 X-22.287 Y-0.181
N2075 X-21.332 Y-0.107
N2080 X-20.376 Y-0.061
N2085 X-19.418 Y-0.035
N2090 X-18.461 Y-0.02
N2095 X-17.503 Y-0.011
N2100 X-16.546 Y-0.006
N2105 X-15.588 Y-0.003
N2110 X-13.672 Y-0.001
N2115 X-6.969 Y0.
N2120 X-6.011 Y-0.002
N2125 X-5.054 Y-0.045
N2130 X-4.115 Y-0.234
N2135 X-3.234 Y-0.609
N2140 X-2.447 Y-1.155
N2145 X-1.781 Y-1.843
N2150 X-1.246 Y-2.637
N2155 X-0.838 Y-3.504
N2160 X-0.542 Y-4.414
N2165 X-0.338 Y-5.35
N2170 X-0.204 Y-6.298
N2175 X-0.12 Y-7.253
N2180 X-0.07 Y-8.209
N2185 X-0.04 Y-9.166
N2190 X-0.022 Y-10.124
N2195 X-0.012 Y-11.081
N2200 X-0.007 Y-12.039
N2205 X-0.004 Y-12.997
N2210 X-0.001 Y-14.912
N2215 X0. Y-19.701
N2220 X-0.019 Y-20.658
N2225 X-0.158 Y-21.606
N2230 X-0.476 Y-22.509
N2235 X-0.972 Y-23.329
N2240 X-1.62 Y-24.034
N2245 X-2.385 Y-24.609
N2250 X-3.234 Y-25.054
N2255 X-4.134 Y-25.38
N2260 X-5.064 Y-25.608
N2265 X-6.01 Y-25.761
N2270 X-6.962 Y-25.858
N2275 X-7.918 Y-25.917
N2280 X-8.875 Y-25.953
N2285 X-9.833 Y-25.973
N2290 X-10.79 Y-25.985
N2295 X-11.748 Y-25.992
N2300 X-12.706 Y-25.996
N2305 X-14.621 Y-25.999
N2310 X-19.41 Y-26.
N2315 X-21.325
N2320 X-22.283 Y-25.992
N2325 X-23.238 Y-25.92
N2330 X-24.168 Y-25.692
N2335 X-25.036 Y-25.287
N2340 X-25.805 Y-24.717
N2345 X-26.454 Y-24.013
N2350 X-26.975 Y-23.209
N2355 X-27.373 Y-22.338
N2360 X-27.661 Y-21.425
N2365 X-27.86 Y-20.488
N2370 X-27.991 Y-19.539
N2375 X-28.075 Y-18.585
N2380 X-28.126 Y-17.629
N2385 X-28.157 Y-16.672
N2390 X-28.176 Y-15.714
N2395 X-28.186 Y-14.757
N2400 X-28.192 Y-13.799
N2405 X-28.196 Y-12.841
N2410 X-28.199 Y-10.926
N2415 X-28.2 Y-8.053
N2420 X-28.199 Y-7.095
N2425 X-28.177 Y-6.138
N2430 X-28.042 Y-5.189
N2435 X-27.738 Y-4.281
N2440 X-27.26 Y-3.451
N2445 X-26.631 Y-2.729
N2450 X-25.883 Y-2.131
N2455 X-25.048 Y-1.661
N2460 X-24.158 Y-1.309
N2465 X-23.234 Y-1.057
N2470 X-22.292 Y-0.886
N2475 X-21.341 Y-0.774
N2480 X-20.385 Y-0.703
N2485 X-19.429 Y-0.66
N2490 X-18.471 Y-0.635
N2495 X-17.514 Y-0.62
N2500 X-16.556 Y-0.611
N2505 X-15.598 Y-0.606
N2510 X-14.641 Y-0.604
N2515 X-12.725 Y-0.601
N2520 X-7.937 Y-0.6
N2525 X-6.979 Y-0.601
N2530 X-6.022 Y-0.635
N2535 X-5.077 Y-0.788
N2540 X-4.176 Y-1.114
N2545 X-3.357 Y-1.609
N2550 X-2.648 Y-2.254
N2555 X-2.066 Y-3.014
N2560 X-1.612 Y-3.857
N2565 X-1.273 Y-4.753
N2570 X-1.033 Y-5.68
N2575 X-0.87 Y-6.624
N2580 X-0.764 Y-7.576
N2585 X-0.698 Y-8.531
N2590 X-0.657 Y-9.488
N2595 X-0.633 Y-10.446
N2600 X-0.619 Y-11.403
N2605 X-0.611 Y-12.361
N2610 X-0.606 Y-13.318
N2615 X-0.603 Y-14.276
N2620 X-0.601 Y-16.192
N2625 X-0.6 Y-18.107
N2630 X-0.603 Y-19.065
N2635 X-0.638 Y-20.022
N2640 X-0.799 Y-20.966
N2645 X-1.131 Y-21.864
N2650 X-1.635 Y-22.678
N2655 X-2.287 Y-23.38
N2660 X-3.052 Y-23.956
N2665 X-3.897 Y-24.406
N2670 X-4.795 Y-24.741
N2675 X-5.723 Y-24.977
N2680 X-6.667 Y-25.137
N2685 X-7.619 Y-25.24
N2690 X-8.575 Y-25.305
N2695 X-9.531 Y-25.344
N2700 X-10.489 Y-25.368
N2705 X-11.446 Y-25.382
N2710 X-12.404 Y-25.39
N2715 X-13.362 Y-25.394
N2720 X-14.319 Y-25.397
N2725 X-16.235 Y-25.399
N2730 X-20.066 Y-25.4
N2735 X-21.023 Y-25.397
N2740 X-21.981 Y-25.37
N2745 X-22.928 Y-25.231
N2750 X-23.837 Y-24.928
N2755 X-24.669 Y-24.454
N2760 X-25.397 Y-23.832
N2765 X-26.002 Y-23.089
N2770 X-26.482 Y-22.261
N2775 X-26.845 Y-21.374
N2780 X-27.106 Y-20.453
N2785 X-27.287 Y-19.513
N2790 X-27.407 Y-18.562
N2795 X-27.484 Y-17.608
N2800 X-27.531 Y-16.651
N2805 X-27.56 Y-15.694
N2810 X-27.577 Y-14.736
N2815 X-27.587 Y-13.779
N2820 X-27.592 Y-12.821
N2825 X-27.596 Y-11.863
N2830 X-27.599 Y-9.948
N2835 Y-8.033
N2840 X-27.581 Y-7.075
N2845 X-27.476 Y-6.123
N2850 X-27.214 Y-5.202
N2855 X-26.783 Y-4.347
N2860 X-26.197 Y-3.59
N2865 X-25.483 Y-2.951
N2870 X-24.674 Y-2.439
N2875 X-23.8 Y-2.046
N2880 X-22.886 Y-1.76
N2885 X-21.95 Y-1.559
N2890 X-21.002 Y-1.424
N2895 X-20.048 Y-1.336
N2900 X-19.092 Y-1.282
N2905 X-18.135 Y-1.248
N2910 X-17.177 Y-1.228
N2915 X-16.22 Y-1.216
N2920 X-15.262 Y-1.209
N2925 X-14.304 Y-1.205
N2930 X-12.389 Y-1.202
N2935 X-8.558 Y-1.2
N2940 X-7.601 Y-1.206
N2945 X-6.644 Y-1.252
N2950 X-5.702 Y-1.425
N2955 X-4.805 Y-1.76
N2960 X-3.991 Y-2.265
N2965 X-3.287 Y-2.913
N2970 X-2.705 Y-3.675
N2975 X-2.247 Y-4.516
N2980 X-1.903 Y-5.41
N2985 X-1.658 Y-6.335
N2990 X-1.49 Y-7.278
N2995 X-1.379 Y-8.229
N3000 X-1.309 Y-9.184
N3005 X-1.265 Y-10.141
N3010 X-1.238 Y-11.098
N3015 X-1.222 Y-12.056
N3020 X-1.213 Y-13.014
N3025 X-1.207 Y-13.971
N3030 X-1.204 Y-14.929
N3035 X-1.201 Y-16.844
N3040 Y-17.802
N3045 X-1.213 Y-18.76
N3050 X-1.299 Y-19.714
N3055 X-1.53 Y-20.643
N3060 X-1.933 Y-21.512
N3065 X-2.496 Y-22.287
N3070 X-3.19 Y-22.946
N3075 X-3.985 Y-23.48
N3080 X-4.849 Y-23.893
N3085 X-5.758 Y-24.197
N3090 X-6.691 Y-24.412
N3095 X-7.637 Y-24.557
N3100 X-8.59 Y-24.652
N3105 X-9.546 Y-24.711
N3110 X-10.503 Y-24.747
N3115 X-11.461 Y-24.769
N3120 X-12.418 Y-24.782
N3125 X-13.376 Y-24.79
N3130 X-14.334 Y-24.794
N3135 X-15.291 Y-24.797
N3140 X-17.207 Y-24.799
N3145 X-19.122 Y-24.8
N3150 X-20.08 Y-24.799
N3155 X-21.037 Y-24.778
N3160 X-21.989 Y-24.671
N3165 X-22.911 Y-24.411
N3170 X-23.769 Y-23.986
N3175 X-24.532 Y-23.408
N3180 X-25.179 Y-22.701
N3185 X-25.701 Y-21.899
N3190 X-26.104 Y-21.03
N3195 X-26.402 Y-20.119
N3200 X-26.612 Y-19.185
N3205 X-26.755 Y-18.238
N3210 X-26.849 Y-17.285
N3215 X-26.908 Y-16.329
N3220 X-26.945 Y-15.372
N3225 X-26.968 Y-14.415
N3230 X-26.981 Y-13.457
N3235 X-26.989 Y-12.5
N3240 X-26.994 Y-11.542
N3245 X-26.996 Y-10.584
N3250 X-26.998 Y-9.626
N3255 X-26.996 Y-8.669
N3260 X-26.97 Y-7.711
N3265 X-26.852 Y-6.761
N3270 X-26.583 Y-5.842
N3275 X-26.149 Y-4.989
N3280 X-25.56 Y-4.233
N3285 X-24.847 Y-3.594
N3290 X-24.04 Y-3.078
N3295 X-23.169 Y-2.679
N3300 X-22.257 Y-2.387
N3305 X-21.322 Y-2.181
N3310 X-20.375 Y-2.041
N3315 X-19.421 Y-1.949
N3320 X-18.465 Y-1.891
N3325 X-17.508 Y-1.855
N3330 X-16.551 Y-1.832
N3335 X-15.593 Y-1.819
N3340 X-14.636 Y-1.811
N3345 X-13.678 Y-1.806
N3350 X-12.72 Y-1.804
N3355 X-10.805 Y-1.801
N3360 X-9.847
N3365 X-8.89 Y-1.802
N3370 X-7.932 Y-1.818
N3375 X-6.979 Y-1.909
N3380 X-6.049 Y-2.139
N3385 X-5.178 Y-2.538
N3390 X-4.399 Y-3.094
N3395 X-3.732 Y-3.782
N3400 X-3.188 Y-4.57
N3405 X-2.764 Y-5.429
N3410 X-2.448 Y-6.333
N3415 X-2.222 Y-7.264
N3420 X-2.068 Y-8.209
N3425 X-1.966 Y-9.161
N3430 X-1.901 Y-10.117
N3435 X-1.861 Y-11.073
N3440 X-1.836 Y-12.031
N3445 X-1.821 Y-12.988
N3450 X-1.812 Y-13.946
N3455 X-1.807 Y-14.904
N3460 X-1.804 Y-15.861
N3465 X-1.803 Y-16.819
N3470 X-1.808 Y-17.777
N3475 X-1.869 Y-18.733
N3480 X-2.053 Y-19.672
N3485 X-2.402 Y-20.564
N3490 X-2.911 Y-21.375
N3495 X-3.561 Y-22.078
N3500 X-4.322 Y-22.66
N3505 X-5.163 Y-23.119
N3510 X-6.055 Y-23.466
N3515 X-6.98 Y-23.716
N3520 X-7.922 Y-23.89
N3525 X-8.872 Y-24.006
N3530 X-9.827 Y-24.081
N3535 X-10.783 Y-24.128
N3540 X-11.741 Y-24.157
N3545 X-12.698 Y-24.175
N3550 X-12.975 Y-24.178
N3555 X-13.178 Y-24.188
N3560 X-13.379 Y-24.214
N3565 X-13.578 Y-24.255
N3570 X-13.639 Y-24.271
N3575 X-13.835 Y-24.31
N3580 X-14.074 Y-24.342
N3585 X-14.291 Y-24.353
N3590 X-14.509
N3595 X-14.726 Y-24.342
N3600 X-14.762 Y-24.337
N3605 X-15.371 Y-24.287
N3610 X-16.327 Y-24.238
N3615 X-17.285 Y-24.217
N3620 X-18.242 Y-24.208
N3625 X-19.2 Y-24.203
N3630 X-20.157 Y-24.184
N3635 X-21.111 Y-24.096
N3640 X-22.042 Y-23.87
N3645 X-22.918 Y-23.483
N3650 X-23.707 Y-22.94
N3655 X-24.386 Y-22.265
N3660 X-24.942 Y-21.485
N3665 X-25.379 Y-20.633
N3670 X-25.706 Y-19.733
N3675 X-25.942 Y-18.805
N3680 X-26.105 Y-17.861
N3685 X-26.215 Y-16.91
N3690 X-26.286 Y-15.955
N3695 X-26.33 Y-14.998
N3700 X-26.358 Y-14.041
N3705 X-26.375 Y-13.083
N3710 X-26.385 Y-12.125
N3715 X-26.391 Y-11.168
N3720 X-26.395 Y-10.21
N3725 X-26.391 Y-9.252
N3730 X-26.356 Y-8.295
N3735 X-26.222 Y-7.347
N3740 X-25.939 Y-6.432
N3745 X-25.492 Y-5.585
N3750 X-24.896 Y-4.835
N3755 X-24.179 Y-4.201
N3760 X-23.37 Y-3.688
N3765 X-22.498 Y-3.291
N3770 X-21.587 Y-2.998
N3775 X-20.652 Y-2.791
N3780 X-19.704 Y-2.65
N3785 X-18.751 Y-2.557
N3790 X-17.796 Y-2.497
N3795 X-16.839 Y-2.459
N3800 X-15.881 Y-2.435
N3805 X-14.924 Y-2.421
N3810 X-13.966 Y-2.412
N3815 X-13.008 Y-2.407
N3820 X-12.051 Y-2.404
N3825 X-11.093 Y-2.402
N3830 X-10.135
N3835 X-9.177 Y-2.407
N3840 X-8.221 Y-2.445
N3845 X-7.274 Y-2.591
N3850 X-6.364 Y-2.889
N3855 X-5.525 Y-3.351
N3860 X-4.784 Y-3.958
N3865 X-4.16 Y-4.685
N3870 X-3.657 Y-5.5
N3875 X-3.27 Y-6.375
N3880 X-2.983 Y-7.289
N3885 X-2.78 Y-8.225
N3890 X-2.641 Y-9.173
N3895 X-2.55 Y-10.126
N3900 X-2.492 Y-11.082
N3905 X-2.456 Y-12.039
N3910 X-2.433 Y-12.997
N3915 X-2.42 Y-13.954
N3920 X-2.412 Y-14.912
N3925 X-2.407 Y-15.869
N3930 Y-16.827
N3935 X-2.449 Y-17.784
N3940 X-2.592 Y-18.731
N3945 X-2.893 Y-19.64
N3950 X-3.354 Y-20.479
N3955 X-3.961 Y-21.22
N3960 X-4.688 Y-21.844
N3965 X-5.504 Y-22.346
N3970 X-6.38 Y-22.732
N3975 X-7.294 Y-23.017
N3980 X-8.23 Y-23.219
N3985 X-9.178 Y-23.357
N3990 X-10.131 Y-23.449
N3995 X-11.087 Y-23.507
N4000 X-11.407 Y-23.519
N4005 X-11.803 Y-23.564
N4010 X-12.187 Y-23.668
N4015 X-12.552 Y-23.829
N4020 X-12.987 Y-24.06
N4025 X-13.066 Y-24.093
N4030 X-13.204 Y-24.146
N4035 X-13.422 Y-24.216
N4040 X-13.578 Y-24.255
N4045 X-13.586 Y-24.259
N4050 X-13.717 Y-24.313
N4055 X-13.798 Y-24.336
N4060 X-13.882 Y-24.348
N4065 X-13.984 Y-24.355
N4070 X-14.45 Y-24.387
N4075 X-14.534
N4080 X-14.618 Y-24.375
N4085 X-14.755 Y-24.339
N4090 X-14.762 Y-24.337
N4095 X-14.965 Y-24.31
N4100 X-15.161 Y-24.271
N4105 X-15.378 Y-24.216
N4110 X-15.596 Y-24.146
N4115 X-15.734 Y-24.093
N4120 X-15.875 Y-24.043
N4125 X-16.018 Y-23.999
N4130 X-16.176 Y-23.958
N4135 X-16.366 Y-23.914
N4140 X-16.605 Y-23.867
N4145 X-16.91 Y-23.818
N4150 X-17.31 Y-23.766
N4155 X-17.948 Y-23.705
N4160 X-19.86 Y-23.583
N4165 X-20.806 Y-23.435
N4170 X-21.719 Y-23.147
N4175 X-22.565 Y-22.698
N4180 X-23.316 Y-22.104
N4185 X-23.953 Y-21.388
N4190 X-24.47 Y-20.582
N4195 X-24.872 Y-19.713
N4200 X-25.172 Y-18.803
N4205 X-25.386 Y-17.87
N4210 X-25.534 Y-16.924
N4215 X-25.633 Y-15.971
N4220 X-25.696 Y-15.016
N4225 X-25.737 Y-14.059
N4230 X-25.762 Y-13.101
N4235 X-25.777 Y-12.144
N4240 X-25.786 Y-11.186
N4245 X-25.789 Y-10.228
N4250 X-25.769 Y-9.271
N4255 X-25.672 Y-8.318
N4260 X-25.44 Y-7.389
N4265 X-25.047 Y-6.516
N4270 X-24.501 Y-5.728
N4275 X-23.825 Y-5.05
N4280 X-23.048 Y-4.491
N4285 X-22.197 Y-4.051
N4290 X-21.921 Y-3.95
N4295 X-21.765 Y-3.886
N4300 X-21.614 Y-3.813
N4305 X-21.468 Y-3.73
N4310 X-21.323 Y-3.647
N4315 X-20.814 Y-3.414
N4320 X-20.597 Y-3.349
N4325 X-20.073 Y-3.212
N4330 X-19.51 Y-3.075
N4335 X-19.292 Y-3.027
N4340 X-18.694 Y-2.925
N4345 X-18.205 Y-2.928
N4350 X-17.988 Y-2.934
N4355 X-17.77 Y-2.95
N4360 X-15.855 Y-3.002
N4365 X-14.898 Y-3.008
N4370 X-13.94
N4375 X-11.804 Y-3.004
N4380 X-11.727 Y-3.003
N4385 X-11.65 Y-2.999
N4390 X-11.574 Y-2.994
N4395 G3 X-11.053 Y-2.324 Z-9.8 I-0.075 J0.595
N4400 X-11.644 Y-1.798 I-0.595 J-0.074
N4405 G1 X-17.699 Y-1.754
N4410 G3 X-18.3 Y-2.288 I-0.004 J-0.6
N4415 X-17.77 Y-2.95 Z-10. I0.596 J-0.066
N4420 G1 X-17.335 Y-2.984
N4425 X-16.683 Y-3.042
N4430 X-16.466 Y-3.082
N4435 X-16.248 Y-3.133
N4440 X-16.031 Y-3.197
N4445 X-15.887 Y-3.24
N4450 X-15.733 Y-3.279
N4455 X-15.543 Y-3.32
N4460 X-15.303 Y-3.365
N4465 X-14.997 Y-3.411
N4470 X-14.584 Y-3.46
N4475 X-14.25 Y-3.489
N4480 X-13.849 Y-3.493
N4485 X-13.452 Y-3.435
N4490 X-13.069 Y-3.316
N4495 G3 X-12.759 Y-2.526 Z-9.8 I-0.24 J0.55
N4500 X-13.28 Y-2.167 I-0.55 J-0.24
N4505 G1 X-15.762 Y-2.048
N4510 G3 X-16.34 Y-2.408 I-0.029 J-0.599
N4515 X-16.031 Y-3.197 Z-10. I0.55 J-0.24
N4520 G1 X-15.596 Y-3.37
N4525 X-15.378 Y-3.458
N4530 X-15.041 Y-3.597
N4535 X-14.863 Y-3.66
N4540 X-14.6 Y-3.719
N4545 X-14.33 Y-3.731
N4550 X-14.063 Y-3.697
N4555 X-13.805 Y-3.616
N4560 G3 X-13.506 Y-2.822 Z-9.8 I-0.248 J0.546
N4565 X-14.037 Y-2.47 I-0.547 J-0.247
N4570 G1 X-14.778 Y-2.45
N4575 G3 X-15.34 Y-2.803 I-0.016 J-0.6
N4580 X-15.041 Y-3.597 Z-10. I0.547 J-0.247
N4585 G1 X-14.617 Y-3.771
N4590 X-14.563 Y-3.79
N4595 X-14.509 Y-3.802
N4600 X-14.454 Y-3.81
N4605 X-14.4 Y-3.812
N4610 X-14.346 Y-3.81
N4615 X-14.291 Y-3.802
N4620 X-14.237 Y-3.79
N4625 X-14.183 Y-3.771
N4630 X-13.353 Y-3.43
N4635 X-12.987 Y-3.284
N4640 X-12.769 Y-3.197
N4645 X-12.552 Y-3.133
N4650 X-12.334 Y-3.082
N4655 X-12.117 Y-3.042
N4660 X-11.465 Y-2.984
N4665 X-10.812 Y-2.934
N4670 X-10.595 Y-2.928
N4675 X-10.106 Y-2.925
N4680 X-10.092 Y-2.927
N4685 X-9.943 Y-2.945
N4690 X-8.988 Y-3.012
N4695 X-8.041 Y-3.155
N4700 X-7.127 Y-3.442
N4705 X-6.278 Y-3.885
N4710 X-5.522 Y-4.472
N4715 X-4.878 Y-5.181
N4720 X-4.354 Y-5.983
N4725 X-3.947 Y-6.85
N4730 X-3.643 Y-7.758
N4735 X-3.493 Y-8.398
N4740 X-3.478 Y-8.459
N4745 X-3.462 Y-8.52
N4750 X-3.444 Y-8.58
N4755 X-3.407 Y-8.665
N4760 X-3.357 Y-8.743
N4765 X-3.302 Y-8.793 Z-9.995
N4770 X-3.249 Y-8.842 Z-9.982
N4775 X-3.197 Y-8.889 Z-9.959
N4780 X-3.123 Y-8.919 Z-9.921
N4785 X-3.056 Y-8.946 Z-9.871
N4790 X-2.995 Y-8.97 Z-9.812
N4795 X-2.949 Y-8.974 Z-9.756
N4800 X-2.91 Y-8.978 Z-9.695
N4805 X-2.878 Y-8.981 Z-9.629
N4810 Z-9.628
N4815 X-2.853 Y-8.98 Z-9.554
N4820 X-2.838 Z-9.478
N4825 X-2.833 Z-9.4
N4830 G0 Z5.
N4835 X-11.254 Y-2.193
N4840 Z-8.8
N4845 G1 Z-9.4 F2864.79
N4850 X-11.249 Y-2.198 Z-9.494
N4855 X-11.232 Y-2.212 Z-9.585
N4860 X-11.205 Y-2.235 Z-9.672
N4865 X-11.167 Y-2.267 Z-9.753
N4870 X-11.121 Y-2.307 Z-9.824
N4875 X-11.066 Y-2.353 Z-9.885
N4880 X-11.005 Y-2.405 Z-9.935
N4885 X-10.939 Y-2.462 Z-9.971
N4890 X-10.869 Y-2.521 Z-9.993
N4895 X-10.798 Y-2.582 Z-10.
N4900 G3 X-10.092 Y-2.927 I1.026 J1.205
N4905 G1 X-9.508 Y-3.027
N4910 X-9.29 Y-3.075
N4915 X-8.727 Y-3.212
N4920 X-8.203 Y-3.349
N4925 X-7.986 Y-3.414
N4930 X-7.477 Y-3.647
N4935 X-7.333 Y-3.729
N4940 X-6.755 Y-4.082
N4945 X-6.067 Y-4.517
N4950 X-6.029 Y-4.547
N4955 X-5.794 Y-4.735
N4960 X-5.578 Y-4.952
N4965 X-5.374 Y-5.17
N4970 X-4.724 Y-5.933
N4975 X-4.635 Y-6.04
N4980 X-4.507 Y-6.205
N4985 X-4.469 Y-6.257
N4990 X-4.319 Y-6.475
N4995 X-4.196 Y-6.692
N5000 X-4.088 Y-6.91
N5005 X-3.728 Y-7.78
N5010 X-3.637 Y-8.001
N5015 X-3.558 Y-8.215
N5020 X-3.395 Y-8.736
N5025 X-3.392 Y-8.749
N5030 X-3.391 Y-8.763
N5035 X-3.228 Y-9.706
N5040 X-3.149 Y-10.661
N5045 X-3.095 Y-11.617
N5050 X-3.059 Y-12.574
N5055 X-3.037 Y-13.531
N5060 X-3.022 Y-14.489
N5065 X-3.014 Y-15.447
N5070 X-3.021 Y-16.404
N5075 X-3.08 Y-17.36
N5080 X-3.264 Y-18.3
N5085 X-3.601 Y-19.197
N5090 X-4.098 Y-20.015
N5095 X-4.734 Y-20.731
N5100 X-5.482 Y-21.33
N5105 X-6.311 Y-21.809
N5110 X-7.195 Y-22.177
N5115 X-8.114 Y-22.448
N5120 X-9.052 Y-22.639
N5125 X-10.001 Y-22.769
N5130 X-10.602 Y-22.833
N5135 X-10.698 Y-22.846
N5140 X-11.061 Y-22.923
N5145 X-11.41 Y-23.049
N5150 X-11.738 Y-23.223
N5155 X-12.038 Y-23.44
N5160 X-12.301 Y-23.658
N5165 X-12.552 Y-23.829
N5170 X-12.558 Y-23.835 Z-9.998
N5175 G2 X-13.064 Y-24.226 Z-9.862 I-1.737 J1.723
N5180 X-13.316 Y-24.305 Z-9.805 I-0.302 J0.518
N5185 G1 X-13.342 Y-24.307 Z-9.8
N5190 X-14.875 Y-24.435
N5195 X-14.899 Y-24.437 Z-9.805
N5200 G2 X-15.161 Y-24.4 Z-9.862 I-0.05 J0.598
N5205 X-15.724 Y-24.098 Z-9.998 I0.865 J2.289
N5210 G1 X-15.734 Y-24.093 Z-10.
N5215 X-15.813 Y-24.06
N5220 X-16.248 Y-23.829
N5225 X-16.284 Y-23.804
N5230 X-16.412 Y-23.726
N5235 X-16.548 Y-23.661
N5240 X-16.686 Y-23.604
N5245 X-16.827 Y-23.552
N5250 X-16.971 Y-23.504
N5255 X-17.15 Y-23.452
N5260 X-17.375 Y-23.393
N5265 X-17.665 Y-23.328
N5270 X-18.05 Y-23.254
N5275 X-18.996 Y-23.105
N5280 X-19.94 Y-22.94
N5285 X-20.858 Y-22.667
N5290 X-21.718 Y-22.247
N5295 X-22.493 Y-21.683
N5300 X-23.16 Y-20.996
N5305 X-23.71 Y-20.213
N5310 X-24.145 Y-19.359
N5315 X-24.474 Y-18.46
N5320 X-24.714 Y-17.533
N5325 X-24.883 Y-16.59
N5330 X-24.997 Y-15.639
N5335 X-25.072 Y-14.684
N5340 X-25.121 Y-13.728
N5345 X-25.138 Y-13.188
N5350 X-25.15 Y-13.009
N5355 X-25.174 Y-12.831
N5360 X-25.211 Y-12.655
N5365 X-25.391 Y-11.912
N5370 X-25.494 Y-11.477
N5375 X-25.533 Y-11.26
N5380 X-25.561 Y-11.042
N5385 X-25.576 Y-10.825
N5390 X-25.557 Y-10.39
N5395 X-25.546 Y-10.172
N5400 X-25.531 Y-9.955
N5405 X-25.497 Y-9.52
N5410 X-25.475 Y-9.302
N5415 X-25.408 Y-8.749
N5420 X-25.405 Y-8.736
N5425 X-25.242 Y-8.215
N5430 X-25.161 Y-7.997
N5435 X-24.728 Y-6.949
N5440 X-24.712 Y-6.91
N5445 X-24.604 Y-6.692
N5450 X-24.481 Y-6.475
N5455 X-24.331 Y-6.257
N5460 X-24.293 Y-6.205
N5465 X-24.165 Y-6.04
N5470 X-23.981 Y-5.822
N5475 X-23.423 Y-5.167
N5480 X-23.206 Y-4.936
N5485 X-23.006 Y-4.735
N5490 X-22.771 Y-4.547
N5495 X-22.733 Y-4.517
N5500 X-22.045 Y-4.082
N5505 X-21.468 Y-3.73
N5510 G3 X-21.228 Y-3.04 I-0.33 J0.501
N5515 G1 X-21.258 Y-2.951 Z-9.993
N5520 X-21.287 Y-2.864 Z-9.971
N5525 X-21.314 Y-2.781 Z-9.935
N5530 X-21.34 Y-2.705 Z-9.885
N5535 X-21.362 Y-2.637 Z-9.824
N5540 X-21.382 Y-2.579 Z-9.753
N5545 X-21.397 Y-2.532 Z-9.672
N5550 X-21.409 Y-2.498 Z-9.585
N5555 X-21.415 Y-2.477 Z-9.494
N5560 X-21.418 Y-2.47 Z-9.4
N5565 G0 Z5.
N5570 X-3.019 Y-7.439
N5575 Z-8.8
N5580 G1 Z-9.4 F2864.79
N5585 X-3.022 Y-7.446 Z-9.494
N5590 X-3.031 Y-7.466 Z-9.585
N5595 X-3.046 Y-7.499 Z-9.672
N5600 X-3.066 Y-7.544 Z-9.753
N5605 X-3.09 Y-7.6 Z-9.824
N5610 X-3.119 Y-7.665 Z-9.885
N5615 X-3.152 Y-7.739 Z-9.935
N5620 X-3.187 Y-7.818 Z-9.971
N5625 X-3.224 Y-7.902 Z-9.993
N5630 X-3.262 Y-7.988 Z-10.
N5635 G3 X-3.391 Y-8.763 I1.448 J-0.639
N5640 G1 X-3.325 Y-9.302
N5645 X-3.303 Y-9.52
N5650 X-3.269 Y-9.955
N5655 X-3.254 Y-10.172
N5660 X-3.233 Y-10.607
N5665 X-3.224 Y-10.825
N5670 X-3.239 Y-11.042
N5675 X-3.267 Y-11.26
N5680 X-3.306 Y-11.477
N5685 X-3.334 Y-11.597
N5690 X-3.399 Y-11.951
N5695 X-3.439 Y-12.217
N5700 X-3.483 Y-12.583
N5705 X-3.528 Y-13.113
N5710 X-3.579 Y-14.069
N5715 X-3.599 Y-15.027
N5720 X-3.626 Y-15.984
N5725 X-3.717 Y-16.937
N5730 X-3.938 Y-17.869
N5735 X-4.314 Y-18.75
N5740 X-4.844 Y-19.548
N5745 X-5.506 Y-20.239
N5750 X-6.272 Y-20.814
N5755 X-7.113 Y-21.272
N5760 X-8.005 Y-21.622
N5765 X-8.927 Y-21.879
N5770 X-9.866 Y-22.069
N5775 X-10.226 Y-22.151
N5780 X-10.314 Y-22.174
N5785 X-10.677 Y-22.298
N5790 X-11.018 Y-22.475
N5795 X-11.329 Y-22.699
N5800 X-11.604 Y-22.968
N5805 X-11.9 Y-23.303
N5810 X-12.038 Y-23.44
N5815 X-12.044 Y-23.447 Z-9.998
N5820 G2 X-12.689 Y-24.115 Z-9.8 I-2.265 J1.541
N5825 X-12.907 Y-24.26 I-1.62 J2.209
N5830 X-13.163 Y-24.342 I-0.307 J0.516
N5835 G1 X-15.022 Y-24.502
N5840 G2 X-15.288 Y-24.464 I-0.051 J0.598
N5845 X-15.528 Y-24.359 I0.98 J2.558
N5850 X-16.277 Y-23.811 Z-9.998 I1.22 J2.452
N5855 G1 X-16.284 Y-23.804 Z-10.
N5860 X-16.499 Y-23.658
N5865 X-16.683 Y-23.506
N5870 X-16.803 Y-23.416
N5875 X-16.927 Y-23.331
N5880 X-17.056 Y-23.255
N5885 X-17.189 Y-23.186
N5890 X-17.325 Y-23.123
N5895 X-17.48 Y-23.059
N5900 X-17.682 Y-22.982
N5905 X-17.963 Y-22.886
N5910 X-18.879 Y-22.604
N5915 X-19.796 Y-22.33
N5920 X-20.677 Y-21.954
N5925 X-21.487 Y-21.444
N5930 X-22.204 Y-20.808
N5935 X-22.81 Y-20.066
N5940 X-23.303 Y-19.245
N5945 X-23.687 Y-18.368
N5950 X-23.976 Y-17.455
N5955 X-24.184 Y-16.52
N5960 X-24.329 Y-15.573
N5965 X-24.403 Y-14.857
N5970 X-24.464 Y-14.501
N5975 X-24.573 Y-14.157
N5980 X-24.728 Y-13.83
N5985 X-24.828 Y-13.653
N5990 X-24.945 Y-13.434
N5995 X-25.038 Y-13.218
N6000 X-25.114 Y-13.
N6005 X-25.163 Y-12.848
N6010 X-25.204 Y-12.681
N6015 X-25.211 Y-12.655
N6020 G3 X-25.796 Y-12.218 I-0.578 J-0.162
N6025 G1 X-25.889 Y-12.219 Z-9.993
N6030 X-25.981 Y-12.22 Z-9.971
N6035 X-26.068 Y-12.221 Z-9.935
N6040 X-26.148 Y-12.222 Z-9.885
N6045 X-26.22 Y-12.223 Z-9.824
N6050 X-26.281 Y-12.224 Z-9.753
N6055 X-26.33 Z-9.672
N6060 X-26.366 Y-12.225 Z-9.585
N6065 X-26.388 Z-9.494
N6070 X-26.396 Z-9.4
N6075 G0 Z5.
N6080 X-16.047 Y-24.725
N6085 Z-8.8
N6090 G1 Z-9.4 F2864.79
N6095 X-16.05 Y-24.718 Z-9.494
N6100 X-16.057 Y-24.697 Z-9.585
N6105 X-16.069 Y-24.663 Z-9.672
N6110 X-16.086 Y-24.617 Z-9.753
N6115 X-16.106 Y-24.559 Z-9.824
N6120 X-16.13 Y-24.492 Z-9.885
N6125 X-16.156 Y-24.416 Z-9.935
N6130 X-16.185 Y-24.334 Z-9.971
N6135 X-16.215 Y-24.248 Z-9.993
N6140 X-16.247 Y-24.159 Z-10.
N6145 G3 X-16.683 Y-23.506 I-1.493 J-0.525
N6150 G1 X-16.762 Y-23.44
N6155 X-16.9 Y-23.303
N6160 X-16.995 Y-23.195
N6165 X-17.1 Y-23.088
N6170 X-17.212 Y-22.988
N6175 X-17.331 Y-22.896
N6180 X-17.455 Y-22.812
N6185 X-17.582 Y-22.733
N6190 X-17.735 Y-22.645
N6195 X-17.925 Y-22.543
N6200 X-18.244 Y-22.385
N6205 X-19.116 Y-21.988
N6210 X-19.976 Y-21.566
N6215 X-20.775 Y-21.039
N6220 X-21.49 Y-20.402
N6225 X-22.104 Y-19.666
N6230 X-22.609 Y-18.853
N6235 X-23.008 Y-17.982
N6240 X-23.312 Y-17.074
N6245 X-23.535 Y-16.143
N6250 X-23.546 Y-16.084
N6255 X-23.652 Y-15.687
N6260 X-23.814 Y-15.309
N6265 X-24.027 Y-14.958
N6270 X-24.076 Y-14.889
N6275 X-24.169 Y-14.74
N6280 X-24.728 Y-13.83
N6285 X-24.785 Y-13.757
N6290 X-24.853 Y-13.694
N6295 X-24.918 Y-13.659 Z-9.995
N6300 X-24.982 Y-13.625 Z-9.982
N6305 X-25.044 Y-13.591 Z-9.959
N6310 X-25.109 Y-13.581 Z-9.928
N6315 X-25.171 Y-13.571 Z-9.889
N6320 X-25.227 Y-13.562 Z-9.843
N6325 X-25.228 Z-9.842
N6330 X-25.284 Y-13.571 Z-9.782
N6335 X-25.331 Y-13.579 Z-9.715
N6340 X-25.369 Y-13.585 Z-9.642
N6345 X-25.397 Y-13.59 Z-9.564
N6350 X-25.413 Y-13.593 Z-9.483
N6355 X-25.419 Y-13.594 Z-9.401
N6360 G0 Z5.
N6365 X-16.551 Y-24.496
N6370 Z-8.8
N6375 G1 Z-9.4 F2864.79
N6380 X-16.552 Y-24.489 Z-9.494
N6385 X-16.556 Y-24.467 Z-9.585
N6390 X-16.563 Y-24.432 Z-9.672
N6395 X-16.572 Y-24.383 Z-9.753
N6400 X-16.583 Y-24.323 Z-9.824
N6405 X-16.597 Y-24.253 Z-9.885
N6410 X-16.612 Y-24.174 Z-9.935
N6415 X-16.628 Y-24.089 Z-9.971
N6420 X-16.645 Y-23.999 Z-9.993
N6425 X-16.662 Y-23.906 Z-10.
N6430 G3 X-16.995 Y-23.195 I-1.555 J-0.294
N6435 G1 X-17.355 Y-22.788
N6440 X-17.458 Y-22.668
N6445 X-17.568 Y-22.553
N6450 X-17.675 Y-22.447
N6455 X-17.787 Y-22.348
N6460 X-17.91 Y-22.248
N6465 X-18.09 Y-22.111
N6470 X-18.38 Y-21.906
N6475 X-19.178 Y-21.376
N6480 X-19.958 Y-20.821
N6485 X-20.674 Y-20.185
N6490 X-21.302 Y-19.462
N6495 X-21.831 Y-18.664
N6500 X-22.259 Y-17.807
N6505 X-22.6 Y-16.912
N6510 X-22.73 Y-16.624
N6515 X-22.891 Y-16.352
N6520 X-23.083 Y-16.101
N6525 G3 X-23.802 Y-15.975 I-0.442 J-0.406
N6530 G1 X-23.886 Y-16.018 Z-9.993
N6535 X-23.967 Y-16.06 Z-9.971
N6540 X-24.044 Y-16.101 Z-9.935
N6545 X-24.115 Y-16.138 Z-9.885
N6550 X-24.179 Y-16.171 Z-9.824
N6555 X-24.233 Y-16.199 Z-9.753
N6560 X-24.276 Y-16.222 Z-9.672
N6565 X-24.308 Y-16.239 Z-9.585
N6570 X-24.328 Y-16.249 Z-9.494
N6575 X-24.334 Y-16.252 Z-9.4
N6580 G0 Z5.
N6585 X-17.031 Y-23.975
N6590 Z-8.8
N6595 G1 Z-9.4 F2864.79
N6600 X-17.032 Y-23.967 Z-9.494
N6605 X-17.036 Y-23.946 Z-9.585
N6610 X-17.042 Y-23.91 Z-9.672
N6615 X-17.05 Y-23.862 Z-9.753
N6620 X-17.061 Y-23.802 Z-9.824
N6625 X-17.073 Y-23.731 Z-9.885
N6630 X-17.087 Y-23.652 Z-9.935
N6635 X-17.102 Y-23.566 Z-9.971
N6640 X-17.118 Y-23.476 Z-9.993
N6645 X-17.135 Y-23.384 Z-10.
N6650 G3 X-17.458 Y-22.668 I-1.559 J-0.274
N6655 G1 X-18.287 Y-21.7
N6660 X-18.72 Y-21.244
N6665 X-19.4 Y-20.57
N6670 X-20.067 Y-19.883
N6675 X-20.666 Y-19.136
N6680 X-21.105 Y-18.449
N6685 X-21.172 Y-18.349
N6690 X-21.244 Y-18.252
N6695 X-21.321 Y-18.158
N6700 G3 X-22.168 Y-18.122 Z-9.8 I-0.442 J-0.406
N6705 X-22.219 Y-18.954 I0.406 J-0.442
N6710 G1 X-19.212 Y-22.465
N6715 G3 X-18.382 Y-22.543 I0.456 J0.39
N6720 X-18.287 Y-21.7 Z-10. I-0.375 J0.469
N6725 G1 X-23.503 Y-15.61
N6730 X-23.641 Y-15.444
N6735 X-24.027 Y-14.958
N6740 G3 X-24.742 Y-14.806 I-0.456 J-0.39
N6745 G1 X-24.827 Y-14.846 Z-9.993
N6750 X-24.909 Y-14.885 Z-9.971
N6755 X-24.988 Y-14.923 Z-9.935
N6760 X-25.06 Y-14.957 Z-9.885
N6765 X-25.125 Y-14.988 Z-9.824
N6770 X-25.18 Y-15.015 Z-9.753
N6775 X-25.225 Y-15.036 Z-9.672
N6780 X-25.257 Y-15.051 Z-9.585
N6785 X-25.277 Y-15.061 Z-9.494
N6790 X-25.284 Y-15.064 Z-9.4
N6795 G0 Z5.
N6800 X-2.528 Y-10.484
N6805 Z-8.8
N6810 G1 Z-9.4 F2864.79
N6815 X-2.533 Y-10.489 Z-9.494
N6820 X-2.548 Y-10.505 Z-9.585
N6825 X-2.573 Y-10.531 Z-9.672
N6830 X-2.607 Y-10.566 Z-9.753
N6835 X-2.65 Y-10.61 Z-9.824
N6840 X-2.7 Y-10.661 Z-9.885
N6845 X-2.756 Y-10.719 Z-9.935
N6850 X-2.816 Y-10.781 Z-9.971
N6855 X-2.88 Y-10.847 Z-9.993
N6860 X-2.945 Y-10.915 Z-10.
N6865 G3 X-3.334 Y-11.597 I1.137 J-1.1
N6870 G1 X-3.42 Y-11.958
N6875 X-3.62 Y-12.782
N6880 X-3.637 Y-12.848
N6885 X-3.686 Y-13.
N6890 X-3.728 Y-13.12
N6895 X-3.812 Y-13.404
N6900 X-3.856 Y-13.571
N6905 X-3.904 Y-13.784
N6910 X-3.958 Y-14.064
N6915 X-4.037 Y-14.557
N6920 X-4.158 Y-15.507
N6925 X-4.3 Y-16.454
N6930 X-4.563 Y-17.375
N6935 X-4.97 Y-18.242
N6940 X-5.524 Y-19.023
N6945 X-6.203 Y-19.698
N6950 X-6.98 Y-20.258
N6955 X-7.828 Y-20.704
N6960 X-8.721 Y-21.048
N6965 X-9.587 Y-21.318
N6970 X-9.778 Y-21.385
N6975 X-10.093 Y-21.519
N6980 X-10.388 Y-21.693
N6985 X-10.657 Y-21.904
N6990 X-10.897 Y-22.149
N6995 X-11.445 Y-22.788
N7000 X-11.604 Y-22.968
N7005 G3 X-11.628 Y-23.698 I0.463 J-0.381
N7010 G1 X-11.574 Y-23.774 Z-9.993
N7015 X-11.521 Y-23.848 Z-9.971
N7020 X-11.47 Y-23.919 Z-9.935
N7025 X-11.423 Y-23.985 Z-9.885
N7030 X-11.382 Y-24.043 Z-9.824
N7035 X-11.346 Y-24.093 Z-9.753
N7040 X-11.318 Y-24.133 Z-9.672
N7045 X-11.297 Y-24.162 Z-9.585
N7050 X-11.284 Y-24.18 Z-9.494
N7055 X-11.28 Y-24.186 Z-9.4
N7060 G0 Z5.
N7065 X-2.808 Y-12.097
N7070 Z-8.8
N7075 G1 Z-9.4 F2864.79
N7080 X-2.814 Y-12.102 Z-9.494
N7085 X-2.831 Y-12.116 Z-9.585
N7090 X-2.859 Y-12.139 Z-9.672
N7095 X-2.896 Y-12.171 Z-9.753
N7100 X-2.943 Y-12.21 Z-9.824
N7105 X-2.998 Y-12.256 Z-9.885
N7110 X-3.06 Y-12.308 Z-9.935
N7115 X-3.127 Y-12.363 Z-9.971
N7120 X-3.197 Y-12.422 Z-9.993
N7125 X-3.269 Y-12.482 Z-10.
N7130 G3 X-3.728 Y-13.12 I1.015 J-1.214
N7135 G1 X-3.762 Y-13.218
N7140 X-3.855 Y-13.435
N7145 X-3.972 Y-13.653
N7150 X-4.052 Y-13.794
N7155 X-4.135 Y-13.962
N7160 X-4.198 Y-14.099
N7165 X-4.255 Y-14.238
N7170 X-4.327 Y-14.434
N7175 X-4.411 Y-14.684
N7180 X-4.684 Y-15.602
N7185 X-4.971 Y-16.516
N7190 X-5.369 Y-17.387
N7195 X-5.899 Y-18.185
N7200 X-6.551 Y-18.886
N7205 X-7.303 Y-19.479
N7210 X-8.128 Y-19.966
N7215 X-8.995 Y-20.372
N7220 X-9.105 Y-20.422
N7225 X-9.432 Y-20.603
N7230 X-9.73 Y-20.828
N7235 X-9.993 Y-21.093
N7240 G3 X-10.006 Y-21.823 I0.469 J-0.374
N7245 G1 X-9.95 Y-21.899 Z-9.993
N7250 X-9.896 Y-21.973 Z-9.971
N7255 X-9.844 Y-22.043 Z-9.935
N7260 X-9.797 Y-22.107 Z-9.885
N7265 X-9.754 Y-22.165 Z-9.824
N7270 X-9.718 Y-22.214 Z-9.753
N7275 X-9.689 Y-22.254 Z-9.672
N7280 X-9.667 Y-22.283 Z-9.585
N7285 X-9.654 Y-22.3 Z-9.494
N7290 X-9.65 Y-22.306 Z-9.4
N7295 G0 Z5.
N7300 X-2.97 Y-12.946
N7305 Z-8.8
N7310 G1 Z-9.4 F2864.79
N7315 X-2.976 Y-12.95 Z-9.494
N7320 X-2.995 Y-12.961 Z-9.585
N7325 X-3.026 Y-12.979 Z-9.672
N7330 X-3.069 Y-13.003 Z-9.753
N7335 X-3.122 Y-13.034 Z-9.824
N7340 X-3.184 Y-13.07 Z-9.885
N7345 X-3.254 Y-13.11 Z-9.935
N7350 X-3.329 Y-13.153 Z-9.971
N7355 X-3.408 Y-13.199 Z-9.993
N7360 X-3.49 Y-13.246 Z-10.
N7365 G3 X-4.052 Y-13.794 I0.79 J-1.371
N7370 G1 X-4.072 Y-13.83
N7375 X-4.631 Y-14.74
N7380 X-4.724 Y-14.89
N7385 X-4.804 Y-15.017
N7390 X-5.267 Y-15.855
N7395 X-5.727 Y-16.695
N7400 X-6.279 Y-17.477
N7405 X-6.934 Y-18.176
N7410 X-7.675 Y-18.783
N7415 X-8.142 Y-19.089
N7420 X-8.339 Y-19.232
N7425 X-8.522 Y-19.393
N7430 X-8.689 Y-19.571
N7435 G3 X-8.595 Y-20.414 Z-9.8 I0.469 J-0.374
N7440 X-7.762 Y-20.333 I0.375 J0.469
N7445 G1 X-3.789 Y-15.641
N7450 G3 X-3.884 Y-14.776 I-0.458 J0.388
N7455 X-4.724 Y-14.89 Z-10. I-0.363 J-0.477
N7460 G1 X-4.772 Y-14.958
N7465 X-5.159 Y-15.444
N7470 X-5.297 Y-15.61
N7475 X-10.897 Y-22.149
N7480 G3 X-10.91 Y-22.879 I0.469 J-0.374
N7485 G1 X-10.855 Y-22.955 Z-9.993
N7490 X-10.8 Y-23.028 Z-9.971
N7495 X-10.749 Y-23.098 Z-9.935
N7500 X-10.701 Y-23.163 Z-9.885
N7505 X-10.659 Y-23.221 Z-9.824
N7510 X-10.622 Y-23.27 Z-9.753
N7515 X-10.593 Y-23.309 Z-9.672
N7520 X-10.572 Y-23.338 Z-9.585
N7525 X-10.559 Y-23.356 Z-9.494
N7530 X-10.554 Y-23.362 Z-9.4
N7535 G0 Z15.
(2D CONTOUR3)
N7540 G64 P0.01 Q0.01
N7545 G0 X-26.817 Y-11.694
N7550 Z15.
N7555 Z5.
N7560 G1 Z1. F333.33
N7565 Z-9.4
N7570 X-26.809 Z-9.494 F2864.79
N7575 X-26.787 Y-11.692 Z-9.585
N7580 X-26.751 Y-11.689 Z-9.672
N7585 X-26.702 Y-11.685 Z-9.753
N7590 X-26.641 Y-11.68 Z-9.824
N7595 X-26.57 Y-11.674 Z-9.885
N7600 X-26.49 Y-11.668 Z-9.935
N7605 X-26.403 Y-11.661 Z-9.971
N7610 X-26.312 Y-11.654 Z-9.993
N7615 X-26.219 Y-11.647 Z-10.
N7620 X-25.62 Y-11.599
N7625 G3 X-25.07 Y-10.953 I-0.048 J0.598
N7630 G2 X-14.4 Y-4.451 I6.978 J0.555
N7635 X-5.391 Y-14.951 I3.692 J-5.947
N7640 G1 X-12.121 Y-22.81
N7645 G2 X-16.679 I-2.279 J1.951
N7650 G1 X-23.409 Y-14.951
N7655 G2 X-25.07 Y-10.953 I5.317 J4.553
N7660 G3 X-25.716 Y-10.403 I-0.598 J-0.048
N7665 G1 X-26.314 Y-10.45
N7670 X-26.407 Y-10.458 Z-9.993
N7675 X-26.498 Y-10.465 Z-9.971
N7680 X-26.585 Y-10.472 Z-9.935
N7685 X-26.665 Y-10.478 Z-9.885
N7690 X-26.737 Y-10.484 Z-9.824
N7695 X-26.798 Y-10.489 Z-9.753
N7700 X-26.847 Y-10.493 Z-9.672
N7705 X-26.882 Y-10.496 Z-9.585
N7710 X-26.904 Y-10.497 Z-9.494
N7715 X-26.912 Y-10.498 Z-9.4
N7720 G0 Z15.
N7725 M5
N7730 G53 G0 Z0.
N7735 M30
%
